; generated by PrusaSlicer 2.3.2+win64 on 2021-09-14 at 16:41:24 UTC


;
;

;
;
; 

; external perimeters extrusion width = 0.45mm
; perimeters extrusion width = 0.45mm
; infill extrusion width = 0.45mm
; solid infill extrusion width = 0.45mm
; top infill extrusion width = 0.40mm
; support material extrusion width = 0.35mm
; first layer extrusion width = 0.42mm

M73 P0 R127
M201 X1250 Y1250 Z400 E5000 ; sets maximum accelerations, mm/sec^2
M203 X180 Y180 Z12 E80 ; sets maximum feedrates, mm/sec
M204 P1250 R1250 T1250 ; sets acceleration (P, T) and retract acceleration (R), mm/sec^2
M205 X8.00 Y8.00 Z2.00 E10.00 ; sets the jerk limits, mm/sec
M205 S0 T0 ; sets the minimum extruding and travel feed rate, mm/sec
M107
;TYPE:Custom
G90 ; use absolute coordinates
M83 ; extruder relative mode
M104 S170 ; set extruder temp for bed leveling
M140 S60 ; set bed temp
M109 R170 ; wait for bed leveling temp
M190 S60 ; wait for bed temp
G28 ; home all without mesh bed level
G29 ; mesh bed leveling 
M104 S215 ; set extruder temp
G92 E0.0
G1 Y-2.0 X179 F2400
G1 Z3 F720
M109 S215 ; wait for extruder temp

; intro line
G1 X170 F1000
G1 Z0.2 F720
G1 X110.0 E8.0 F900
G1 X40.0 E10.0 F700
G92 E0.0

M221 S95 ; set flow
G21 ; set units to millimeters
G90 ; use absolute coordinates
M83 ; use relative distances for extrusion
M900 K0.2 ; Filament gcode LA 1.5
; ; Filament gcode LA 1.0
;LAYER_CHANGE
;Z:0.2
;HEIGHT:0.2
;BEFORE_LAYER_CHANGE
G92 E0.0
;0.2


G1 E-3.20000 F4200.000
G1 Z0.200 F9000.000
;AFTER_LAYER_CHANGE
;0.2
G1 Z0.400
G1 X26.111 Y1.518
G1 Z0.200
G1 E3.20000 F2400.000
M204 S800
;TYPE:Skirt
;WIDTH:0.42
G1 F3600.000
G1 X26.717 Y1.236 E0.02095
G1 X27.373 Y1.135 E0.02083
G1 X149.583 Y0.965 E3.83180
G1 X152.824 Y1.146 E0.10177
G1 X153.596 Y1.355 E0.02508
G1 X154.150 Y1.714 E0.02071
G1 X154.587 Y2.214 E0.02083
G1 X154.867 Y2.813 E0.02071
G1 X154.972 Y3.465 E0.02071
G1 X154.972 Y18.944 E0.48534
G1 X152.280 Y124.989 E3.32602
G1 X152.062 Y125.920 E0.03001
G1 X151.684 Y126.499 E0.02166
G1 X110.780 Y172.683 E1.93437
G1 X110.189 Y173.165 E0.02390
G1 X109.621 Y173.402 E0.01929
G1 X109.007 Y173.484 E0.01941
G1 X70.989 Y173.484 E1.19205
G1 X70.486 Y173.428 E0.01585
G1 X70.003 Y173.265 E0.01597
G1 X69.225 Y172.689 E0.03036
G1 X28.315 Y126.498 E1.93466
G1 X28.000 Y126.045 E0.01728
G1 X27.798 Y125.528 E0.01740
G1 X27.720 Y124.985 E0.01722
G1 X25.028 Y18.937 E3.32613
G1 X25.028 Y3.481 E0.48460
G1 X25.086 Y2.986 E0.01562
G1 X25.247 Y2.515 E0.01562
G1 X25.607 Y1.957 E0.02083
G1 X26.065 Y1.557 E0.01907
M204 S1250
; printing object 1509_backplate_3-3.stl id:0 copy 0
G1 E-2.24000 F4200.000
;WIPE_START
G1 F7200.000
G1 X26.717 Y1.236 E-0.40232
G1 X27.373 Y1.135 E-0.36819
G1 X27.629 Y1.134 E-0.14150
;WIPE_END
G1 E-0.04800 F4200.000
G1 Z0.400 F9000.000
G1 X30.165 Y13.260
G1 Z0.200
G1 E3.20000 F2400.000
M204 S800
;TYPE:Support material interface
;WIDTH:0.35
G1 F3600.000
G1 X30.165 Y15.487 E0.05686
G1 X30.672 Y15.487 E0.01295
G1 X30.672 Y13.398 E0.05334
G1 X31.179 Y13.398 E0.01295
G1 X31.179 Y15.487 E0.05334
G1 X31.686 Y15.487 E0.01295
G1 X31.686 Y13.398 E0.05334
G1 X32.193 Y13.398 E0.01295
G1 X32.193 Y15.487 E0.05334
G1 X32.700 Y15.487 E0.01295
G1 X32.700 Y13.398 E0.05334
G1 X33.207 Y13.398 E0.01295
G1 X33.207 Y15.487 E0.05334
G1 X33.714 Y15.487 E0.01295
G1 X33.714 Y13.398 E0.05334
G1 X34.221 Y13.398 E0.01295
G1 X34.221 Y15.487 E0.05334
G1 X34.728 Y15.487 E0.01295
G1 X34.728 Y13.398 E0.05334
G1 X35.235 Y13.398 E0.01295
G1 X35.235 Y15.487 E0.05334
G1 X35.743 Y15.487 E0.01295
G1 X35.743 Y13.398 E0.05334
G1 X36.250 Y13.398 E0.01295
G1 X36.250 Y15.487 E0.05334
G1 X36.757 Y15.487 E0.01295
G1 X36.757 Y13.398 E0.05334
G1 X37.264 Y13.398 E0.01295
G1 X37.264 Y15.487 E0.05334
G1 X37.771 Y15.487 E0.01295
G1 X37.771 Y13.398 E0.05334
G1 X38.278 Y13.398 E0.01295
G1 X38.278 Y15.487 E0.05334
G1 X38.785 Y15.487 E0.01295
G1 X38.785 Y13.398 E0.05334
G1 X39.292 Y13.398 E0.01295
G1 X39.292 Y15.487 E0.05333
G1 X39.799 Y15.487 E0.01295
G1 X39.799 Y13.398 E0.05333
G1 X40.306 Y13.398 E0.01295
G1 X40.306 Y15.487 E0.05333
G1 X40.813 Y15.487 E0.01295
G1 X40.813 Y13.398 E0.05333
G1 X41.320 Y13.398 E0.01295
G1 X41.320 Y15.487 E0.05333
G1 X41.828 Y15.487 E0.01295
G1 X41.828 Y13.398 E0.05333
G1 X42.335 Y13.398 E0.01295
G1 X42.335 Y15.487 E0.05333
G1 X42.842 Y15.486 E0.01295
G1 X42.842 Y13.398 E0.05333
G1 X43.349 Y13.398 E0.01295
G1 X43.349 Y15.486 E0.05333
G1 X43.856 Y15.486 E0.01295
G1 X43.856 Y13.398 E0.05333
G1 X44.363 Y13.398 E0.01295
G1 X44.363 Y15.486 E0.05333
G1 X44.870 Y15.486 E0.01295
G1 X44.870 Y13.398 E0.05333
G1 X45.377 Y13.398 E0.01295
G1 X45.377 Y15.486 E0.05333
G1 X45.884 Y15.486 E0.01295
G1 X45.884 Y13.398 E0.05333
G1 X46.391 Y13.398 E0.01295
G1 X46.391 Y15.486 E0.05333
G1 X46.898 Y15.486 E0.01295
G1 X46.898 Y13.398 E0.05333
G1 X47.405 Y13.398 E0.01295
G1 X47.405 Y15.486 E0.05333
G1 X47.912 Y15.486 E0.01295
G1 X47.912 Y13.398 E0.05333
G1 X48.420 Y13.398 E0.01295
G1 X48.420 Y15.486 E0.05333
G1 X48.927 Y15.486 E0.01295
G1 X48.927 Y13.398 E0.05333
G1 X49.434 Y13.398 E0.01295
G1 X49.434 Y15.486 E0.05333
G1 X49.941 Y15.486 E0.01295
G1 X49.941 Y13.398 E0.05333
G1 X50.448 Y13.398 E0.01295
G1 X50.448 Y15.486 E0.05333
G1 X50.955 Y15.486 E0.01295
G1 X50.955 Y13.398 E0.05333
G1 X51.462 Y13.398 E0.01295
G1 X51.462 Y15.486 E0.05333
G1 X51.969 Y15.486 E0.01295
G1 X51.969 Y13.398 E0.05333
G1 X52.476 Y13.398 E0.01295
G1 X52.476 Y15.486 E0.05333
G1 X52.983 Y15.486 E0.01295
G1 X52.983 Y13.398 E0.05333
G1 X53.490 Y13.398 E0.01295
G1 X53.490 Y15.486 E0.05333
G1 X53.997 Y15.486 E0.01295
G1 X53.997 Y13.398 E0.05333
G1 X54.504 Y13.398 E0.01295
G1 X54.504 Y15.486 E0.05333
G1 X55.012 Y15.486 E0.01295
G1 X55.012 Y13.398 E0.05333
G1 X55.519 Y13.398 E0.01295
G1 X55.519 Y15.486 E0.05333
G1 X56.026 Y15.486 E0.01295
G1 X56.026 Y13.398 E0.05333
G1 X56.533 Y13.398 E0.01295
G1 X56.533 Y15.486 E0.05333
G1 X57.040 Y15.486 E0.01295
G1 X57.040 Y13.398 E0.05333
G1 X57.547 Y13.398 E0.01295
G1 X57.547 Y15.486 E0.05333
G1 X58.054 Y15.486 E0.01295
G1 X58.054 Y13.398 E0.05333
G1 X58.561 Y13.398 E0.01295
G1 X58.561 Y15.486 E0.05333
G1 X59.068 Y15.486 E0.01295
G1 X59.068 Y13.398 E0.05333
G1 X59.575 Y13.398 E0.01295
G1 X59.575 Y15.486 E0.05333
G1 X60.082 Y15.486 E0.01295
G1 X60.082 Y13.398 E0.05333
G1 X60.589 Y13.398 E0.01295
G1 X60.589 Y15.486 E0.05333
G1 X61.097 Y15.486 E0.01295
G1 X61.097 Y13.398 E0.05333
G1 X61.604 Y13.398 E0.01295
G1 X61.604 Y15.486 E0.05333
G1 X62.111 Y15.486 E0.01295
G1 X62.111 Y13.398 E0.05333
G1 X62.618 Y13.398 E0.01295
G1 X62.618 Y15.486 E0.05333
G1 X63.125 Y15.486 E0.01295
G1 X63.125 Y13.398 E0.05333
G1 X63.632 Y13.398 E0.01295
G1 X63.632 Y15.486 E0.05333
G1 X64.139 Y15.486 E0.01295
G1 X64.139 Y13.398 E0.05333
G1 X64.646 Y13.398 E0.01295
G1 X64.646 Y15.486 E0.05333
G1 X65.153 Y15.486 E0.01295
G1 X65.153 Y13.398 E0.05333
G1 X65.660 Y13.398 E0.01295
G1 X65.660 Y15.486 E0.05333
G1 X66.167 Y15.486 E0.01295
G1 X66.167 Y13.398 E0.05333
G1 X66.674 Y13.398 E0.01295
G1 X66.674 Y15.486 E0.05333
G1 X67.181 Y15.486 E0.01295
G1 X67.181 Y13.398 E0.05333
G1 X67.689 Y13.398 E0.01295
G1 X67.689 Y15.486 E0.05333
G1 X68.196 Y15.486 E0.01295
G1 X68.196 Y13.398 E0.05333
G1 X68.703 Y13.398 E0.01295
G1 X68.703 Y15.486 E0.05333
G1 X69.210 Y15.486 E0.01295
G1 X69.210 Y13.398 E0.05333
G1 X69.717 Y13.398 E0.01295
G1 X69.717 Y15.486 E0.05333
G1 X70.224 Y15.486 E0.01295
G1 X70.224 Y13.398 E0.05333
G1 X70.731 Y13.398 E0.01295
G1 X70.731 Y15.486 E0.05333
G1 X71.238 Y15.486 E0.01295
G1 X71.238 Y13.398 E0.05333
G1 X71.745 Y13.398 E0.01295
G1 X71.745 Y15.486 E0.05333
G1 X72.252 Y15.486 E0.01295
G1 X72.252 Y13.398 E0.05333
G1 X72.759 Y13.398 E0.01295
G1 X72.759 Y15.486 E0.05333
G1 X73.266 Y15.486 E0.01295
G1 X73.266 Y13.398 E0.05333
G1 X73.773 Y13.398 E0.01295
G1 X73.773 Y15.486 E0.05333
G1 X74.281 Y15.486 E0.01295
G1 X74.281 Y13.398 E0.05333
G1 X74.788 Y13.398 E0.01295
G1 X74.788 Y15.486 E0.05333
G1 X75.295 Y15.486 E0.01295
G1 X75.295 Y13.398 E0.05333
G1 X75.802 Y13.398 E0.01295
G1 X75.802 Y15.486 E0.05333
G1 X76.309 Y15.486 E0.01295
G1 X76.309 Y13.398 E0.05333
G1 X76.816 Y13.398 E0.01295
G1 X76.816 Y15.486 E0.05333
G1 X77.323 Y15.486 E0.01295
G1 X77.323 Y13.398 E0.05333
G1 X77.830 Y13.398 E0.01295
G1 X77.830 Y15.486 E0.05333
G1 X78.337 Y15.486 E0.01295
G1 X78.337 Y13.398 E0.05333
G1 X78.844 Y13.398 E0.01295
G1 X78.844 Y15.486 E0.05333
G1 X79.351 Y15.486 E0.01295
G1 X79.351 Y13.398 E0.05333
G1 X79.858 Y13.398 E0.01295
G1 X79.858 Y15.486 E0.05333
G1 X80.366 Y15.486 E0.01295
G1 X80.366 Y13.398 E0.05333
G1 X80.873 Y13.398 E0.01295
G1 X80.873 Y15.486 E0.05333
G1 X81.380 Y15.486 E0.01295
G1 X81.380 Y13.398 E0.05333
G1 X81.887 Y13.398 E0.01295
G1 X81.887 Y15.486 E0.05333
G1 X82.394 Y15.486 E0.01295
G1 X82.394 Y13.398 E0.05333
G1 X82.901 Y13.398 E0.01295
G1 X82.901 Y15.486 E0.05333
G1 X83.408 Y15.486 E0.01295
G1 X83.408 Y13.398 E0.05333
G1 X83.915 Y13.398 E0.01295
G1 X83.915 Y15.486 E0.05333
G1 X84.422 Y15.486 E0.01295
G1 X84.422 Y13.398 E0.05333
G1 X84.929 Y13.398 E0.01295
G1 X84.929 Y15.486 E0.05333
G1 X85.436 Y15.486 E0.01295
G1 X85.436 Y13.398 E0.05333
G1 X85.943 Y13.398 E0.01295
G1 X85.943 Y15.486 E0.05333
G1 X86.450 Y15.486 E0.01295
G1 X86.450 Y13.398 E0.05333
G1 X86.958 Y13.398 E0.01295
G1 X86.958 Y15.486 E0.05333
G1 X87.465 Y15.486 E0.01295
G1 X87.465 Y13.398 E0.05333
G1 X87.972 Y13.398 E0.01295
G1 X87.972 Y15.486 E0.05333
G1 X88.479 Y15.486 E0.01295
G1 X88.479 Y13.398 E0.05333
G1 X88.986 Y13.398 E0.01295
G1 X88.986 Y15.486 E0.05333
G1 X89.493 Y15.486 E0.01295
G1 X89.493 Y13.398 E0.05333
G1 X90.000 Y13.398 E0.01295
G1 X90.000 Y15.486 E0.05333
G1 X90.507 Y15.486 E0.01295
G1 X90.507 Y13.398 E0.05333
G1 X91.014 Y13.398 E0.01295
G1 X91.014 Y15.486 E0.05333
G1 X91.521 Y15.486 E0.01295
G1 X91.521 Y13.398 E0.05333
G1 X92.028 Y13.398 E0.01295
G1 X92.028 Y15.486 E0.05333
G1 X92.535 Y15.486 E0.01295
G1 X92.535 Y13.398 E0.05333
G1 X93.042 Y13.398 E0.01295
G1 X93.042 Y15.486 E0.05333
G1 X93.550 Y15.486 E0.01295
G1 X93.550 Y13.398 E0.05333
G1 X94.057 Y13.398 E0.01295
G1 X94.057 Y15.486 E0.05333
G1 X94.564 Y15.486 E0.01295
G1 X94.564 Y13.398 E0.05333
G1 X95.071 Y13.398 E0.01295
G1 X95.071 Y15.486 E0.05333
G1 X95.578 Y15.486 E0.01295
G1 X95.578 Y13.398 E0.05333
G1 X96.085 Y13.398 E0.01295
G1 X96.085 Y15.486 E0.05333
G1 X96.592 Y15.486 E0.01295
G1 X96.592 Y13.398 E0.05333
G1 X97.099 Y13.398 E0.01295
G1 X97.099 Y15.486 E0.05333
G1 X97.606 Y15.486 E0.01295
G1 X97.606 Y13.398 E0.05333
G1 X98.113 Y13.398 E0.01295
G1 X98.113 Y15.486 E0.05333
G1 X98.620 Y15.486 E0.01295
G1 X98.620 Y13.398 E0.05333
G1 X99.127 Y13.398 E0.01295
G1 X99.127 Y15.486 E0.05333
G1 X99.635 Y15.486 E0.01295
G1 X99.635 Y13.398 E0.05332
G1 X100.142 Y13.398 E0.01295
G1 X100.142 Y15.486 E0.05332
G1 X100.649 Y15.486 E0.01295
G1 X100.649 Y13.398 E0.05332
G1 X101.156 Y13.398 E0.01295
G1 X101.156 Y15.486 E0.05332
G1 X101.663 Y15.486 E0.01295
G1 X101.663 Y13.398 E0.05332
G1 X102.170 Y13.398 E0.01295
G1 X102.170 Y15.486 E0.05332
G1 X102.677 Y15.486 E0.01295
G1 X102.677 Y13.398 E0.05332
G1 X103.184 Y13.398 E0.01295
G1 X103.184 Y15.486 E0.05332
G1 X103.691 Y15.486 E0.01295
G1 X103.691 Y13.398 E0.05332
G1 X104.198 Y13.398 E0.01295
G1 X104.198 Y15.486 E0.05332
G1 X104.705 Y15.486 E0.01295
G1 X104.705 Y13.398 E0.05332
G1 X105.212 Y13.398 E0.01295
G1 X105.212 Y15.486 E0.05332
G1 X105.719 Y15.486 E0.01295
G1 X105.719 Y13.398 E0.05332
G1 X106.227 Y13.398 E0.01295
G1 X106.227 Y15.486 E0.05332
G1 X106.734 Y15.486 E0.01295
G1 X106.734 Y13.398 E0.05332
G1 X107.241 Y13.398 E0.01295
G1 X107.241 Y15.486 E0.05332
G1 X107.748 Y15.486 E0.01295
G1 X107.748 Y13.398 E0.05332
G1 X108.255 Y13.398 E0.01295
G1 X108.255 Y15.486 E0.05332
G1 X108.762 Y15.486 E0.01295
G1 X108.762 Y13.398 E0.05332
G1 X109.269 Y13.398 E0.01295
G1 X109.269 Y15.486 E0.05332
G1 X109.776 Y15.486 E0.01295
G1 X109.776 Y13.398 E0.05332
G1 X110.283 Y13.398 E0.01295
G1 X110.283 Y15.486 E0.05332
G1 X110.790 Y15.486 E0.01295
G1 X110.790 Y13.398 E0.05332
G1 X111.297 Y13.398 E0.01295
G1 X111.297 Y15.486 E0.05332
G1 X111.804 Y15.486 E0.01295
G1 X111.804 Y13.398 E0.05332
G1 X112.311 Y13.398 E0.01295
G1 X112.311 Y15.486 E0.05332
G1 X112.819 Y15.486 E0.01295
G1 X112.819 Y13.398 E0.05332
G1 X113.326 Y13.398 E0.01295
G1 X113.326 Y15.486 E0.05332
G1 X113.833 Y15.486 E0.01295
G1 X113.833 Y13.398 E0.05332
G1 X114.340 Y13.398 E0.01295
G1 X114.340 Y15.486 E0.05332
G1 X114.847 Y15.486 E0.01295
G1 X114.847 Y13.398 E0.05332
G1 X115.354 Y13.398 E0.01295
G1 X115.354 Y15.486 E0.05332
G1 X115.861 Y15.486 E0.01295
M73 P0 R126
G1 X115.861 Y13.398 E0.05332
G1 X116.368 Y13.398 E0.01295
G1 X116.368 Y15.486 E0.05332
G1 X116.875 Y15.486 E0.01295
G1 X116.875 Y13.398 E0.05332
G1 X117.382 Y13.398 E0.01295
G1 X117.382 Y15.486 E0.05332
G1 X117.889 Y15.486 E0.01295
G1 X117.889 Y13.398 E0.05332
G1 X118.396 Y13.398 E0.01295
G1 X118.396 Y15.486 E0.05332
G1 X118.904 Y15.486 E0.01295
G1 X118.904 Y13.398 E0.05332
G1 X119.411 Y13.398 E0.01295
G1 X119.411 Y15.486 E0.05332
G1 X119.918 Y15.486 E0.01295
G1 X119.918 Y13.398 E0.05332
G1 X120.425 Y13.398 E0.01295
G1 X120.425 Y15.486 E0.05332
G1 X120.932 Y15.486 E0.01295
G1 X120.932 Y13.398 E0.05332
G1 X121.439 Y13.398 E0.01295
G1 X121.439 Y15.486 E0.05332
G1 X121.946 Y15.486 E0.01295
G1 X121.946 Y13.398 E0.05332
G1 X122.453 Y13.398 E0.01295
G1 X122.453 Y15.486 E0.05332
G1 X122.960 Y15.486 E0.01295
G1 X122.960 Y13.398 E0.05332
G1 X123.467 Y13.398 E0.01295
G1 X123.467 Y15.486 E0.05332
G1 X123.974 Y15.486 E0.01295
G1 X123.974 Y13.398 E0.05332
G1 X124.481 Y13.398 E0.01295
G1 X124.481 Y15.486 E0.05332
G1 X124.988 Y15.486 E0.01295
G1 X124.988 Y13.398 E0.05332
G1 X125.496 Y13.398 E0.01295
G1 X125.496 Y15.486 E0.05332
G1 X126.003 Y15.486 E0.01295
G1 X126.003 Y13.398 E0.05332
G1 X126.510 Y13.398 E0.01295
G1 X126.510 Y15.486 E0.05332
G1 X127.017 Y15.486 E0.01295
G1 X127.017 Y13.398 E0.05332
G1 X127.524 Y13.398 E0.01295
G1 X127.524 Y15.486 E0.05332
G1 X128.031 Y15.486 E0.01295
G1 X128.031 Y13.398 E0.05332
G1 X128.538 Y13.398 E0.01295
G1 X128.538 Y15.486 E0.05332
G1 X129.045 Y15.486 E0.01295
G1 X129.045 Y13.398 E0.05332
G1 X129.552 Y13.398 E0.01295
G1 X129.552 Y15.486 E0.05332
G1 X130.059 Y15.486 E0.01295
G1 X130.059 Y13.398 E0.05332
G1 X130.566 Y13.398 E0.01295
G1 X130.566 Y15.486 E0.05332
G1 X131.073 Y15.486 E0.01295
G1 X131.073 Y13.398 E0.05332
G1 X131.580 Y13.398 E0.01295
G1 X131.580 Y15.486 E0.05332
G1 X132.088 Y15.486 E0.01295
G1 X132.088 Y13.398 E0.05332
G1 X132.595 Y13.398 E0.01295
G1 X132.595 Y15.486 E0.05332
G1 X133.102 Y15.486 E0.01295
G1 X133.102 Y13.398 E0.05332
G1 X133.609 Y13.398 E0.01295
G1 X133.609 Y15.486 E0.05332
G1 X134.116 Y15.486 E0.01295
G1 X134.116 Y13.398 E0.05332
G1 X134.623 Y13.398 E0.01295
G1 X134.623 Y15.486 E0.05332
G1 X135.130 Y15.486 E0.01295
G1 X135.130 Y13.398 E0.05332
G1 X135.637 Y13.398 E0.01295
G1 X135.637 Y15.486 E0.05332
G1 X136.144 Y15.486 E0.01295
G1 X136.144 Y13.398 E0.05332
G1 X136.651 Y13.398 E0.01295
G1 X136.651 Y15.486 E0.05332
G1 X137.158 Y15.486 E0.01295
G1 X137.158 Y13.398 E0.05332
G1 X137.665 Y13.398 E0.01295
G1 X137.665 Y15.486 E0.05332
G1 X138.173 Y15.486 E0.01295
G1 X138.173 Y13.398 E0.05332
G1 X138.680 Y13.398 E0.01295
G1 X138.680 Y15.486 E0.05332
G1 X139.187 Y15.486 E0.01295
G1 X139.187 Y13.398 E0.05332
G1 X139.694 Y13.398 E0.01295
G1 X139.694 Y15.486 E0.05332
G1 X140.201 Y15.486 E0.01295
G1 X140.201 Y13.398 E0.05332
G1 X140.708 Y13.398 E0.01295
G1 X140.708 Y15.486 E0.05332
G1 X141.215 Y15.486 E0.01295
G1 X141.215 Y13.398 E0.05332
G1 X141.722 Y13.398 E0.01295
G1 X141.722 Y15.486 E0.05332
G1 X142.229 Y15.486 E0.01295
G1 X142.229 Y13.398 E0.05332
G1 X142.736 Y13.398 E0.01295
G1 X142.736 Y15.486 E0.05332
G1 X143.243 Y15.486 E0.01295
G1 X143.243 Y13.398 E0.05332
G1 X143.750 Y13.398 E0.01295
G1 X143.750 Y15.486 E0.05332
G1 X144.257 Y15.486 E0.01295
G1 X144.257 Y13.398 E0.05332
G1 X144.765 Y13.398 E0.01295
G1 X144.765 Y15.486 E0.05332
G1 X145.272 Y15.486 E0.01295
G1 X145.272 Y13.398 E0.05332
G1 X145.779 Y13.398 E0.01295
G1 X145.779 Y15.486 E0.05332
G1 X146.286 Y15.486 E0.01295
G1 X146.286 Y13.398 E0.05332
G1 X146.793 Y13.398 E0.01295
G1 X146.793 Y15.486 E0.05332
