; G-Code generated by Simplify3D(R) Version 4.1.2
; Sep 10, 2021 at 11:29:29 AM
; Settings Summary
;   processName,Process1
;   applyToModels,1009_backplate
;   profileName,Creality Ender 3 Pro (modified)
;   profileVersion,2021-09-03 13:21:58
;   baseProfile,
;   printMaterial,PLA
;   printQuality,Fast
;   printExtruders,
;   extruderName,Primary Extruder
;   extruderToolheadNumber,0
;   extruderDiameter,0.4
;   extruderAutoWidth,0
;   extruderWidth,0.4
;   extrusionMultiplier,0.9
;   extruderUseRetract,1
;   extruderRetractionDistance,4
;   extruderExtraRestartDistance,0
;   extruderRetractionZLift,0
;   extruderRetractionSpeed,2400
;   extruderUseCoasting,0
;   extruderCoastingDistance,0.2
;   extruderUseWipe,0
;   extruderWipeDistance,5
;   primaryExtruder,0
;   layerHeight,0.3
;   topSolidLayers,3
;   bottomSolidLayers,3
;   perimeterOutlines,2
;   printPerimetersInsideOut,1
;   startPointOption,2
;   startPointOriginX,0
;   startPointOriginY,0
;   sequentialIslands,0
;   spiralVaseMode,0
;   firstLayerHeightPercentage,120
;   firstLayerWidthPercentage,150
;   firstLayerUnderspeed,0.5
;   useRaft,0
;   raftExtruder,0
;   raftTopLayers,3
;   raftBaseLayers,2
;   raftOffset,3
;   raftSeparationDistance,0.14
;   raftTopInfill,100
;   aboveRaftSpeedMultiplier,0.3
;   useSkirt,1
;   skirtExtruder,0
;   skirtLayers,1
;   skirtOutlines,2
;   skirtOffset,4
;   usePrimePillar,0
;   primePillarExtruder,999
;   primePillarWidth,12
;   primePillarLocation,7
;   primePillarSpeedMultiplier,1
;   useOozeShield,0
;   oozeShieldExtruder,999
;   oozeShieldOffset,2
;   oozeShieldOutlines,1
;   oozeShieldSidewallShape,1
;   oozeShieldSidewallAngle,30
;   oozeShieldSpeedMultiplier,1
;   infillExtruder,0
;   internalInfillPattern,Rectilinear
;   externalInfillPattern,Rectilinear
;   infillPercentage,15
;   outlineOverlapPercentage,15
;   infillExtrusionWidthPercentage,100
;   minInfillLength,5
;   infillLayerInterval,1
;   internalInfillAngles,45,-45
;   overlapInternalInfillAngles,0
;   externalInfillAngles,45,-45
;   generateSupport,1
;   supportExtruder,0
;   supportInfillPercentage,25
;   supportExtraInflation,0
;   supportBaseLayers,0
;   denseSupportExtruder,0
;   denseSupportLayers,0
;   denseSupportInfillPercentage,70
;   supportLayerInterval,1
;   supportHorizontalPartOffset,0.3
;   supportUpperSeparationLayers,1
;   supportLowerSeparationLayers,1
;   supportType,0
;   supportGridSpacing,4
;   maxOverhangAngle,45
;   supportAngles,0
;   temperatureName,Primary Extruder,Heated Bed
;   temperatureNumber,0,0
;   temperatureSetpointCount,1,1
;   temperatureSetpointLayers,1,1
;   temperatureSetpointTemperatures,210,60
;   temperatureStabilizeAtStartup,1,1
;   temperatureHeatedBed,0,1
;   fanLayers,1,2
;   fanSpeeds,0,100
;   blipFanToFullPower,0
;   adjustSpeedForCooling,1
;   minSpeedLayerTime,15
;   minCoolingSpeedSlowdown,20
;   increaseFanForCooling,0
;   minFanLayerTime,45
;   maxCoolingFanSpeed,100
;   increaseFanForBridging,0
;   bridgingFanSpeed,100
;   use5D,1
;   relativeEdistances,0
;   allowEaxisZeroing,1
;   independentExtruderAxes,0
;   includeM10123,0
;   stickySupport,1
;   applyToolheadOffsets,0
;   gcodeXoffset,0
;   gcodeYoffset,0
;   gcodeZoffset,0
;   overrideMachineDefinition,1
;   machineTypeOverride,0
;   strokeXoverride,220
;   strokeYoverride,220
;   strokeZoverride,250
;   originOffsetXoverride,-5
;   originOffsetYoverride,-5
;   originOffsetZoverride,0
;   homeXdirOverride,-1
;   homeYdirOverride,-1
;   homeZdirOverride,-1
;   flipXoverride,1
;   flipYoverride,-1
;   flipZoverride,1
;   toolheadOffsets,0,0|0,0|0,0|0,0|0,0|0,0
;   overrideFirmwareConfiguration,1
;   firmwareTypeOverride,RepRap (Marlin/Repetier/Sprinter)
;   GPXconfigOverride,r2
;   baudRateOverride,115200
;   overridePrinterModels,1
;   printerModelsOverride
;   startingGcode,G28 ; home all axes,G1 X5 Y10 Z0.2 F3000 ; get ready to prime,G92 E0 ; reset extrusion distance,G1 X160 E15 F600 ; prime nozzle,G1 X180 F5000 ; quick wipe
;   layerChangeGcode,
;   retractionGcode,
;   toolChangeGcode,
;   endingGcode,G28 X0 ; home X axis,M106 S0 ; turn off cooling fan,M104 S0 ; turn off extruder,M140 S0 ; turn off bed,M84 ; disable motors
;   exportFileFormat,gcode
;   celebration,0
;   celebrationSong,Random Song
;   postProcessing,
;   defaultSpeed,5000
;   outlineUnderspeed,0.5
;   solidInfillUnderspeed,0.8
;   supportUnderspeed,0.8
;   rapidXYspeed,4800
;   rapidZspeed,1000
;   minBridgingArea,50
;   bridgingExtraInflation,0
;   bridgingExtrusionMultiplier,1
;   bridgingSpeedMultiplier,1
;   useFixedBridgingAngle,0
;   fixedBridgingAngle,0
;   applyBridgingToPerimeters,0
;   filamentDiameters,1.75|1.75|1.75|1.75|1.75|1.75
;   filamentPricesPerKg,46|46|46|46|46|46
;   filamentDensities,1.25|1.25|1.25|1.25|1.25|1.25
;   useMinPrintHeight,0
;   minPrintHeight,0
;   useMaxPrintHeight,0
;   maxPrintHeight,0
;   useDiaphragm,0
;   diaphragmLayerInterval,20
;   robustSlicing,1
;   mergeAllIntoSolid,0
;   onlyRetractWhenCrossingOutline,1
;   retractBetweenLayers,1
;   useRetractionMinTravel,0
;   retractionMinTravel,3
;   retractWhileWiping,0
;   onlyWipeOutlines,1
;   avoidCrossingOutline,0
;   maxMovementDetourFactor,3
;   toolChangeRetractionDistance,12
;   toolChangeExtraRestartDistance,-0.5
;   toolChangeRetractionSpeed,600
;   externalThinWallType,0
;   internalThinWallType,2
;   thinWallAllowedOverlapPercentage,10
;   singleExtrusionMinLength,1
;   singleExtrusionMinPrintingWidthPercentage,50
;   singleExtrusionMaxPrintingWidthPercentage,200
;   singleExtrusionEndpointExtension,0.2
;   horizontalSizeCompensation,0
G90
M82
M106 S0
M140 S60
M190 S60
M104 S210 T0
M109 S210 T0
G28 ; home all axes
G1 X5 Y10 Z0.2 F3000 ; get ready to prime
G92 E0 ; reset extrusion distance
G1 X160 E15 F600 ; prime nozzle
G1 X180 F5000 ; quick wipe
; process Process1
; layer 1, Z = 0.360
T0
G92 E0.0000
G1 E-4.0000 F2400
; feature skirt
; tool H0.360 W0.600
G1 Z0.360 F1000
G1 X51.880 Y32.750 F4800
G1 E0.0000 F2400
G92 E0.0000
G1 X54.750 Y29.880 E0.3281 F2500
G1 X175.250 Y29.880 E10.0671
G1 X178.120 Y32.750 E10.3952
G1 X178.120 Y39.210 E10.9173
G1 X179.803 Y40.894 E11.1097
G1 X179.803 Y151.291 E20.0322
G1 X179.167 Y152.970 E20.1773
G1 X136.971 Y200.612 E25.3210
G1 X135.052 Y201.476 E25.4911
G1 X94.948 Y201.476 E28.7324
G1 X93.029 Y200.612 E28.9024
G1 X50.833 Y152.970 E34.0461
G1 X50.197 Y151.291 E34.1912
G1 X50.197 Y40.894 E43.1137
G1 X51.880 Y39.210 E43.3062
G1 X51.880 Y32.750 E43.8283
G92 E0.0000
G1 E-4.0000 F2400
G1 X52.480 Y32.999 F4800
G1 E0.0000 F2400
G92 E0.0000
G1 X54.999 Y30.480 E0.2879 F2500
G1 X175.001 Y30.480 E9.9867
G1 X177.520 Y32.999 E10.2747
G1 X177.520 Y39.459 E10.7968
G1 X179.203 Y41.142 E10.9892
G1 X179.203 Y151.181 E19.8827
G1 X178.645 Y152.654 E20.0101
G1 X136.607 Y200.118 E25.1345
G1 X134.923 Y200.876 E25.2837
G1 X95.077 Y200.876 E28.5042
G1 X93.393 Y200.118 E28.6534
G1 X51.355 Y152.654 E33.7778
G1 X50.797 Y151.181 E33.9051
G1 X50.797 Y41.142 E42.7987
G1 X52.480 Y39.459 E42.9911
G1 X52.480 Y32.999 E43.5132
G92 E0.0000
G1 E-4.0000 F2400
; feature inner perimeter
G1 X55.997 Y43.823 F4800
G1 E0.0000 F2400
G92 E0.0000
G1 X174.003 Y43.823 E9.5376 F1875
G1 X174.003 Y150.052 E18.1232
G1 X133.595 Y195.676 E23.0489
G1 X96.405 Y195.676 E26.0547
G1 X55.997 Y150.052 E30.9804
G1 X55.997 Y43.823 E39.5660
; feature outer perimeter
G1 X55.397 Y43.223 F4800
G92 E0.0000
G1 X174.603 Y43.223 E9.6345 F1250
G1 X174.603 Y150.279 E18.2870
G1 X133.865 Y196.276 E23.2530
G1 X96.135 Y196.276 E26.3024
G1 X55.397 Y150.279 E31.2684
G1 X55.397 Y43.223 E39.9209
; feature inner perimeter
G1 X58.666 Y49.423 F4800
G92 E0.0000
G1 X58.397 Y49.580 E0.0251 F1875
G1 X58.169 Y49.745 E0.0479
G1 X57.935 Y49.956 E0.0734
G1 X57.745 Y50.165 E0.0962
G1 X57.545 Y50.438 E0.1235
G1 X57.288 Y50.936 E0.1688
G1 X57.137 Y51.457 E0.2126
G1 X57.084 Y52.008 E0.2574
G1 X57.143 Y52.579 E0.3037
G1 X57.286 Y53.062 E0.3445
G1 X57.407 Y53.328 E0.3681
G1 X57.564 Y53.597 E0.3933
G1 X57.729 Y53.824 E0.4160
G1 X57.940 Y54.059 E0.4415
G1 X58.150 Y54.248 E0.4643
G1 X58.422 Y54.448 E0.4916
G1 X58.920 Y54.705 E0.5369
G1 X59.441 Y54.856 E0.5807
G1 X59.987 Y54.909 E0.6251
G1 X60.523 Y54.859 E0.6686
G1 X61.044 Y54.708 E0.7124
G1 X61.312 Y54.586 E0.7362
G1 X61.581 Y54.430 E0.7614
G1 X61.808 Y54.264 E0.7841
G1 X62.043 Y54.054 E0.8096
G1 X62.232 Y53.844 E0.8324
G1 X62.432 Y53.572 E0.8597
G1 X62.689 Y53.073 E0.9050
G1 X62.840 Y52.553 E0.9489
G1 X62.893 Y52.002 E0.9936
G1 X62.835 Y51.434 E1.0397
G1 X62.715 Y51.018 E1.0747
G1 X62.558 Y50.656 E1.1066
G1 X62.410 Y50.407 E1.1300
G1 X62.210 Y50.137 E1.1572
G1 X61.846 Y49.774 E1.1987
G1 X61.575 Y49.576 E1.2259
G1 X61.335 Y49.435 E1.2483
G1 X61.034 Y49.297 E1.2751
G1 X60.499 Y49.147 E1.3200
G1 X59.982 Y49.101 E1.3619
G1 X59.415 Y49.159 E1.4080
G1 X58.932 Y49.302 E1.4488
G1 X58.666 Y49.423 E1.4724
; feature outer perimeter
G1 X58.941 Y49.957 F4800
G92 E0.0000
G1 X58.725 Y50.083 E0.0202 F1250
G1 X58.547 Y50.212 E0.0380
G1 X58.359 Y50.381 E0.0584
G1 X58.211 Y50.545 E0.0763
G1 X58.057 Y50.755 E0.0973
G1 X57.848 Y51.159 E0.1341
G1 X57.729 Y51.570 E0.1687
G1 X57.687 Y52.006 E0.2040
G1 X57.734 Y52.462 E0.2411
G1 X57.850 Y52.852 E0.2740
G1 X57.941 Y53.052 E0.2918
G1 X58.067 Y53.269 E0.3120
G1 X58.196 Y53.446 E0.3297
G1 X58.365 Y53.635 E0.3502
G1 X58.529 Y53.783 E0.3681
G1 X58.739 Y53.937 E0.3891
G1 X59.143 Y54.145 E0.4259
G1 X59.554 Y54.264 E0.4604
G1 X59.988 Y54.306 E0.4957
G1 X60.411 Y54.267 E0.5300
G1 X60.835 Y54.144 E0.5657
G1 X61.037 Y54.053 E0.5836
G1 X61.253 Y53.927 E0.6038
G1 X61.430 Y53.798 E0.6215
G1 X61.619 Y53.628 E0.6420
G1 X61.767 Y53.464 E0.6599
G1 X61.921 Y53.255 E0.6809
G1 X62.129 Y52.850 E0.7177
G1 X62.248 Y52.439 E0.7522
G1 X62.290 Y52.004 E0.7876
G1 X62.243 Y51.549 E0.8246
G1 X62.149 Y51.222 E0.8521
G1 X62.022 Y50.929 E0.8778
G1 X61.910 Y50.739 E0.8957
G1 X61.755 Y50.531 E0.9167
G1 X61.454 Y50.231 E0.9510
G1 X61.245 Y50.078 E0.9719
G1 X61.058 Y49.968 E0.9895
G1 X60.827 Y49.862 E1.0101
G1 X60.391 Y49.739 E1.0467
G1 X59.987 Y49.703 E1.0794
G1 X59.532 Y49.750 E1.1164
G1 X59.142 Y49.866 E1.1493
G1 X58.941 Y49.957 E1.1671
G92 E0.0000
G1 E-4.0000 F2400
; feature inner perimeter
G1 X102.785 Y53.326 F4800
G1 E0.0000 F2400
G92 E0.0000
G1 X58.042 Y98.069 E5.1141 F1875
G1 X80.345 Y98.069 E6.9167
G1 X125.088 Y53.326 E12.0307
G1 X102.785 Y53.326 E13.8333
; feature outer perimeter
G1 X103.034 Y53.926 F4800
G92 E0.0000
G1 X59.491 Y97.469 E4.9769 F1250
G1 X80.097 Y97.469 E6.6423
G1 X123.639 Y53.926 E11.6193
G1 X103.034 Y53.926 E13.2847
G92 E0.0000
G1 E-4.0000 F2400
; feature inner perimeter
G1 X134.205 Y55.259 F4800
G1 E0.0000 F2400
G92 E0.0000
G1 X58.698 Y130.765 E8.6304 F1875
G1 X95.155 Y130.765 E11.5769
G1 X170.813 Y55.107 E20.2246
G1 X170.769 Y54.795 E20.2501
G1 X171.066 Y54.708 E20.2751
G1 X171.334 Y54.586 E20.2989
G1 X171.603 Y54.430 E20.3241
G1 X171.831 Y54.264 E20.3468
G1 X172.065 Y54.054 E20.3723
G1 X172.255 Y53.844 E20.3951
G1 X172.454 Y53.572 E20.4224
G1 X172.712 Y53.074 E20.4677
G1 X172.863 Y52.553 E20.5116
G1 X172.916 Y52.002 E20.5563
G1 X172.857 Y51.434 E20.6024
G1 X172.737 Y51.018 E20.6374
G1 X172.580 Y50.656 E20.6693
G1 X172.432 Y50.407 E20.6927
G1 X172.232 Y50.137 E20.7199
G1 X171.868 Y49.774 E20.7614
G1 X171.597 Y49.576 E20.7885
G1 X171.357 Y49.435 E20.8110
G1 X171.056 Y49.297 E20.8378
G1 X170.522 Y49.147 E20.8827
G1 X170.005 Y49.101 E20.9246
G1 X169.437 Y49.159 E20.9707
G1 X168.954 Y49.302 E21.0115
G1 X168.688 Y49.423 E21.0351
G1 X168.419 Y49.579 E21.0602
G1 X168.192 Y49.745 E21.0830
G1 X167.957 Y49.956 E21.1085
G1 X167.768 Y50.166 E21.1313
G1 X167.568 Y50.438 E21.1586
G1 X167.311 Y50.936 E21.2039
G1 X167.160 Y51.457 E21.2477
G1 X167.107 Y52.008 E21.2924
G1 X167.166 Y52.579 E21.3388
G1 X167.309 Y53.062 E21.3796
G1 X167.430 Y53.328 E21.4032
G1 X167.586 Y53.597 E21.4283
G1 X167.751 Y53.824 E21.4510
G1 X167.962 Y54.059 E21.4766
G1 X168.172 Y54.248 E21.4994
G1 X168.444 Y54.448 E21.5267
G1 X168.942 Y54.705 E21.5720
G1 X169.251 Y54.794 E21.5979
G1 X169.185 Y55.259 E21.6358
G1 X134.205 Y55.259 E24.4630
; feature outer perimeter
G1 X134.453 Y55.859 F4800
G92 E0.0000
G1 X60.147 Y130.165 E8.4932 F1250
G1 X94.907 Y130.165 E11.3026
G1 X169.213 Y55.859 E19.7957
G1 X134.453 Y55.859 E22.6051
G1 X167.757 Y52.462 F4800
G92 E0.0000
G1 X167.872 Y52.852 E0.0329 F1250
G1 X167.963 Y53.052 E0.0507
G1 X168.089 Y53.268 E0.0709
G1 X168.218 Y53.446 E0.0886
G1 X168.388 Y53.635 E0.1091
G1 X168.552 Y53.783 E0.1270
G1 X168.761 Y53.937 E0.1480
G1 X169.166 Y54.145 E0.1848
G1 X169.577 Y54.264 E0.2193
G1 X170.011 Y54.306 E0.2546
G1 X170.433 Y54.267 E0.2889
G1 X170.857 Y54.144 E0.3246
G1 X171.059 Y54.053 E0.3425
G1 X171.275 Y53.927 E0.3627
G1 X171.453 Y53.797 E0.3804
G1 X171.641 Y53.628 E0.4009
G1 X171.789 Y53.464 E0.4188
G1 X171.943 Y53.255 E0.4398
G1 X172.152 Y52.850 E0.4766
G1 X172.271 Y52.439 E0.5111
G1 X172.313 Y52.004 E0.5465
G1 X172.266 Y51.549 E0.5835
G1 X172.172 Y51.221 E0.6110
G1 X172.045 Y50.929 E0.6367
G1 X171.932 Y50.739 E0.6546
G1 X171.777 Y50.531 E0.6756
G1 X171.477 Y50.231 E0.7099
G1 X171.267 Y50.078 E0.7309
G1 X171.080 Y49.968 E0.7484
G1 X170.849 Y49.862 E0.7690
G1 X170.413 Y49.739 E0.8056
G1 X170.009 Y49.703 E0.8383
G1 X169.554 Y49.750 E0.8753
G1 X169.164 Y49.866 E0.9082
G1 X168.964 Y49.957 E0.9260
G1 X168.747 Y50.083 E0.9462
G1 X168.570 Y50.212 E0.9639
G1 X168.381 Y50.381 E0.9844
G1 X168.233 Y50.545 E1.0023
G1 X168.079 Y50.755 E1.0233
G1 X167.871 Y51.159 E1.0601
G1 X167.752 Y51.570 E1.0946
G1 X167.710 Y52.006 E1.1300
G1 X167.757 Y52.462 E1.1671
G92 E0.0000
G1 E-4.0000 F2400
; feature inner perimeter
G1 X172.394 Y86.022 F4800
G1 E0.0000 F2400
G92 E0.0000
G1 X150.091 Y86.022 E1.8026 F1875
G1 X105.348 Y130.765 E6.9167
G1 X127.651 Y130.765 E8.7192
G1 X172.394 Y86.022 E13.8333
; feature outer perimeter
G1 X170.945 Y86.622 F4800
G92 E0.0000
G1 X150.340 Y86.622 E1.6654 F1250
G1 X106.797 Y130.165 E6.6423
G1 X127.403 Y130.165 E8.3077
G1 X170.945 Y86.622 E13.2847
; feature inner perimeter
G1 X170.013 Y119.589 F4800
G92 E0.0000
G1 X169.477 Y119.639 E0.0435 F1875
G1 X168.956 Y119.790 E0.0873
G1 X168.688 Y119.912 E0.1112
G1 X168.419 Y120.068 E0.1363
G1 X168.192 Y120.234 E0.1590
G1 X167.957 Y120.444 E0.1845
G1 X167.768 Y120.654 E0.2074
G1 X167.568 Y120.926 E0.2347
G1 X167.311 Y121.424 E0.2800
G1 X167.160 Y121.944 E0.3237
G1 X167.108 Y122.475 E0.3668
G1 X167.156 Y123.026 E0.4115
G1 X167.308 Y123.548 E0.4554
G1 X167.430 Y123.817 E0.4793
G1 X167.586 Y124.085 E0.5044
G1 X167.751 Y124.313 E0.5271
G1 X167.962 Y124.547 E0.5526
G1 X168.172 Y124.737 E0.5755
G1 X168.444 Y124.937 E0.6028
G1 X168.942 Y125.194 E0.6481
G1 X169.463 Y125.345 E0.6919
G1 X170.009 Y125.397 E0.7362
G1 X170.545 Y125.348 E0.7797
G1 X171.066 Y125.197 E0.8236
G1 X171.334 Y125.075 E0.8474
G1 X171.603 Y124.918 E0.8725
G1 X171.831 Y124.753 E0.8953
G1 X172.065 Y124.542 E0.9207
G1 X172.255 Y124.332 E0.9436
G1 X172.440 Y124.079 E0.9689
G1 X172.581 Y123.839 E0.9914
G1 X172.718 Y123.542 E1.0179
G1 X172.863 Y123.041 E1.0600
G1 X172.915 Y122.495 E1.1044
G1 X172.866 Y121.959 E1.1479
G1 X172.715 Y121.438 E1.1917
G1 X172.593 Y121.170 E1.2155
G1 X172.436 Y120.901 E1.2407
G1 X172.271 Y120.674 E1.2634
G1 X172.060 Y120.439 E1.2889
G1 X171.850 Y120.250 E1.3117
G1 X171.578 Y120.050 E1.3390
G1 X171.080 Y119.793 E1.3843
G1 X170.559 Y119.642 E1.4281
G1 X170.013 Y119.589 E1.4725
; feature outer perimeter
G1 X170.012 Y120.192 F4800
G92 E0.0000
G1 X169.589 Y120.231 E0.0343 F1250
G1 X169.165 Y120.354 E0.0700
G1 X168.964 Y120.445 E0.0879
G1 X168.747 Y120.571 E0.1081
