; G-Code generated by Simplify3D(R) Version 4.1.2
; Sep 10, 2021 at 11:28:53 AM
; Settings Summary
;   processName,Process1
;   applyToModels,1009_frontcover
;   profileName,Creality Ender 3 Pro (modified)
;   profileVersion,2021-09-03 13:21:58
;   baseProfile,
;   printMaterial,PLA
;   printQuality,Fast
;   printExtruders,
;   extruderName,Primary Extruder
;   extruderToolheadNumber,0
;   extruderDiameter,0.4
;   extruderAutoWidth,0
;   extruderWidth,0.4
;   extrusionMultiplier,0.9
;   extruderUseRetract,1
;   extruderRetractionDistance,4
;   extruderExtraRestartDistance,0
;   extruderRetractionZLift,0
;   extruderRetractionSpeed,2400
;   extruderUseCoasting,0
;   extruderCoastingDistance,0.2
;   extruderUseWipe,0
;   extruderWipeDistance,5
;   primaryExtruder,0
;   layerHeight,0.3
;   topSolidLayers,3
;   bottomSolidLayers,3
;   perimeterOutlines,2
;   printPerimetersInsideOut,1
;   startPointOption,2
;   startPointOriginX,0
;   startPointOriginY,0
;   sequentialIslands,0
;   spiralVaseMode,0
;   firstLayerHeightPercentage,120
;   firstLayerWidthPercentage,150
;   firstLayerUnderspeed,0.5
;   useRaft,0
;   raftExtruder,0
;   raftTopLayers,3
;   raftBaseLayers,2
;   raftOffset,3
;   raftSeparationDistance,0.14
;   raftTopInfill,100
;   aboveRaftSpeedMultiplier,0.3
;   useSkirt,1
;   skirtExtruder,0
;   skirtLayers,1
;   skirtOutlines,2
;   skirtOffset,4
;   usePrimePillar,0
;   primePillarExtruder,999
;   primePillarWidth,12
;   primePillarLocation,7
;   primePillarSpeedMultiplier,1
;   useOozeShield,0
;   oozeShieldExtruder,999
;   oozeShieldOffset,2
;   oozeShieldOutlines,1
;   oozeShieldSidewallShape,1
;   oozeShieldSidewallAngle,30
;   oozeShieldSpeedMultiplier,1
;   infillExtruder,0
;   internalInfillPattern,Rectilinear
;   externalInfillPattern,Rectilinear
;   infillPercentage,15
;   outlineOverlapPercentage,15
;   infillExtrusionWidthPercentage,100
;   minInfillLength,5
;   infillLayerInterval,1
;   internalInfillAngles,45,-45
;   overlapInternalInfillAngles,0
;   externalInfillAngles,45,-45
;   generateSupport,1
;   supportExtruder,0
;   supportInfillPercentage,25
;   supportExtraInflation,0
;   supportBaseLayers,0
;   denseSupportExtruder,0
;   denseSupportLayers,0
;   denseSupportInfillPercentage,70
;   supportLayerInterval,1
;   supportHorizontalPartOffset,0.3
;   supportUpperSeparationLayers,1
;   supportLowerSeparationLayers,1
;   supportType,0
;   supportGridSpacing,4
;   maxOverhangAngle,45
;   supportAngles,0
;   temperatureName,Primary Extruder,Heated Bed
;   temperatureNumber,0,0
;   temperatureSetpointCount,1,1
;   temperatureSetpointLayers,1,1
;   temperatureSetpointTemperatures,210,60
;   temperatureStabilizeAtStartup,1,1
;   temperatureHeatedBed,0,1
;   fanLayers,1,2
;   fanSpeeds,0,100
;   blipFanToFullPower,0
;   adjustSpeedForCooling,1
;   minSpeedLayerTime,15
;   minCoolingSpeedSlowdown,20
;   increaseFanForCooling,0
;   minFanLayerTime,45
;   maxCoolingFanSpeed,100
;   increaseFanForBridging,0
;   bridgingFanSpeed,100
;   use5D,1
;   relativeEdistances,0
;   allowEaxisZeroing,1
;   independentExtruderAxes,0
;   includeM10123,0
;   stickySupport,1
;   applyToolheadOffsets,0
;   gcodeXoffset,0
;   gcodeYoffset,0
;   gcodeZoffset,0
;   overrideMachineDefinition,1
;   machineTypeOverride,0
;   strokeXoverride,220
;   strokeYoverride,220
;   strokeZoverride,250
;   originOffsetXoverride,-5
;   originOffsetYoverride,-5
;   originOffsetZoverride,0
;   homeXdirOverride,-1
;   homeYdirOverride,-1
;   homeZdirOverride,-1
;   flipXoverride,1
;   flipYoverride,-1
;   flipZoverride,1
;   toolheadOffsets,0,0|0,0|0,0|0,0|0,0|0,0
;   overrideFirmwareConfiguration,1
;   firmwareTypeOverride,RepRap (Marlin/Repetier/Sprinter)
;   GPXconfigOverride,r2
;   baudRateOverride,115200
;   overridePrinterModels,1
;   printerModelsOverride
;   startingGcode,G28 ; home all axes,G1 X5 Y10 Z0.2 F3000 ; get ready to prime,G92 E0 ; reset extrusion distance,G1 X160 E15 F600 ; prime nozzle,G1 X180 F5000 ; quick wipe
;   layerChangeGcode,
;   retractionGcode,
;   toolChangeGcode,
;   endingGcode,G28 X0 ; home X axis,M106 S0 ; turn off cooling fan,M104 S0 ; turn off extruder,M140 S0 ; turn off bed,M84 ; disable motors
;   exportFileFormat,gcode
;   celebration,0
;   celebrationSong,Random Song
;   postProcessing,
;   defaultSpeed,5000
;   outlineUnderspeed,0.5
;   solidInfillUnderspeed,0.8
;   supportUnderspeed,0.8
;   rapidXYspeed,4800
;   rapidZspeed,1000
;   minBridgingArea,50
;   bridgingExtraInflation,0
;   bridgingExtrusionMultiplier,1
;   bridgingSpeedMultiplier,1
;   useFixedBridgingAngle,0
;   fixedBridgingAngle,0
;   applyBridgingToPerimeters,0
;   filamentDiameters,1.75|1.75|1.75|1.75|1.75|1.75
;   filamentPricesPerKg,46|46|46|46|46|46
;   filamentDensities,1.25|1.25|1.25|1.25|1.25|1.25
;   useMinPrintHeight,0
;   minPrintHeight,0
;   useMaxPrintHeight,0
;   maxPrintHeight,0
;   useDiaphragm,0
;   diaphragmLayerInterval,20
;   robustSlicing,1
;   mergeAllIntoSolid,0
;   onlyRetractWhenCrossingOutline,1
;   retractBetweenLayers,1
;   useRetractionMinTravel,0
;   retractionMinTravel,3
;   retractWhileWiping,0
;   onlyWipeOutlines,1
;   avoidCrossingOutline,0
;   maxMovementDetourFactor,3
;   toolChangeRetractionDistance,12
;   toolChangeExtraRestartDistance,-0.5
;   toolChangeRetractionSpeed,600
;   externalThinWallType,0
;   internalThinWallType,2
;   thinWallAllowedOverlapPercentage,10
;   singleExtrusionMinLength,1
;   singleExtrusionMinPrintingWidthPercentage,50
;   singleExtrusionMaxPrintingWidthPercentage,200
;   singleExtrusionEndpointExtension,0.2
;   horizontalSizeCompensation,0
G90
M82
M106 S0
M140 S60
M190 S60
M104 S210 T0
M109 S210 T0
G28 ; home all axes
G1 X5 Y10 Z0.2 F3000 ; get ready to prime
G92 E0 ; reset extrusion distance
G1 X160 E15 F600 ; prime nozzle
G1 X180 F5000 ; quick wipe
; process Process1
; layer 1, Z = 0.360
T0
G92 E0.0000
G1 E-4.0000 F2400
; feature skirt
; tool H0.360 W0.600
G1 Z0.360 F1000
G1 X11.470 Y33.400 F4800
G1 E0.0000 F2400
G92 E0.0000
G1 X93.727 Y33.400 E6.6482 F2500
G1 X95.981 Y34.683 E6.8578
G1 X97.017 Y36.427 E7.0218
G1 X97.809 Y37.621 E7.1375
G1 X98.658 Y38.735 E7.2507
G1 X99.609 Y39.823 E7.3675
G1 X100.041 Y40.271 E7.4178
G1 X101.096 Y41.260 E7.5347
G1 X102.182 Y42.149 E7.6481
G1 X103.319 Y42.960 E7.7610
G1 X104.499 Y43.690 E7.8732
G1 X105.713 Y44.336 E7.9843
G1 X106.954 Y44.895 E8.0943
G1 X108.208 Y45.366 E8.2026
G1 X109.545 Y45.772 E8.3156
G1 X110.919 Y46.091 E8.4295
G1 X112.281 Y46.314 E8.5410
G1 X113.620 Y46.444 E8.6498
G1 X115.004 Y46.490 E8.7617
G1 X116.306 Y46.449 E8.8670
G1 X117.641 Y46.324 E8.9754
G1 X118.994 Y46.108 E9.0861
G1 X120.357 Y45.798 E9.1991
G1 X121.721 Y45.390 E9.3141
G1 X123.080 Y44.881 E9.4314
G1 X124.339 Y44.310 E9.5432
G1 X125.561 Y43.656 E9.6552
G1 X126.737 Y42.923 E9.7672
G1 X127.862 Y42.115 E9.8791
G1 X128.956 Y41.214 E9.9937
G1 X129.966 Y40.262 E10.1059
G1 X130.912 Y39.245 E10.2181
G1 X131.787 Y38.171 E10.3301
G1 X132.597 Y37.029 E10.4432
G1 X134.066 Y34.644 E10.6696
G1 X136.294 Y33.400 E10.8758
G1 X218.530 Y33.400 E17.5223
G1 X221.400 Y36.270 E17.8504
G1 X221.400 Y193.780 E30.5807
G1 X218.530 Y196.650 E30.9088
G1 X154.794 Y196.650 E36.0600
G1 X154.575 Y196.641 E36.0777
G1 X153.415 Y196.537 E36.1719
G1 X153.085 Y196.484 E36.1989
G1 X152.337 Y196.312 E36.2609
G1 X152.101 Y196.246 E36.2807
G1 X151.368 Y195.999 E36.3432
G1 X151.133 Y195.905 E36.3637
G1 X150.451 Y195.594 E36.4243
G1 X150.237 Y195.483 E36.4438
G1 X149.616 Y195.121 E36.5018
G1 X149.409 Y194.986 E36.5218
G1 X148.760 Y194.515 E36.5866
G1 X148.557 Y194.350 E36.6078
G1 X147.983 Y193.831 E36.6704
G1 X147.804 Y193.651 E36.6908
G1 X147.285 Y193.075 E36.7535
G1 X147.119 Y192.869 E36.7749
G1 X146.652 Y192.220 E36.8395
G1 X146.521 Y192.017 E36.8590
G1 X146.162 Y191.400 E36.9167
G1 X146.052 Y191.187 E36.9360
G1 X145.759 Y190.546 E36.9930
G1 X145.672 Y190.326 E37.0122
G1 X145.422 Y189.602 E37.0741
G1 X145.353 Y189.364 E37.0941
G1 X145.178 Y188.615 E37.1563
G1 X145.124 Y188.284 E37.1834
G1 X145.015 Y187.125 E37.2775
G1 X145.004 Y186.902 E37.2955
G1 X144.984 Y179.131 E37.9236
G1 X144.977 Y179.118 E37.9248
G1 X144.956 Y179.099 E37.9271
G1 X144.684 Y179.075 E37.9491
G1 X85.315 Y179.075 E42.7475
G1 X85.044 Y179.099 E42.7695
G1 X85.027 Y179.114 E42.7713
G1 X85.021 Y179.122 E42.7721
G1 X84.996 Y179.400 E42.7947
G1 X84.976 Y187.371 E43.4389
G1 X84.954 Y187.697 E43.4653
G1 X84.853 Y188.437 E43.5257
G1 X84.810 Y188.665 E43.5444
G1 X84.648 Y189.359 E43.6020
G1 X84.582 Y189.587 E43.6212
G1 X84.348 Y190.277 E43.6801
G1 X84.260 Y190.499 E43.6994
G1 X83.969 Y191.142 E43.7564
G1 X83.861 Y191.354 E43.7757
G1 X83.463 Y192.045 E43.8401
G1 X83.314 Y192.274 E43.8622
G1 X82.835 Y192.925 E43.9275
G1 X82.679 Y193.116 E43.9475
G1 X82.191 Y193.657 E44.0063
G1 X82.018 Y193.830 E44.0261
G1 X81.481 Y194.317 E44.0847
G1 X81.294 Y194.470 E44.1043
G1 X80.650 Y194.947 E44.1690
G1 X80.430 Y195.092 E44.1903
G1 X79.767 Y195.481 E44.2524
G1 X79.538 Y195.599 E44.2732
G1 X78.819 Y195.924 E44.3370
G1 X78.586 Y196.016 E44.3572
G1 X77.894 Y196.247 E44.4162
G1 X77.675 Y196.309 E44.4347
G1 X77.020 Y196.462 E44.4890
G1 X76.801 Y196.503 E44.5070
G1 X76.153 Y196.594 E44.5599
G1 X75.937 Y196.614 E44.5774
G1 X75.282 Y196.647 E44.6305
G1 X75.158 Y196.650 E44.6404
G1 X11.470 Y196.650 E49.7878
G1 X8.600 Y193.780 E50.1159
G1 X8.600 Y36.270 E62.8462
G1 X11.470 Y33.400 E63.1743
G92 E0.0000
G1 E-4.0000 F2400
G1 X11.719 Y34.000 F4800
G1 E0.0000 F2400
G92 E0.0000
G1 X93.568 Y34.000 E6.6152 F2500
G1 X95.546 Y35.126 E6.7992
G1 X96.509 Y36.746 E6.9515
G1 X97.319 Y37.969 E7.0701
G1 X98.193 Y39.114 E7.1865
G1 X99.167 Y40.229 E7.3062
G1 X99.619 Y40.698 E7.3588
G1 X100.701 Y41.711 E7.4786
G1 X101.817 Y42.626 E7.5952
G1 X102.986 Y43.460 E7.7113
G1 X104.200 Y44.211 E7.8267
G1 X105.449 Y44.875 E7.9410
G1 X106.725 Y45.450 E8.0541
G1 X108.015 Y45.935 E8.1655
G1 X109.390 Y46.352 E8.2817
G1 X110.803 Y46.680 E8.3988
G1 X112.203 Y46.909 E8.5135
G1 X113.581 Y47.043 E8.6255
G1 X115.004 Y47.090 E8.7405
G1 X116.344 Y47.048 E8.8488
G1 X117.716 Y46.919 E8.9602
G1 X119.108 Y46.697 E9.0741
G1 X120.510 Y46.378 E9.1903
G1 X121.912 Y45.959 E9.3087
G1 X123.309 Y45.436 E9.4292
G1 X124.605 Y44.848 E9.5442
G1 X125.861 Y44.176 E9.6594
G1 X127.071 Y43.422 E9.7746
G1 X128.228 Y42.591 E9.8897
G1 X129.353 Y41.664 E10.0075
G1 X130.392 Y40.685 E10.1229
G1 X131.365 Y39.639 E10.2384
G1 X132.265 Y38.534 E10.3535
G1 X133.098 Y37.361 E10.4698
G1 X134.495 Y35.092 E10.6852
G1 X136.450 Y34.000 E10.8662
G1 X218.281 Y34.000 E17.4799
G1 X220.800 Y36.519 E17.7678
G1 X220.800 Y193.532 E30.4579
G1 X218.281 Y196.050 E30.7459
G1 X154.807 Y196.050 E35.8760
G1 X154.615 Y196.042 E35.8915
G1 X153.489 Y195.941 E35.9829
G1 X153.199 Y195.895 E36.0066
G1 X152.485 Y195.731 E36.0658
G1 X152.279 Y195.673 E36.0831
G1 X151.575 Y195.435 E36.1432
G1 X151.368 Y195.353 E36.1612
G1 X150.714 Y195.054 E36.2193
G1 X150.526 Y194.957 E36.2364
G1 X149.931 Y194.610 E36.2920
G1 X149.750 Y194.492 E36.3096
G1 X149.126 Y194.039 E36.3718
G1 X148.947 Y193.894 E36.3904
G1 X148.397 Y193.396 E36.4505
G1 X148.240 Y193.239 E36.4684
G1 X147.743 Y192.686 E36.5285
G1 X147.597 Y192.505 E36.5473
G1 X147.147 Y191.881 E36.6094
G1 X147.032 Y191.703 E36.6265
G1 X146.688 Y191.111 E36.6819
G1 X146.592 Y190.925 E36.6988
G1 X146.311 Y190.310 E36.7535
G1 X146.234 Y190.117 E36.7703
G1 X145.995 Y189.421 E36.8297
G1 X145.934 Y189.212 E36.8473
G1 X145.767 Y188.498 E36.9066
G1 X145.719 Y188.207 E36.9304
G1 X145.614 Y187.083 E37.0217
G1 X145.604 Y186.887 E37.0375
G1 X145.584 Y179.037 E37.6720
G1 X145.572 Y178.986 E37.6762
G1 X145.550 Y178.922 E37.6817
G1 X145.525 Y178.867 E37.6866
G1 X145.475 Y178.780 E37.6947
G1 X145.445 Y178.740 E37.6987
G1 X145.409 Y178.699 E37.7032
G1 X145.338 Y178.635 E37.7108
G1 X145.274 Y178.589 E37.7173
G1 X145.210 Y178.552 E37.7232
G1 X145.164 Y178.531 E37.7273
G1 X145.104 Y178.510 E37.7325
G1 X144.711 Y178.475 E37.7643
G1 X85.288 Y178.475 E42.5670
G1 X84.903 Y178.509 E42.5983
G1 X84.843 Y178.529 E42.6034
G1 X84.763 Y178.566 E42.6105
G1 X84.720 Y178.591 E42.6145
G1 X84.676 Y178.623 E42.6189
G1 X84.599 Y178.692 E42.6273
G1 X84.564 Y178.730 E42.6315
G1 X84.510 Y178.804 E42.6389
G1 X84.473 Y178.868 E42.6448
G1 X84.452 Y178.915 E42.6489
G1 X84.432 Y178.974 E42.6541
G1 X84.396 Y179.373 E42.6864
G1 X84.376 Y187.349 E43.3311
G1 X84.356 Y187.635 E43.3542
G1 X84.260 Y188.342 E43.4119
G1 X84.223 Y188.542 E43.4283
G1 X84.067 Y189.207 E43.4836
G1 X84.009 Y189.408 E43.5004
G1 X83.785 Y190.070 E43.5569
G1 X83.708 Y190.265 E43.5739
G1 X83.429 Y190.881 E43.6285
G1 X83.333 Y191.067 E43.6454
G1 X82.951 Y191.731 E43.7073
G1 X82.820 Y191.932 E43.7267
G1 X82.361 Y192.557 E43.7894
G1 X82.224 Y192.725 E43.8070
G1 X81.756 Y193.243 E43.8634
G1 X81.604 Y193.395 E43.8807
G1 X81.089 Y193.862 E43.9369
G1 X80.925 Y193.997 E43.9541
G1 X80.306 Y194.455 E44.0163
G1 X80.113 Y194.582 E44.0350
G1 X79.477 Y194.955 E44.0946
G1 X79.277 Y195.059 E44.1128
G1 X78.586 Y195.371 E44.1741
G1 X78.382 Y195.451 E44.1918
G1 X77.717 Y195.674 E44.2485
G1 X77.524 Y195.728 E44.2646
G1 X76.897 Y195.875 E44.3168
G1 X76.704 Y195.911 E44.3326
G1 X76.083 Y195.998 E44.3833
G1 X75.894 Y196.016 E44.3986
G1 X75.259 Y196.048 E44.4500
G1 X75.151 Y196.050 E44.4588
G1 X11.719 Y196.050 E49.5855
G1 X9.200 Y193.532 E49.8734
G1 X9.200 Y36.519 E62.5635
G1 X11.719 Y34.000 E62.8514
G92 E0.0000
G1 E-4.0000 F2400
; feature inner perimeter
G1 X14.400 Y39.200 F4800
G1 E0.0000 F2400
G92 E0.0000
G1 X91.918 Y39.200 E6.2652 F1875
G1 X92.100 Y39.506 E6.2939
G1 X92.577 Y40.253 E6.3656
G1 X93.080 Y40.985 E6.4374
G1 X93.609 Y41.703 E6.5095
G1 X94.163 Y42.405 E6.5817
G1 X94.740 Y43.089 E6.6541
G1 X95.341 Y43.754 E6.7265
G1 X95.964 Y44.399 E6.7989
G1 X96.608 Y45.022 E6.8714
G1 X97.272 Y45.624 E6.9438
G1 X97.955 Y46.203 E7.0162
G1 X98.656 Y46.757 E7.0884
G1 X99.373 Y47.288 E7.1605
G1 X100.105 Y47.792 E7.2324
G1 X100.851 Y48.271 E7.3040
G1 X101.610 Y48.723 E7.3754
G1 X102.379 Y49.148 E7.4464
G1 X103.158 Y49.546 E7.5171
G1 X103.946 Y49.916 E7.5875
G1 X104.740 Y50.259 E7.6574
G1 X105.540 Y50.574 E7.7268
G1 X106.344 Y50.861 E7.7958
G1 X107.172 Y51.128 E7.8661
G1 X108.046 Y51.378 E7.9397
G1 X108.921 Y51.596 E8.0126
G1 X109.794 Y51.784 E8.0847
G1 X110.665 Y51.941 E8.1562
G1 X111.530 Y52.067 E8.2269
G1 X112.390 Y52.165 E8.2969
G1 X113.243 Y52.235 E8.3660
G1 X114.121 Y52.278 E8.4370
G1 X114.999 Y52.292 E8.5080
G1 X115.790 Y52.281 E8.5720
G1 X116.668 Y52.240 E8.6430
G1 X117.515 Y52.174 E8.7117
G1 X118.370 Y52.080 E8.7812
G1 X119.230 Y51.958 E8.8514
G1 X120.095 Y51.805 E8.9224
G1 X120.963 Y51.623 E8.9940
G1 X121.832 Y51.410 E9.0664
G1 X122.703 Y51.166 E9.1395
G1 X123.571 Y50.890 E9.2131
G1 X124.437 Y50.582 E9.2874
G1 X125.298 Y50.243 E9.3621
G1 X126.109 Y49.891 E9.4336
G1 X126.908 Y49.513 E9.5050
G1 X127.694 Y49.109 E9.5765
G1 X128.466 Y48.679 E9.6479
G1 X129.223 Y48.224 E9.7193
G1 X129.966 Y47.745 E9.7908
G1 X130.692 Y47.241 E9.8622
G1 X131.401 Y46.714 E9.9336
G1 X132.093 Y46.163 E10.0050
G1 X132.793 Y45.567 E10.0794
G1 X133.448 Y44.970 E10.1510
G1 X134.082 Y44.352 E10.2226
G1 X134.697 Y43.713 E10.2942
G1 X135.289 Y43.055 E10.3657
G1 X135.859 Y42.378 E10.4373
G1 X136.405 Y41.685 E10.5086
G1 X136.927 Y40.975 E10.5798
G1 X137.436 Y40.232 E10.6526
G1 X137.901 Y39.505 E10.7223
G1 X138.082 Y39.200 E10.7510
G1 X215.600 Y39.200 E17.0162
G1 X215.600 Y190.850 E29.2729
G1 X154.924 Y190.850 E34.1769
G1 X154.530 Y190.833 E34.2088
G1 X154.181 Y190.785 E34.2373
G1 X153.797 Y190.697 E34.2691
G1 X153.387 Y190.558 E34.3041
G1 X153.013 Y190.387 E34.3373
G1 X152.681 Y190.194 E34.3684
