; generated by PrusaSlicer 2.3.2+win64 on 2021-09-14 at 16:42:21 UTC


;
;

;
;
; 

; external perimeters extrusion width = 0.45mm
; perimeters extrusion width = 0.45mm
; infill extrusion width = 0.45mm
; solid infill extrusion width = 0.45mm
; top infill extrusion width = 0.40mm
; support material extrusion width = 0.35mm
; first layer extrusion width = 0.42mm

M73 P0 R182
M201 X1250 Y1250 Z400 E5000 ; sets maximum accelerations, mm/sec^2
M203 X180 Y180 Z12 E80 ; sets maximum feedrates, mm/sec
M204 P1250 R1250 T1250 ; sets acceleration (P, T) and retract acceleration (R), mm/sec^2
M205 X8.00 Y8.00 Z2.00 E10.00 ; sets the jerk limits, mm/sec
M205 S0 T0 ; sets the minimum extruding and travel feed rate, mm/sec
M107
;TYPE:Custom
G90 ; use absolute coordinates
M83 ; extruder relative mode
M104 S170 ; set extruder temp for bed leveling
M140 S60 ; set bed temp
M109 R170 ; wait for bed leveling temp
M190 S60 ; wait for bed temp
G28 ; home all without mesh bed level
G29 ; mesh bed leveling 
M104 S215 ; set extruder temp
G92 E0.0
G1 Y-2.0 X179 F2400
G1 Z3 F720
M109 S215 ; wait for extruder temp

; intro line
G1 X170 F1000
G1 Z0.2 F720
G1 X110.0 E8.0 F900
M73 P0 R181
G1 X40.0 E10.0 F700
G92 E0.0

M221 S95 ; set flow
G21 ; set units to millimeters
G90 ; use absolute coordinates
M83 ; use relative distances for extrusion
M900 K0.2 ; Filament gcode LA 1.5
; ; Filament gcode LA 1.0
;LAYER_CHANGE
;Z:0.2
;HEIGHT:0.2
;BEFORE_LAYER_CHANGE
G92 E0.0
;0.2


G1 E-3.20000 F4200.000
G1 Z0.200 F9000.000
;AFTER_LAYER_CHANGE
;0.2
G1 Z0.400
G1 X26.505 Y0.381
G1 Z0.200
G1 E3.20000 F2400.000
M204 S800
;TYPE:Skirt
;WIDTH:0.42
G1 F3600.000
G1 X27.408 Y0.204 E0.02885
G1 X152.625 Y0.374 E3.92610
G1 X153.285 Y0.476 E0.02095
G1 X153.891 Y0.758 E0.02095
G1 X154.395 Y1.198 E0.02095
G1 X154.754 Y1.756 E0.02083
G1 X154.917 Y2.243 E0.01609
G1 X154.972 Y2.751 E0.01602
G1 X154.972 Y136.341 E4.18861
G1 X154.900 Y136.922 E0.01835
G1 X154.646 Y137.543 E0.02107
G1 X154.224 Y138.072 E0.02119
G1 X110.619 Y178.771 E1.87020
G1 X109.995 Y179.189 E0.02355
G1 X109.516 Y179.351 E0.01585
G1 X109.014 Y179.407 E0.01585
G1 X71.000 Y179.407 E1.19190
G1 X70.460 Y179.345 E0.01704
G1 X69.948 Y179.162 E0.01704
G1 X69.380 Y178.770 E0.02166
G1 X25.780 Y138.076 E1.86997
G1 X25.246 Y137.336 E0.02860
G1 X25.083 Y136.850 E0.01609
G1 X25.028 Y136.343 E0.01597
G1 X25.028 Y2.543 E4.19521
G1 X25.220 Y1.644 E0.02884
G1 X25.737 Y0.888 E0.02872
G1 X26.455 Y0.414 E0.02696
M204 S1250
; printing object 1509_backplate_3-4.stl id:0 copy 0
G1 E-2.24000 F4200.000
;WIPE_START
G1 F7200.000
G1 X27.408 Y0.204 E-0.54087
G1 X28.078 Y0.205 E-0.37113
;WIPE_END
G1 E-0.04800 F4200.000
G1 Z0.400 F9000.000
G1 X27.405 Y2.581
G1 Z0.200
G1 E3.20000 F2400.000
M204 S800
;TYPE:Support material
G1 F3600.000
G1 X27.405 Y27.234 E0.77297
G1 X28.159 Y27.234 E0.02365
G1 X28.159 Y2.751 E0.76765
G1 X28.913 Y2.751 E0.02365
G1 X28.913 Y27.234 E0.76765
G1 X29.638 Y27.234 E0.02273
G1 X29.638 Y24.611 E0.08224
G1 X29.389 Y24.611 E0.00780
G1 X29.389 Y19.281 E0.16714
G1 X29.667 Y19.281 E0.00871
G1 X29.667 Y2.751 E0.51827
G1 X30.421 Y2.751 E0.02365
G1 X30.421 Y19.281 E0.51827
G1 X31.176 Y19.281 E0.02365
G1 X31.176 Y2.751 E0.51827
G1 X31.930 Y2.751 E0.02365
G1 X31.930 Y19.281 E0.51827
G1 X32.684 Y19.281 E0.02365
G1 X32.684 Y2.751 E0.51827
G1 X33.438 Y2.751 E0.02365
G1 X33.438 Y19.281 E0.51827
G1 X34.192 Y19.281 E0.02365
G1 X34.192 Y2.751 E0.51827
G1 X34.946 Y2.751 E0.02365
G1 X34.946 Y19.281 E0.51827
G1 X35.701 Y19.281 E0.02365
G1 X35.701 Y2.751 E0.51827
G1 X36.455 Y2.751 E0.02365
G1 X36.455 Y19.281 E0.51827
G1 X37.209 Y19.281 E0.02365
G1 X37.209 Y2.751 E0.51827
G1 X37.963 Y2.751 E0.02365
G1 X37.963 Y19.281 E0.51827
G1 X38.717 Y19.281 E0.02365
G1 X38.717 Y2.751 E0.51827
G1 X39.471 Y2.751 E0.02365
G1 X39.471 Y19.281 E0.51827
G1 X40.226 Y19.281 E0.02365
G1 X40.226 Y2.751 E0.51827
G1 X40.980 Y2.751 E0.02365
G1 X40.980 Y19.281 E0.51827
G1 X41.734 Y19.281 E0.02365
G1 X41.734 Y2.751 E0.51827
G1 X42.488 Y2.751 E0.02365
G1 X42.488 Y19.281 E0.51827
G1 X43.242 Y19.281 E0.02365
G1 X43.242 Y2.751 E0.51827
G1 X43.996 Y2.751 E0.02365
G1 X43.996 Y19.281 E0.51827
G1 X44.750 Y19.281 E0.02365
G1 X44.750 Y2.751 E0.51827
G1 X45.505 Y2.751 E0.02365
G1 X45.505 Y19.281 E0.51827
G1 X46.259 Y19.281 E0.02365
G1 X46.259 Y2.751 E0.51827
G1 X47.013 Y2.751 E0.02365
G1 X47.013 Y19.281 E0.51827
G1 X47.767 Y19.281 E0.02365
G1 X47.767 Y2.751 E0.51827
G1 X48.521 Y2.751 E0.02365
G1 X48.521 Y19.281 E0.51827
G1 X49.275 Y19.281 E0.02365
G1 X49.275 Y2.751 E0.51827
G1 X50.030 Y2.751 E0.02365
G1 X50.030 Y19.281 E0.51827
G1 X50.784 Y19.281 E0.02365
G1 X50.784 Y2.751 E0.51827
G1 X51.538 Y2.751 E0.02365
G1 X51.538 Y19.281 E0.51827
G1 X52.292 Y19.281 E0.02365
G1 X52.292 Y2.751 E0.51827
G1 X53.046 Y2.751 E0.02365
G1 X53.046 Y19.281 E0.51827
G1 X53.800 Y19.281 E0.02365
G1 X53.800 Y2.751 E0.51827
G1 X54.555 Y2.751 E0.02365
G1 X54.555 Y19.281 E0.51827
G1 X55.309 Y19.281 E0.02365
G1 X55.309 Y2.751 E0.51827
G1 X56.063 Y2.751 E0.02365
G1 X56.063 Y19.281 E0.51827
G1 X56.817 Y19.281 E0.02365
G1 X56.817 Y2.751 E0.51827
G1 X57.571 Y2.751 E0.02365
G1 X57.571 Y19.281 E0.51827
G1 X58.325 Y19.281 E0.02365
G1 X58.325 Y2.751 E0.51827
G1 X59.079 Y2.751 E0.02365
G1 X59.079 Y19.281 E0.51827
G1 X59.834 Y19.281 E0.02365
G1 X59.834 Y2.751 E0.51827
G1 X60.588 Y2.751 E0.02365
G1 X60.588 Y19.281 E0.51827
G1 X61.342 Y19.281 E0.02365
G1 X61.342 Y2.751 E0.51827
G1 X62.096 Y2.751 E0.02365
G1 X62.096 Y19.281 E0.51827
G1 X62.850 Y19.281 E0.02365
G1 X62.850 Y2.751 E0.51827
G1 X63.604 Y2.751 E0.02365
G1 X63.604 Y19.281 E0.51827
G1 X64.359 Y19.281 E0.02365
G1 X64.359 Y2.751 E0.51827
G1 X65.113 Y2.751 E0.02365
G1 X65.113 Y19.281 E0.51827
G1 X65.867 Y19.281 E0.02365
G1 X65.867 Y2.751 E0.51827
G1 X66.621 Y2.751 E0.02365
G1 X66.621 Y19.281 E0.51827
G1 X67.375 Y19.281 E0.02365
G1 X67.375 Y2.751 E0.51827
G1 X68.129 Y2.751 E0.02365
G1 X68.129 Y19.281 E0.51827
G1 X68.884 Y19.281 E0.02365
G1 X68.884 Y2.751 E0.51827
G1 X69.638 Y2.751 E0.02365
G1 X69.638 Y19.281 E0.51827
G1 X70.392 Y19.281 E0.02365
G1 X70.392 Y2.751 E0.51827
G1 X71.146 Y2.751 E0.02365
G1 X71.146 Y19.281 E0.51827
G1 X71.900 Y19.281 E0.02365
G1 X71.900 Y2.751 E0.51827
G1 X72.654 Y2.751 E0.02365
G1 X72.654 Y19.281 E0.51827
G1 X73.409 Y19.281 E0.02365
G1 X73.409 Y2.751 E0.51827
G1 X74.163 Y2.751 E0.02365
G1 X74.163 Y19.281 E0.51827
G1 X74.917 Y19.281 E0.02365
G1 X74.917 Y2.751 E0.51827
G1 X75.671 Y2.751 E0.02365
G1 X75.671 Y19.281 E0.51827
G1 X76.425 Y19.281 E0.02365
G1 X76.425 Y2.751 E0.51827
G1 X77.179 Y2.751 E0.02365
G1 X77.179 Y19.281 E0.51827
G1 X77.933 Y19.281 E0.02365
G1 X77.933 Y2.751 E0.51827
G1 X78.688 Y2.751 E0.02365
G1 X78.688 Y19.281 E0.51827
G1 X79.442 Y19.281 E0.02365
G1 X79.442 Y2.751 E0.51827
G1 X80.196 Y2.751 E0.02365
G1 X80.196 Y19.281 E0.51827
G1 X80.950 Y19.281 E0.02365
G1 X80.950 Y2.751 E0.51827
G1 X81.704 Y2.751 E0.02365
G1 X81.704 Y19.281 E0.51827
G1 X82.458 Y19.281 E0.02365
G1 X82.458 Y2.751 E0.51827
G1 X83.213 Y2.751 E0.02365
G1 X83.213 Y19.281 E0.51827
G1 X83.967 Y19.281 E0.02365
G1 X83.967 Y2.751 E0.51827
G1 X84.721 Y2.751 E0.02365
G1 X84.721 Y19.281 E0.51827
G1 X85.475 Y19.281 E0.02365
G1 X85.475 Y2.751 E0.51827
G1 X86.229 Y2.751 E0.02365
G1 X86.229 Y19.281 E0.51827
G1 X86.983 Y19.281 E0.02365
G1 X86.983 Y2.751 E0.51827
G1 X87.738 Y2.751 E0.02365
G1 X87.738 Y19.281 E0.51827
G1 X88.492 Y19.281 E0.02365
G1 X88.492 Y2.751 E0.51827
G1 X89.246 Y2.751 E0.02365
G1 X89.246 Y19.281 E0.51827
G1 X90.000 Y19.281 E0.02365
G1 X90.000 Y2.751 E0.51827
G1 X90.754 Y2.751 E0.02365
G1 X90.754 Y19.281 E0.51827
G1 X91.508 Y19.281 E0.02365
G1 X91.508 Y2.751 E0.51827
G1 X92.262 Y2.751 E0.02365
G1 X92.262 Y19.281 E0.51827
G1 X93.017 Y19.281 E0.02365
G1 X93.017 Y2.751 E0.51827
G1 X93.771 Y2.751 E0.02365
G1 X93.771 Y19.281 E0.51827
G1 X94.525 Y19.281 E0.02365
G1 X94.525 Y2.751 E0.51827
G1 X95.279 Y2.751 E0.02365
G1 X95.279 Y19.281 E0.51827
G1 X96.033 Y19.281 E0.02365
G1 X96.033 Y2.751 E0.51827
G1 X96.787 Y2.751 E0.02365
G1 X96.787 Y19.281 E0.51827
G1 X97.542 Y19.281 E0.02365
G1 X97.542 Y2.751 E0.51827
G1 X98.296 Y2.751 E0.02365
G1 X98.296 Y19.281 E0.51827
G1 X99.050 Y19.281 E0.02365
G1 X99.050 Y2.751 E0.51827
G1 X99.804 Y2.751 E0.02365
G1 X99.804 Y19.281 E0.51827
G1 X100.558 Y19.281 E0.02365
G1 X100.558 Y2.751 E0.51827
G1 X101.312 Y2.751 E0.02365
G1 X101.312 Y19.281 E0.51827
G1 X102.067 Y19.281 E0.02365
G1 X102.067 Y2.751 E0.51827
G1 X102.821 Y2.751 E0.02365
G1 X102.821 Y19.281 E0.51827
G1 X103.575 Y19.281 E0.02365
G1 X103.575 Y2.751 E0.51827
G1 X104.329 Y2.751 E0.02365
G1 X104.329 Y19.281 E0.51827
G1 X105.083 Y19.281 E0.02365
G1 X105.083 Y2.751 E0.51827
G1 X105.837 Y2.751 E0.02365
G1 X105.837 Y19.281 E0.51827
G1 X106.592 Y19.281 E0.02365
G1 X106.592 Y2.751 E0.51827
G1 X107.346 Y2.751 E0.02365
G1 X107.346 Y19.281 E0.51827
G1 X108.100 Y19.281 E0.02365
G1 X108.100 Y2.751 E0.51827
G1 X108.854 Y2.751 E0.02365
G1 X108.854 Y19.281 E0.51827
G1 X109.608 Y19.281 E0.02365
G1 X109.608 Y2.751 E0.51827
G1 X110.362 Y2.751 E0.02365
G1 X110.362 Y19.281 E0.51827
G1 X111.116 Y19.281 E0.02365
G1 X111.116 Y2.751 E0.51827
G1 X111.871 Y2.751 E0.02365
G1 X111.871 Y19.281 E0.51827
G1 X112.625 Y19.281 E0.02365
G1 X112.625 Y2.751 E0.51827
M73 P0 R180
G1 X113.379 Y2.751 E0.02365
G1 X113.379 Y19.281 E0.51827
G1 X114.133 Y19.281 E0.02365
G1 X114.133 Y2.751 E0.51827
G1 X114.887 Y2.751 E0.02365
G1 X114.887 Y19.281 E0.51827
G1 X115.641 Y19.281 E0.02365
G1 X115.641 Y2.751 E0.51827
G1 X116.396 Y2.751 E0.02365
G1 X116.396 Y19.281 E0.51827
G1 X117.150 Y19.281 E0.02365
G1 X117.150 Y2.751 E0.51827
G1 X117.904 Y2.751 E0.02365
G1 X117.904 Y19.281 E0.51827
G1 X118.658 Y19.281 E0.02365
G1 X118.658 Y2.751 E0.51827
G1 X119.412 Y2.751 E0.02365
G1 X119.412 Y19.281 E0.51827
G1 X120.166 Y19.281 E0.02365
G1 X120.166 Y2.751 E0.51827
G1 X120.921 Y2.751 E0.02365
G1 X120.921 Y19.281 E0.51827
G1 X121.675 Y19.281 E0.02365
G1 X121.675 Y2.751 E0.51827
G1 X122.429 Y2.751 E0.02365
G1 X122.429 Y19.281 E0.51828
G1 X123.183 Y19.281 E0.02365
G1 X123.183 Y2.751 E0.51828
G1 X123.937 Y2.751 E0.02365
G1 X123.937 Y19.281 E0.51828
G1 X124.691 Y19.281 E0.02365
G1 X124.691 Y2.751 E0.51828
G1 X125.445 Y2.751 E0.02365
G1 X125.445 Y19.281 E0.51828
G1 X126.200 Y19.281 E0.02365
G1 X126.200 Y2.751 E0.51828
G1 X126.954 Y2.751 E0.02365
G1 X126.954 Y19.281 E0.51828
G1 X127.708 Y19.281 E0.02365
G1 X127.708 Y2.751 E0.51828
G1 X128.462 Y2.751 E0.02365
G1 X128.462 Y19.281 E0.51828
G1 X129.216 Y19.281 E0.02365
G1 X129.216 Y2.751 E0.51828
G1 X129.970 Y2.751 E0.02365
G1 X129.970 Y19.281 E0.51828
G1 X130.725 Y19.281 E0.02365
G1 X130.725 Y2.751 E0.51828
G1 X131.479 Y2.751 E0.02365
G1 X131.479 Y19.281 E0.51828
G1 X132.233 Y19.281 E0.02365
G1 X132.233 Y2.751 E0.51828
G1 X132.987 Y2.751 E0.02365
G1 X132.987 Y19.281 E0.51828
G1 X133.741 Y19.281 E0.02365
G1 X133.741 Y2.751 E0.51828
G1 X134.495 Y2.751 E0.02365
G1 X134.495 Y19.281 E0.51828
G1 X135.250 Y19.281 E0.02365
G1 X135.250 Y2.751 E0.51828
G1 X136.004 Y2.751 E0.02365
G1 X136.004 Y19.281 E0.51828
G1 X136.758 Y19.281 E0.02365
G1 X136.758 Y2.751 E0.51828
G1 X137.512 Y2.751 E0.02365
G1 X137.512 Y19.281 E0.51828
G1 X138.266 Y19.281 E0.02365
G1 X138.266 Y2.751 E0.51828
G1 X139.020 Y2.751 E0.02365
G1 X139.020 Y19.281 E0.51828
G1 X139.774 Y19.281 E0.02365
G1 X139.775 Y2.751 E0.51828
G1 X140.529 Y2.751 E0.02365
G1 X140.529 Y19.281 E0.51828
G1 X141.283 Y19.281 E0.02365
G1 X141.283 Y2.751 E0.51828
G1 X142.037 Y2.751 E0.02365
G1 X142.037 Y19.281 E0.51828
G1 X142.791 Y19.281 E0.02365
G1 X142.791 Y2.751 E0.51828
G1 X143.545 Y2.751 E0.02365
G1 X143.545 Y19.281 E0.51828
G1 X144.299 Y19.281 E0.02365
G1 X144.299 Y2.751 E0.51828
G1 X145.054 Y2.751 E0.02365
G1 X145.054 Y19.281 E0.51828
G1 X145.808 Y19.281 E0.02365
G1 X145.808 Y2.751 E0.51828
G1 X146.562 Y2.751 E0.02365
G1 X146.562 Y19.281 E0.51828
G1 X147.316 Y19.281 E0.02365
G1 X147.316 Y2.751 E0.51828
G1 X148.070 Y2.751 E0.02365
G1 X148.070 Y19.281 E0.51828
G1 X148.824 Y19.281 E0.02365
G1 X148.824 Y2.751 E0.51828
G1 X149.579 Y2.751 E0.02365
G1 X149.579 Y19.281 E0.51828
G1 X150.333 Y19.281 E0.02365
G1 X150.333 Y2.751 E0.51828
G1 X151.087 Y2.751 E0.02365
G1 X151.087 Y27.234 E0.76765
G1 X151.841 Y27.234 E0.02365
G1 X151.841 Y2.751 E0.76765
G1 X152.595 Y2.751 E0.02365
G1 X152.595 Y27.404 E0.77297
M204 S1250
G1 E-2.24000 F4200.000
;WIPE_START
G1 F7200.000
G1 X152.595 Y25.758 E-0.91200
;WIPE_END
G1 E-0.04800 F4200.000
G1 Z0.400 F9000.000
G1 X149.579 Y23.483
G1 Z0.200
G1 E3.20000 F2400.000
M204 S800
G1 F3600.000
G1 X149.579 Y21.393 E0.06554
G1 X148.824 Y21.393 E0.02365
G1 X148.824 Y23.313 E0.06022
G1 X148.070 Y23.313 E0.02365
G1 X148.070 Y21.393 E0.06022
G1 X147.316 Y21.393 E0.02365
G1 X147.316 Y22.281 E0.02784
G1 X146.562 Y22.281 E0.02365
G1 X146.562 Y21.393 E0.02784
G1 X145.808 Y21.393 E0.02365
G1 X145.808 Y22.281 E0.02784
G1 X145.054 Y22.281 E0.02365
G1 X145.054 Y21.393 E0.02784
G1 X144.299 Y21.393 E0.02365
G1 X144.299 Y22.281 E0.02784
G1 X143.545 Y22.281 E0.02365
G1 X143.545 Y21.393 E0.02784
G1 X142.791 Y21.393 E0.02365
G1 X142.791 Y22.281 E0.02784
G1 X142.037 Y22.281 E0.02365
G1 X142.037 Y21.393 E0.02784
G1 X141.283 Y21.393 E0.02365
G1 X141.283 Y22.281 E0.02784
G1 X140.529 Y22.281 E0.02365
G1 X140.529 Y21.393 E0.02784
G1 X139.774 Y21.393 E0.02365
G1 X139.774 Y22.281 E0.02784
G1 X139.020 Y22.281 E0.02365
G1 X139.020 Y21.393 E0.02784
G1 X138.266 Y21.393 E0.02365
G1 X138.266 Y22.281 E0.02784
G1 X137.512 Y22.281 E0.02365
G1 X137.512 Y21.393 E0.02784
G1 X136.758 Y21.393 E0.02365
G1 X136.758 Y22.281 E0.02784
G1 X136.004 Y22.281 E0.02365
G1 X136.004 Y21.393 E0.02784
G1 X135.250 Y21.393 E0.02365
G1 X135.250 Y22.281 E0.02784
G1 X134.495 Y22.281 E0.02365
G1 X134.495 Y21.393 E0.02784
G1 X133.741 Y21.393 E0.02365
G1 X133.741 Y22.281 E0.02784
G1 X132.987 Y22.281 E0.02365
G1 X132.987 Y21.393 E0.02784
G1 X132.233 Y21.393 E0.02365
G1 X132.233 Y22.281 E0.02784
G1 X131.479 Y22.281 E0.02365
G1 X131.479 Y21.393 E0.02784
G1 X130.725 Y21.393 E0.02365
G1 X130.725 Y22.281 E0.02784
G1 X129.970 Y22.281 E0.02365
G1 X129.970 Y21.393 E0.02784
G1 X129.216 Y21.393 E0.02365
G1 X129.216 Y22.281 E0.02784
G1 X128.462 Y22.281 E0.02365
G1 X128.462 Y21.393 E0.02784
G1 X127.708 Y21.393 E0.02365
G1 X127.708 Y22.281 E0.02784
G1 X126.954 Y22.281 E0.02365
G1 X126.954 Y21.393 E0.02784
G1 X126.200 Y21.393 E0.02365
G1 X126.200 Y22.281 E0.02784
G1 X125.445 Y22.281 E0.02365
G1 X125.445 Y21.393 E0.02784
G1 X124.691 Y21.393 E0.02365
G1 X124.691 Y22.281 E0.02784
G1 X123.937 Y22.281 E0.02365
G1 X123.937 Y21.393 E0.02784
G1 X123.183 Y21.393 E0.02365
G1 X123.183 Y22.281 E0.02784
G1 X122.429 Y22.281 E0.02365
G1 X122.429 Y21.393 E0.02784
G1 X121.675 Y21.393 E0.02365
G1 X121.675 Y22.281 E0.02784
G1 X120.921 Y22.281 E0.02365
G1 X120.921 Y21.393 E0.02784
G1 X120.166 Y21.393 E0.02365
G1 X120.166 Y22.281 E0.02784
G1 X119.412 Y22.281 E0.02365
G1 X119.412 Y21.393 E0.02784
G1 X118.658 Y21.393 E0.02365
G1 X118.658 Y22.281 E0.02784
G1 X117.904 Y22.281 E0.02365
G1 X117.904 Y21.393 E0.02784
G1 X117.150 Y21.393 E0.02365
G1 X117.150 Y22.281 E0.02784
G1 X116.396 Y22.281 E0.02365
G1 X116.396 Y21.393 E0.02784
G1 X115.641 Y21.393 E0.02365
G1 X115.641 Y22.281 E0.02784
G1 X114.887 Y22.281 E0.02365
G1 X114.887 Y21.393 E0.02784
G1 X114.133 Y21.393 E0.02365
G1 X114.133 Y22.281 E0.02784
G1 X113.379 Y22.281 E0.02365
G1 X113.379 Y21.393 E0.02784
G1 X112.625 Y21.393 E0.02365
G1 X112.625 Y22.281 E0.02784
G1 X111.871 Y22.281 E0.02365
G1 X111.871 Y21.393 E0.02784
G1 X111.116 Y21.393 E0.02365
G1 X111.116 Y22.281 E0.02784
G1 X110.362 Y22.281 E0.02365
G1 X110.362 Y21.393 E0.02784
G1 X109.608 Y21.393 E0.02365
G1 X109.608 Y22.281 E0.02784
G1 X108.854 Y22.281 E0.02365
G1 X108.854 Y21.393 E0.02784
G1 X108.100 Y21.393 E0.02365
G1 X108.100 Y22.281 E0.02784
G1 X107.346 Y22.281 E0.02365
G1 X107.346 Y21.393 E0.02784
G1 X106.592 Y21.393 E0.02365
G1 X106.592 Y22.281 E0.02784
G1 X105.837 Y22.281 E0.02365
G1 X105.837 Y21.393 E0.02784
G1 X105.083 Y21.393 E0.02365
G1 X105.083 Y22.281 E0.02784
G1 X104.329 Y22.281 E0.02365
G1 X104.329 Y21.393 E0.02784
G1 X103.575 Y21.393 E0.02365
G1 X103.575 Y22.281 E0.02784
G1 X102.821 Y22.281 E0.02365
