; generated by PrusaSlicer 2.3.2+win64 on 2021-09-14 at 16:39:49 UTC


;
;

;
;
; 

; external perimeters extrusion width = 0.45mm
; perimeters extrusion width = 0.45mm
; infill extrusion width = 0.45mm
; solid infill extrusion width = 0.45mm
; top infill extrusion width = 0.40mm
; first layer extrusion width = 0.42mm

M73 P0 R134
M201 X1250 Y1250 Z400 E5000 ; sets maximum accelerations, mm/sec^2
M203 X180 Y180 Z12 E80 ; sets maximum feedrates, mm/sec
M204 P1250 R1250 T1250 ; sets acceleration (P, T) and retract acceleration (R), mm/sec^2
M205 X8.00 Y8.00 Z2.00 E10.00 ; sets the jerk limits, mm/sec
M205 S0 T0 ; sets the minimum extruding and travel feed rate, mm/sec
M107
;TYPE:Custom
G90 ; use absolute coordinates
M83 ; extruder relative mode
M104 S170 ; set extruder temp for bed leveling
M140 S60 ; set bed temp
M109 R170 ; wait for bed leveling temp
M190 S60 ; wait for bed temp
G28 ; home all without mesh bed level
G29 ; mesh bed leveling 
M104 S215 ; set extruder temp
G92 E0.0
G1 Y-2.0 X179 F2400
G1 Z3 F720
M109 S215 ; wait for extruder temp

; intro line
G1 X170 F1000
G1 Z0.2 F720
G1 X110.0 E8.0 F900
G1 X40.0 E10.0 F700
G92 E0.0

M221 S95 ; set flow
G21 ; set units to millimeters
G90 ; use absolute coordinates
M83 ; use relative distances for extrusion
M900 K0.2 ; Filament gcode LA 1.5
; ; Filament gcode LA 1.0
;LAYER_CHANGE
;Z:0.2
;HEIGHT:0.2
;BEFORE_LAYER_CHANGE
G92 E0.0
;0.2


M73 P0 R133
G1 E-3.20000 F4200.000
G1 Z0.200 F9000.000
;AFTER_LAYER_CHANGE
;0.2
G1 Z0.400
G1 X28.339 Y19.832
G1 Z0.200
G1 E3.20000 F2400.000
M204 S800
;TYPE:Skirt
;WIDTH:0.42
G1 F3600.000
G1 X28.838 Y19.416 E0.02036
G1 X29.430 Y19.150 E0.02036
G1 X30.073 Y19.055 E0.02036
G1 X149.907 Y19.055 E3.75733
G1 X150.806 Y19.233 E0.02872
G1 X151.570 Y19.737 E0.02872
G1 X152.087 Y20.494 E0.02872
G1 X152.280 Y21.389 E0.02872
G1 X152.280 Y130.481 E3.42049
G1 X152.216 Y131.028 E0.01728
G1 X152.028 Y131.542 E0.01716
G1 X151.686 Y132.049 E0.01917
G1 X110.780 Y178.236 E1.93447
G1 X110.186 Y178.720 E0.02402
G1 X109.614 Y178.956 E0.01941
G1 X109.004 Y179.037 E0.01929
G1 X70.985 Y179.037 E1.19205
G1 X70.445 Y178.971 E0.01704
G1 X69.935 Y178.785 E0.01704
G1 X69.225 Y178.241 E0.02802
G1 X28.315 Y132.050 E1.93466
G1 X28.000 Y131.598 E0.01728
G1 X27.799 Y131.085 E0.01728
G1 X27.720 Y130.477 E0.01922
G1 X27.720 Y21.428 E3.41915
G1 X27.784 Y20.881 E0.01728
G1 X27.972 Y20.367 E0.01716
G1 X28.305 Y19.881 E0.01848
M204 S1250
; printing object 1509_backplate_3-4.stl id:0 copy 0
G1 E-2.24000 F4200.000
;WIPE_START
G1 F7200.000
G1 X28.838 Y19.416 E-0.39194
G1 X29.430 Y19.150 E-0.35982
G1 X29.716 Y19.108 E-0.16024
;WIPE_END
G1 E-0.04800 F4200.000
G1 Z0.400 F9000.000
G1 X145.747 Y66.219
G1 Z0.200
G1 E3.20000 F2400.000
M204 S800
;TYPE:Perimeter
G1 F3600.000
G1 X146.150 Y67.191 E0.03298
G1 X102.604 Y110.736 E1.93087
G1 X81.995 Y110.736 E0.64619
G1 X81.593 Y109.764 E0.03298
G1 X125.138 Y66.219 E1.93087
G1 X145.687 Y66.219 E0.64431
M204 S1250
G1 X145.495 Y66.596 F9000.000
M204 S800
;TYPE:External perimeter
G1 F3600.000
G1 X145.705 Y67.102 E0.01718
G1 X102.448 Y110.359 E1.91807
G1 X82.247 Y110.359 E0.63339
G1 X82.037 Y109.853 E0.01718
G1 X125.294 Y66.596 E1.91807
G1 X145.435 Y66.596 E0.63151
M204 S1250
G1 X145.853 Y66.418 F9000.000
G1 E-2.24000 F4200.000
;WIPE_START
G1 F7200.000
G1 X145.705 Y67.102 E-0.31784
G1 X144.947 Y67.860 E-0.59416
;WIPE_END
G1 E-0.04800 F4200.000
G1 Z0.400 F9000.000
G1 X144.014 Y35.456
G1 Z0.200
G1 E3.20000 F2400.000
M204 S800
;TYPE:Perimeter
G1 F3600.000
G1 X144.417 Y36.427 E0.03298
G1 X70.108 Y110.736 E3.29497
G1 X35.345 Y110.736 E1.08997
G1 X34.943 Y109.764 E0.03298
G1 X109.252 Y35.456 E3.29498
G1 X143.954 Y35.456 E1.08809
M204 S1250
G1 X143.763 Y35.833 F9000.000
M204 S800
;TYPE:External perimeter
G1 F3600.000
G1 X143.972 Y36.339 E0.01718
G1 X69.952 Y110.359 E3.28218
G1 X35.597 Y110.359 E1.07717
G1 X35.388 Y109.853 E0.01718
G1 X109.408 Y35.833 E3.28218
G1 X143.703 Y35.833 E1.07529
M204 S1250
G1 X144.121 Y35.654 F9000.000
G1 E-2.24000 F4200.000
;WIPE_START
G1 F7200.000
G1 X143.972 Y36.339 E-0.31784
G1 X143.214 Y37.097 E-0.59416
;WIPE_END
G1 E-0.04800 F4200.000
G1 Z0.400 F9000.000
G1 X98.844 Y34.495
G1 Z0.200
G1 E3.20000 F2400.000
M204 S800
;TYPE:Perimeter
G1 F3600.000
G1 X55.298 Y78.040 E1.93087
G1 X34.689 Y78.040 E0.64619
G1 X34.287 Y77.068 E0.03298
G1 X77.832 Y33.523 E1.93087
G1 X98.441 Y33.523 E0.64619
G1 X98.821 Y34.439 E0.03110
M204 S1250
G1 X98.399 Y34.406 F9000.000
M204 S800
;TYPE:External perimeter
G1 F3600.000
G1 X55.142 Y77.663 E1.91807
G1 X34.941 Y77.663 E0.63339
G1 X34.732 Y77.157 E0.01718
G1 X77.988 Y33.900 E1.91807
G1 X98.189 Y33.900 E0.63339
G1 X98.376 Y34.351 E0.01530
M204 S1250
G1 X98.744 Y34.609 F9000.000
G1 E-2.24000 F4200.000
;WIPE_START
G1 F7200.000
G1 X97.213 Y35.515 E-0.91200
;WIPE_END
G1 E-0.04800 F4200.000
G1 Z0.400 F9000.000
G1 X37.779 Y32.089
G1 Z0.200
G1 E3.20000 F2400.000
M204 S800
;TYPE:Perimeter
G1 F3600.000
G1 X37.728 Y32.616 E0.01658
G1 X37.586 Y33.109 E0.01608
G1 X37.327 Y33.611 E0.01772
G1 X36.967 Y34.057 E0.01797
G1 X36.523 Y34.419 E0.01797
G1 X36.024 Y34.680 E0.01764
G1 X35.502 Y34.831 E0.01704
G1 X34.995 Y34.879 E0.01597
G1 X34.462 Y34.828 E0.01679
G1 X33.969 Y34.686 E0.01609
G1 X33.466 Y34.427 E0.01772
G1 X33.021 Y34.067 E0.01797
G1 X32.658 Y33.623 E0.01797
G1 X32.398 Y33.124 E0.01764
G1 X32.247 Y32.602 E0.01704
G1 X32.199 Y32.095 E0.01598
G1 X32.249 Y31.562 E0.01679
G1 X32.388 Y31.082 E0.01567
G1 X32.520 Y30.793 E0.00994
G1 X32.679 Y30.527 E0.00972
G1 X33.012 Y30.120 E0.01650
G1 X33.455 Y29.758 E0.01792
G1 X33.958 Y29.495 E0.01780
G1 X34.529 Y29.341 E0.01856
G1 X34.983 Y29.299 E0.01430
G1 X35.516 Y29.349 E0.01676
G1 X35.996 Y29.488 E0.01567
G1 X36.284 Y29.620 E0.00994
G1 X36.550 Y29.779 E0.00972
G1 X36.958 Y30.112 E0.01651
G1 X37.319 Y30.555 E0.01792
G1 X37.580 Y31.053 E0.01764
G1 X37.731 Y31.576 E0.01706
G1 X37.773 Y32.030 E0.01429
M204 S1250
G1 X37.398 Y32.064 F9000.000
M204 S800
;TYPE:External perimeter
G1 F3600.000
G1 X37.356 Y32.545 E0.01512
G1 X37.234 Y32.969 E0.01383
G1 X37.010 Y33.404 E0.01535
G1 X36.698 Y33.789 E0.01553
G1 X36.314 Y34.103 E0.01554
G1 X35.883 Y34.328 E0.01525
G1 X35.431 Y34.459 E0.01475
G1 X34.995 Y34.500 E0.01374
G1 X34.533 Y34.456 E0.01456
G1 X34.109 Y34.334 E0.01384
G1 X33.673 Y34.110 E0.01535
G1 X33.288 Y33.798 E0.01553
G1 X32.975 Y33.414 E0.01554
G1 X32.750 Y32.983 E0.01525
G1 X32.619 Y32.531 E0.01474
G1 X32.578 Y32.095 E0.01374
G1 X32.622 Y31.633 E0.01456
G1 X32.743 Y31.213 E0.01368
G1 X32.854 Y30.969 E0.00842
G1 X32.989 Y30.744 E0.00821
G1 X33.280 Y30.388 E0.01444
G1 X33.663 Y30.075 E0.01552
G1 X34.096 Y29.849 E0.01531
G1 X34.596 Y29.713 E0.01625
G1 X34.983 Y29.678 E0.01217
G1 X35.445 Y29.721 E0.01456
G1 X35.864 Y29.842 E0.01368
G1 X36.108 Y29.954 E0.00841
G1 X36.333 Y30.088 E0.00821
G1 X36.690 Y30.380 E0.01445
G1 X37.003 Y30.763 E0.01552
G1 X37.228 Y31.194 E0.01525
G1 X37.359 Y31.646 E0.01475
G1 X37.392 Y32.005 E0.01129
M204 S1250
G1 X37.745 Y32.262 F9000.000
G1 E-2.24000 F4200.000
;WIPE_START
G1 F7200.000
G1 X37.356 Y32.545 E-0.30007
G1 X37.234 Y32.969 E-0.24443
G1 X37.010 Y33.404 E-0.27136
G1 X36.901 Y33.539 E-0.09614
;WIPE_END
G1 E-0.04800 F4200.000
G1 Z0.400 F9000.000
G1 X34.983 Y99.787
G1 Z0.200
G1 E3.20000 F2400.000
M204 S800
;TYPE:Perimeter
G1 F3600.000
G1 X35.516 Y99.838 E0.01676
G1 X35.996 Y99.976 E0.01567
G1 X36.284 Y100.108 E0.00994
G1 X36.550 Y100.267 E0.00972
G1 X36.958 Y100.600 E0.01651
G1 X37.319 Y101.043 E0.01792
G1 X37.580 Y101.542 E0.01764
G1 X37.731 Y102.064 E0.01706
G1 X37.779 Y102.578 E0.01617
G1 X37.728 Y103.104 E0.01658
G1 X37.586 Y103.597 E0.01608
G1 X37.327 Y104.100 E0.01772
G1 X36.967 Y104.545 E0.01797
G1 X36.523 Y104.908 E0.01797
G1 X36.024 Y105.168 E0.01764
G1 X35.502 Y105.319 E0.01704
G1 X34.995 Y105.367 E0.01598
G1 X34.462 Y105.316 E0.01679
G1 X33.969 Y105.174 E0.01609
G1 X33.466 Y104.916 E0.01772
G1 X33.021 Y104.555 E0.01797
G1 X32.658 Y104.111 E0.01797
G1 X32.398 Y103.613 E0.01764
G1 X32.247 Y103.091 E0.01704
G1 X32.199 Y102.583 E0.01598
G1 X32.249 Y102.050 E0.01679
G1 X32.388 Y101.570 E0.01567
G1 X32.520 Y101.282 E0.00994
G1 X32.679 Y101.016 E0.00972
G1 X33.012 Y100.608 E0.01650
G1 X33.455 Y100.247 E0.01792
G1 X33.958 Y99.984 E0.01780
G1 X34.529 Y99.829 E0.01856
G1 X34.924 Y99.793 E0.01242
M204 S1250
G1 X34.958 Y100.168 F9000.000
M204 S800
;TYPE:External perimeter
G1 F3600.000
G1 X35.445 Y100.210 E0.01532
G1 X35.864 Y100.331 E0.01368
G1 X36.108 Y100.443 E0.00841
G1 X36.333 Y100.577 E0.00821
G1 X36.690 Y100.868 E0.01445
G1 X37.003 Y101.252 E0.01552
G1 X37.228 Y101.683 E0.01525
G1 X37.359 Y102.135 E0.01475
G1 X37.400 Y102.577 E0.01393
G1 X37.356 Y103.033 E0.01437
G1 X37.234 Y103.457 E0.01383
G1 X37.010 Y103.893 E0.01535
G1 X36.698 Y104.278 E0.01553
G1 X36.314 Y104.591 E0.01554
G1 X35.883 Y104.816 E0.01525
G1 X35.431 Y104.947 E0.01475
G1 X34.995 Y104.988 E0.01374
G1 X34.533 Y104.944 E0.01456
G1 X34.109 Y104.822 E0.01384
G1 X33.673 Y104.598 E0.01535
G1 X33.288 Y104.286 E0.01553
G1 X32.975 Y103.903 E0.01554
G1 X32.750 Y103.471 E0.01525
G1 X32.619 Y103.020 E0.01474
G1 X32.578 Y102.583 E0.01374
G1 X32.622 Y102.121 E0.01456
G1 X32.743 Y101.702 E0.01368
G1 X32.854 Y101.458 E0.00842
G1 X32.989 Y101.233 E0.00821
G1 X33.280 Y100.876 E0.01444
G1 X33.663 Y100.563 E0.01552
G1 X34.096 Y100.337 E0.01531
G1 X34.596 Y100.201 E0.01625
G1 X34.898 Y100.174 E0.00951
M204 S1250
G1 X35.156 Y99.820 F9000.000
G1 E-2.24000 F4200.000
;WIPE_START
G1 F7200.000
G1 X35.445 Y100.210 E-0.30356
G1 X35.864 Y100.331 E-0.24185
G1 X36.108 Y100.443 E-0.14871
G1 X36.333 Y100.577 E-0.14507
G1 X36.435 Y100.660 E-0.07281
;WIPE_END
G1 E-0.04800 F4200.000
G1 Z0.400 F9000.000
G1 X36.252 Y132.690
G1 Z0.200
G1 E3.20000 F2400.000
M204 S800
;TYPE:Perimeter
G1 F3600.000
G1 X64.452 Y132.690 E0.88417
G1 X64.452 Y164.396 E0.99412
G1 X63.436 Y164.781 E0.03407
G1 X35.835 Y133.618 E1.30525
G1 X36.228 Y132.745 E0.03003
M204 S1250
G1 X36.496 Y133.067 F9000.000
M204 S800
;TYPE:External perimeter
G1 F3600.000
G1 X64.075 Y133.067 E0.86470
G1 X64.075 Y164.136 E0.97414
G1 X63.545 Y164.337 E0.01775
G1 X36.278 Y133.550 E1.28944
G1 X36.471 Y133.122 E0.01474
M204 S1250
G1 X36.402 Y132.678 F9000.000
G1 E-2.24000 F4200.000
;WIPE_START
G1 F7200.000
G1 X38.117 Y133.118 E-0.91200
;WIPE_END
G1 E-0.04800 F4200.000
G1 Z0.400 F9000.000
G1 X115.548 Y132.690
G1 Z0.200
G1 E3.20000 F2400.000
M204 S800
;TYPE:Perimeter
G1 F3600.000
G1 X143.748 Y132.690 E0.88417
G1 X144.165 Y133.618 E0.03191
G1 X116.564 Y164.781 E1.30525
G1 X115.548 Y164.396 E0.03407
G1 X115.548 Y132.750 E0.99224
M204 S1250
G1 X115.925 Y133.067 F9000.000
M204 S800
;TYPE:External perimeter
G1 F3600.000
G1 X143.504 Y133.067 E0.86470
G1 X143.722 Y133.550 E0.01662
G1 X116.455 Y164.337 E1.28944
G1 X115.925 Y164.136 E0.01775
G1 X115.925 Y133.127 E0.97226
M204 S1250
G1 X115.923 Y132.667 F9000.000
G1 E-2.24000 F4200.000
;WIPE_START
G1 F7200.000
G1 X117.571 Y133.123 E-0.91200
;WIPE_END
G1 E-0.04800 F4200.000
G1 Z0.400 F9000.000
G1 X143.043 Y104.555
G1 Z0.200
G1 E3.20000 F2400.000
M204 S800
;TYPE:Perimeter
G1 F3600.000
G1 X142.681 Y104.111 E0.01797
G1 X142.420 Y103.613 E0.01764
G1 X142.269 Y103.090 E0.01706
G1 X142.221 Y102.576 E0.01617
G1 X142.272 Y102.050 E0.01658
G1 X142.410 Y101.570 E0.01565
G1 X142.542 Y101.282 E0.00994
G1 X142.701 Y101.016 E0.00972
G1 X143.034 Y100.608 E0.01651
G1 X143.477 Y100.247 E0.01792
G1 X143.980 Y99.984 E0.01780
G1 X144.551 Y99.829 E0.01856
G1 X145.006 Y99.787 E0.01430
G1 X145.538 Y99.838 E0.01676
G1 X146.018 Y99.976 E0.01567
G1 X146.306 Y100.108 E0.00994
G1 X146.573 Y100.267 E0.00973
G1 X146.980 Y100.600 E0.01650
G1 X147.342 Y101.043 E0.01792
G1 X147.602 Y101.542 E0.01764
G1 X147.753 Y102.064 E0.01704
G1 X147.801 Y102.571 E0.01598
G1 X147.751 Y103.104 E0.01679
G1 X147.608 Y103.597 E0.01609
G1 X147.349 Y104.100 E0.01772
G1 X146.989 Y104.545 E0.01796
G1 X146.545 Y104.908 E0.01797
G1 X146.047 Y105.168 E0.01764
G1 X145.525 Y105.319 E0.01704
G1 X145.017 Y105.367 E0.01598
G1 X144.484 Y105.316 E0.01679
G1 X143.991 Y105.174 E0.01609
G1 X143.489 Y104.916 E0.01771
G1 X143.090 Y104.593 E0.01609
M204 S1250
G1 X143.327 Y104.300 F9000.000
M204 S800
;TYPE:External perimeter
G1 F3600.000
G1 X142.997 Y103.903 E0.01618
G1 X142.772 Y103.472 E0.01525
G1 X142.641 Y103.020 E0.01475
G1 X142.600 Y102.577 E0.01393
G1 X142.644 Y102.121 E0.01437
G1 X142.765 Y101.702 E0.01368
G1 X142.877 Y101.458 E0.00841
G1 X143.011 Y101.233 E0.00821
G1 X143.302 Y100.876 E0.01444
G1 X143.686 Y100.563 E0.01552
G1 X144.118 Y100.337 E0.01531
G1 X144.619 Y100.201 E0.01625
G1 X145.005 Y100.166 E0.01217
G1 X145.467 Y100.210 E0.01456
G1 X145.887 Y100.331 E0.01368
G1 X146.131 Y100.443 E0.00841
G1 X146.356 Y100.577 E0.00821
G1 X146.712 Y100.868 E0.01444
G1 X147.025 Y101.252 E0.01552
G1 X147.250 Y101.683 E0.01525
G1 X147.381 Y102.135 E0.01474
G1 X147.422 Y102.571 E0.01374
G1 X147.378 Y103.033 E0.01457
G1 X147.256 Y103.457 E0.01383
G1 X147.032 Y103.893 E0.01535
G1 X146.720 Y104.278 E0.01553
G1 X146.337 Y104.591 E0.01554
G1 X145.905 Y104.816 E0.01525
G1 X145.454 Y104.947 E0.01475
G1 X145.017 Y104.988 E0.01374
G1 X144.555 Y104.944 E0.01456
G1 X144.131 Y104.822 E0.01384
G1 X143.696 Y104.598 E0.01535
G1 X143.373 Y104.337 E0.01300
M204 S1250
G1 X142.941 Y104.406 F9000.000
G1 E-2.24000 F4200.000
;WIPE_START
G1 F7200.000
G1 X142.997 Y103.903 E-0.31867
G1 X142.772 Y103.472 E-0.26949
G1 X142.641 Y103.020 E-0.26073
G1 X142.631 Y102.906 E-0.06310
;WIPE_END
G1 E-0.04800 F4200.000
G1 Z0.400 F9000.000
G1 X145.017 Y34.879
G1 Z0.200
G1 E3.20000 F2400.000
M204 S800
;TYPE:Perimeter
G1 F3600.000
G1 X144.484 Y34.828 E0.01679
G1 X143.991 Y34.686 E0.01609
G1 X143.489 Y34.427 E0.01771
G1 X143.043 Y34.067 E0.01797
G1 X142.681 Y33.623 E0.01797
G1 X142.420 Y33.124 E0.01764
G1 X142.269 Y32.602 E0.01706
G1 X142.221 Y32.088 E0.01617
G1 X142.272 Y31.561 E0.01658
G1 X142.410 Y31.082 E0.01565
G1 X142.542 Y30.794 E0.00994
G1 X142.701 Y30.527 E0.00972
G1 X143.034 Y30.120 E0.01651
G1 X143.477 Y29.758 E0.01792
G1 X143.980 Y29.496 E0.01780
G1 X144.551 Y29.341 E0.01856
G1 X145.006 Y29.299 E0.01430
G1 X145.538 Y29.349 E0.01676
G1 X146.018 Y29.488 E0.01567
G1 X146.306 Y29.620 E0.00994
G1 X146.573 Y29.779 E0.00973
G1 X146.980 Y30.112 E0.01650
G1 X147.342 Y30.555 E0.01792
G1 X147.602 Y31.053 E0.01764
G1 X147.753 Y31.575 E0.01704
G1 X147.801 Y32.083 E0.01598
G1 X147.751 Y32.616 E0.01679
G1 X147.608 Y33.109 E0.01609
G1 X147.349 Y33.611 E0.01772
G1 X146.989 Y34.057 E0.01796
G1 X146.545 Y34.419 E0.01797
G1 X146.047 Y34.680 E0.01764
G1 X145.525 Y34.831 E0.01704
G1 X145.077 Y34.873 E0.01409
M204 S1250
G1 X145.042 Y34.498 F9000.000
M204 S800
;TYPE:External perimeter
G1 F3600.000
G1 X144.555 Y34.456 E0.01531
G1 X144.131 Y34.334 E0.01384
G1 X143.696 Y34.110 E0.01535
G1 X143.310 Y33.798 E0.01554
G1 X142.997 Y33.414 E0.01554
G1 X142.772 Y32.983 E0.01525
G1 X142.641 Y32.531 E0.01475
G1 X142.600 Y32.089 E0.01393
G1 X142.644 Y31.632 E0.01437
G1 X142.765 Y31.213 E0.01368
G1 X142.877 Y30.969 E0.00841
G1 X143.011 Y30.744 E0.00821
G1 X143.302 Y30.388 E0.01444
G1 X143.686 Y30.075 E0.01552
G1 X144.118 Y29.849 E0.01530
G1 X144.619 Y29.713 E0.01625
G1 X145.005 Y29.678 E0.01217
G1 X145.467 Y29.721 E0.01456
G1 X145.887 Y29.842 E0.01368
G1 X146.131 Y29.954 E0.00841
G1 X146.356 Y30.088 E0.00821
G1 X146.712 Y30.380 E0.01444
G1 X147.025 Y30.763 E0.01552
G1 X147.250 Y31.194 E0.01525
G1 X147.381 Y31.646 E0.01474
G1 X147.422 Y32.082 E0.01374
G1 X147.378 Y32.545 E0.01457
G1 X147.256 Y32.969 E0.01383
G1 X147.032 Y33.404 E0.01535
G1 X146.720 Y33.789 E0.01553
G1 X146.337 Y34.103 E0.01554
G1 X145.905 Y34.328 E0.01525
G1 X145.454 Y34.459 E0.01475
G1 X145.101 Y34.492 E0.01110
M204 S1250
G1 X144.844 Y34.846 F9000.000
G1 E-2.24000 F4200.000
;WIPE_START
G1 F7200.000
G1 X144.555 Y34.456 E-0.30342
G1 X144.131 Y34.334 E-0.24456
G1 X143.696 Y34.110 E-0.27126
G1 X143.566 Y34.004 E-0.09275
;WIPE_END
G1 E-0.04800 F4200.000
G1 Z0.400 F9000.000
G1 X149.116 Y24.188
G1 Z0.200
G1 E3.20000 F2400.000
M204 S800
;TYPE:Perimeter
G1 F3600.000
G1 X149.116 Y130.179 E3.32325
G1 X108.646 Y175.873 E1.91385
G1 X71.354 Y175.873 E1.16925
G1 X30.884 Y130.179 E1.91385
