; G-Code generated by Simplify3D(R) Version 4.1.2
; Sep 3, 2021 at 1:22:47 PM
; Settings Summary
;   processName,Process1
;   applyToModels,2508-v3-1-backplate,0109_frontcover
;   profileName,JGAurora A5
;   profileVersion,2021-09-03 12:55:59
;   baseProfile,
;   printMaterial,PLA
;   printQuality,Fast
;   printExtruders,
;   extruderName,Primary Extruder
;   extruderToolheadNumber,0
;   extruderDiameter,0.4
;   extruderAutoWidth,1
;   extruderWidth,0.48
;   extrusionMultiplier,0.9
;   extruderUseRetract,1
;   extruderRetractionDistance,5
;   extruderExtraRestartDistance,0
;   extruderRetractionZLift,0
;   extruderRetractionSpeed,2400
;   extruderUseCoasting,0
;   extruderCoastingDistance,0.2
;   extruderUseWipe,0
;   extruderWipeDistance,5
;   primaryExtruder,0
;   layerHeight,0.3
;   topSolidLayers,3
;   bottomSolidLayers,3
;   perimeterOutlines,3
;   printPerimetersInsideOut,1
;   startPointOption,2
;   startPointOriginX,0
;   startPointOriginY,0
;   sequentialIslands,0
;   spiralVaseMode,0
;   firstLayerHeightPercentage,120
;   firstLayerWidthPercentage,150
;   firstLayerUnderspeed,0.5
;   useRaft,0
;   raftExtruder,0
;   raftTopLayers,3
;   raftBaseLayers,2
;   raftOffset,3
;   raftSeparationDistance,0.14
;   raftTopInfill,100
;   aboveRaftSpeedMultiplier,0.3
;   useSkirt,1
;   skirtExtruder,0
;   skirtLayers,1
;   skirtOutlines,2
;   skirtOffset,4
;   usePrimePillar,0
;   primePillarExtruder,999
;   primePillarWidth,12
;   primePillarLocation,7
;   primePillarSpeedMultiplier,1
;   useOozeShield,0
;   oozeShieldExtruder,999
;   oozeShieldOffset,2
;   oozeShieldOutlines,1
;   oozeShieldSidewallShape,1
;   oozeShieldSidewallAngle,30
;   oozeShieldSpeedMultiplier,1
;   infillExtruder,0
;   internalInfillPattern,Rectilinear
;   externalInfillPattern,Rectilinear
;   infillPercentage,15
;   outlineOverlapPercentage,15
;   infillExtrusionWidthPercentage,120
;   minInfillLength,5
;   infillLayerInterval,1
;   internalInfillAngles,45,-45
;   overlapInternalInfillAngles,0
;   externalInfillAngles,45,-45
;   generateSupport,1
;   supportExtruder,0
;   supportInfillPercentage,25
;   supportExtraInflation,0
;   supportBaseLayers,0
;   denseSupportExtruder,0
;   denseSupportLayers,0
;   denseSupportInfillPercentage,70
;   supportLayerInterval,1
;   supportHorizontalPartOffset,0.3
;   supportUpperSeparationLayers,1
;   supportLowerSeparationLayers,1
;   supportType,0
;   supportGridSpacing,4
;   maxOverhangAngle,45
;   supportAngles,0
;   temperatureName,Primary Extruder,Heated Bed
;   temperatureNumber,0,0
;   temperatureSetpointCount,1,1
;   temperatureSetpointLayers,1,1
;   temperatureSetpointTemperatures,200,60
;   temperatureStabilizeAtStartup,1,1
;   temperatureHeatedBed,0,1
;   fanLayers,1,2
;   fanSpeeds,0,100
;   blipFanToFullPower,0
;   adjustSpeedForCooling,1
;   minSpeedLayerTime,15
;   minCoolingSpeedSlowdown,20
;   increaseFanForCooling,0
;   minFanLayerTime,45
;   maxCoolingFanSpeed,100
;   increaseFanForBridging,0
;   bridgingFanSpeed,100
;   use5D,1
;   relativeEdistances,0
;   allowEaxisZeroing,1
;   independentExtruderAxes,0
;   includeM10123,0
;   stickySupport,1
;   applyToolheadOffsets,0
;   gcodeXoffset,0
;   gcodeYoffset,0
;   gcodeZoffset,0
;   overrideMachineDefinition,1
;   machineTypeOverride,0
;   strokeXoverride,305
;   strokeYoverride,305
;   strokeZoverride,320
;   originOffsetXoverride,0
;   originOffsetYoverride,0
;   originOffsetZoverride,0
;   homeXdirOverride,-1
;   homeYdirOverride,-1
;   homeZdirOverride,-1
;   flipXoverride,1
;   flipYoverride,-1
;   flipZoverride,1
;   toolheadOffsets,0,0|0,0|0,0|0,0|0,0|0,0
;   overrideFirmwareConfiguration,1
;   firmwareTypeOverride,RepRap (Marlin/Repetier/Sprinter)
;   GPXconfigOverride,r2
;   baudRateOverride,115200
;   overridePrinterModels,1
;   printerModelsOverride
;   startingGcode,G28 ; home all axes,G1 Z0.2 F3000 ; get ready to prime,G92 E0 ; reset extrusion distance,G1 X160 E15 F600 ; prime nozzle,G1 X180 F5000 ; quick wipe
;   layerChangeGcode,
;   retractionGcode,
;   toolChangeGcode,
;   endingGcode,G28 X0 ; home X axis,M106 S0 ; turn off cooling fan,M104 S0 ; turn off extruder,M140 S0 ; turn off bed,M84 ; disable motors
;   exportFileFormat,gcode
;   celebration,0
;   celebrationSong,Random Song
;   postProcessing,
;   defaultSpeed,5000
;   outlineUnderspeed,0.5
;   solidInfillUnderspeed,0.8
;   supportUnderspeed,0.8
;   rapidXYspeed,4800
;   rapidZspeed,1000
;   minBridgingArea,50
;   bridgingExtraInflation,0
;   bridgingExtrusionMultiplier,1
;   bridgingSpeedMultiplier,1
;   useFixedBridgingAngle,0
;   fixedBridgingAngle,0
;   applyBridgingToPerimeters,0
;   filamentDiameters,1.75|1.75|1.75|1.75|1.75|1.75
;   filamentPricesPerKg,25|46|46|46|46|46
;   filamentDensities,1.25|1.25|1.25|1.25|1.25|1.25
;   useMinPrintHeight,0
;   minPrintHeight,0
;   useMaxPrintHeight,0
;   maxPrintHeight,0
;   useDiaphragm,0
;   diaphragmLayerInterval,20
;   robustSlicing,1
;   mergeAllIntoSolid,0
;   onlyRetractWhenCrossingOutline,1
;   retractBetweenLayers,1
;   useRetractionMinTravel,0
;   retractionMinTravel,3
;   retractWhileWiping,0
;   onlyWipeOutlines,1
;   avoidCrossingOutline,0
;   maxMovementDetourFactor,3
;   toolChangeRetractionDistance,12
;   toolChangeExtraRestartDistance,-0.5
;   toolChangeRetractionSpeed,600
;   externalThinWallType,0
;   internalThinWallType,2
;   thinWallAllowedOverlapPercentage,10
;   singleExtrusionMinLength,1
;   singleExtrusionMinPrintingWidthPercentage,50
;   singleExtrusionMaxPrintingWidthPercentage,200
;   singleExtrusionEndpointExtension,0.2
;   horizontalSizeCompensation,0
G90
M82
M106 S0
M140 S60
M190 S60
M104 S200 T0
M109 S200 T0
G28 ; home all axes
G1 Z0.2 F3000 ; get ready to prime
G92 E0 ; reset extrusion distance
G1 X160 E15 F600 ; prime nozzle
G1 X180 F5000 ; quick wipe
; process Process1
; layer 1, Z = 0.360
T0
G92 E0.0000
G1 E-5.0000 F2400
; feature skirt
; tool H0.360 W0.720
G1 Z0.360 F1000
G1 X49.420 Y11.129 F4800
G1 E0.0000 F2400
G92 E0.0000
G1 X52.396 Y8.154 E0.4082 F2500
G1 X131.274 Y8.154 E8.0583
G1 X133.610 Y9.483 E8.3190
G1 X134.678 Y11.279 E8.5216
G1 X135.485 Y12.493 E8.6630
G1 X136.352 Y13.621 E8.8010
G1 X137.295 Y14.690 E8.9393
G1 X138.368 Y15.749 E9.0855
G1 X138.836 Y16.165 E9.1462
G1 X139.982 Y17.083 E9.2886
G1 X141.145 Y17.893 E9.4261
G1 X142.352 Y18.617 E9.5626
G1 X143.594 Y19.252 E9.6978
G1 X144.859 Y19.798 E9.8315
G1 X146.141 Y20.253 E9.9634
G1 X147.437 Y20.621 E10.0941
G1 X148.732 Y20.901 E10.2226
G1 X150.018 Y21.096 E10.3488
G1 X151.251 Y21.206 E10.4688
G1 X152.502 Y21.244 E10.5902
G1 X153.746 Y21.207 E10.7109
G1 X154.304 Y21.167 E10.7651
G1 X155.617 Y21.010 E10.8934
G1 X156.907 Y20.774 E11.0206
G1 X158.203 Y20.451 E11.1501
G1 X159.497 Y20.038 E11.2819
G1 X160.779 Y19.535 E11.4155
G1 X162.037 Y18.943 E11.5503
G1 X163.231 Y18.280 E11.6828
G1 X164.450 Y17.493 E11.8235
G1 X165.591 Y16.641 E11.9616
G1 X166.130 Y16.194 E12.0295
G1 X167.207 Y15.199 E12.1717
G1 X168.187 Y14.162 E12.3101
G1 X169.092 Y13.062 E12.4482
G1 X169.918 Y11.908 E12.5859
G1 X171.441 Y9.441 E12.8671
G1 X173.749 Y8.154 E13.1233
G1 X252.604 Y8.154 E20.7713
G1 X255.580 Y11.129 E21.1794
G1 X255.580 Y168.789 E36.4702
G1 X252.604 Y171.764 E36.8784
G1 X185.299 Y171.764 E43.4061
G1 X182.323 Y168.789 E43.8142
G1 X182.323 Y154.189 E45.2302
G1 X122.677 Y154.189 E51.0152
G1 X122.677 Y166.704 E52.2289
G1 X162.001 Y166.602 E56.0429
G1 X163.743 Y167.257 E56.2234
G1 X211.548 Y209.378 E62.4028
G1 X212.449 Y211.364 E62.6143
G1 X212.552 Y251.546 E66.5114
G1 X211.662 Y253.537 E66.7229
G1 X164.076 Y295.904 E72.9023
G1 X162.337 Y296.568 E73.0828
G1 X52.719 Y296.852 E83.7144
G1 X49.735 Y293.884 E84.1225
G1 X49.415 Y169.869 E96.1503
G1 X49.956 Y169.325 E96.2248
G1 X49.420 Y168.789 E96.2983
G1 X49.420 Y11.129 E111.5891
G92 E0.0000
G1 E-5.0000 F2400
G1 X50.140 Y11.428 F4800
G1 E0.0000 F2400
G92 E0.0000
G1 X52.694 Y8.874 E0.3503 F2500
G1 X131.084 Y8.874 E7.9531
G1 X133.089 Y10.014 E8.1768
G1 X134.069 Y11.663 E8.3628
G1 X134.899 Y12.912 E8.5083
G1 X135.796 Y14.079 E8.6510
G1 X136.772 Y15.185 E8.7941
G1 X137.876 Y16.275 E8.9445
G1 X138.371 Y16.715 E9.0088
G1 X139.550 Y17.660 E9.1554
G1 X140.754 Y18.498 E9.2976
G1 X142.003 Y19.247 E9.4388
G1 X143.287 Y19.904 E9.5787
G1 X144.596 Y20.468 E9.7170
G1 X145.922 Y20.940 E9.8535
G1 X147.262 Y21.320 E9.9886
G1 X148.602 Y21.610 E10.1215
G1 X149.932 Y21.811 E10.2520
G1 X151.208 Y21.925 E10.3762
G1 X152.502 Y21.964 E10.5018
G1 X153.783 Y21.927 E10.6261
G1 X154.373 Y21.884 E10.6834
G1 X155.725 Y21.722 E10.8155
G1 X157.059 Y21.478 E10.9470
G1 X158.400 Y21.144 E11.0810
G1 X159.739 Y20.717 E11.2173
G1 X161.065 Y20.196 E11.3555
G1 X162.365 Y19.584 E11.4949
G1 X163.602 Y18.898 E11.6321
G1 X164.861 Y18.085 E11.7775
G1 X166.037 Y17.207 E11.9198
G1 X166.605 Y16.736 E11.9913
G1 X167.714 Y15.712 E12.1377
G1 X168.727 Y14.638 E12.2809
G1 X169.664 Y13.501 E12.4238
G1 X170.518 Y12.307 E12.5662
G1 X171.955 Y9.978 E12.8316
G1 X173.936 Y8.874 E13.0515
G1 X252.306 Y8.874 E20.6524
G1 X254.860 Y11.428 E21.0027
G1 X254.860 Y168.490 E36.2356
G1 X252.306 Y171.044 E36.5860
G1 X185.597 Y171.044 E43.0558
G1 X183.043 Y168.490 E43.4061
G1 X183.043 Y153.469 E44.8630
G1 X121.957 Y153.469 E50.7876
G1 X121.957 Y167.425 E52.1412
G1 X161.871 Y167.322 E56.0124
G1 X163.366 Y167.885 E56.1673
G1 X210.956 Y209.816 E62.3189
G1 X211.729 Y211.521 E62.5005
G1 X211.832 Y251.393 E66.3675
G1 X211.068 Y253.102 E66.5491
G1 X163.696 Y295.278 E72.7007
G1 X162.203 Y295.849 E72.8556
G1 X53.015 Y296.131 E83.4454
G1 X50.454 Y293.584 E83.7958
G1 X50.135 Y170.165 E95.7657
G1 X50.973 Y169.323 E95.8809
G1 X50.140 Y168.490 E95.9952
G1 X50.140 Y11.428 E111.2281
G92 E0.0000
G1 E-5.0000 F2400
; feature inner perimeter
G1 X56.300 Y15.034 F4800
G1 E0.0000 F2400
G92 E0.0000
G1 X128.911 Y15.034 E7.0423 F1875
G1 X129.352 Y15.722 E7.1216
G1 X129.887 Y16.497 E7.2129
G1 X130.449 Y17.256 E7.3045
G1 X131.038 Y17.997 E7.3963
G1 X131.654 Y18.718 E7.4883
G1 X132.293 Y19.419 E7.5803
G1 X132.930 Y20.070 E7.6686
G1 X133.674 Y20.781 E7.7684
G1 X134.385 Y21.414 E7.8607
G1 X135.145 Y22.043 E7.9564
G1 X135.861 Y22.597 E8.0443
G1 X136.627 Y23.149 E8.1358
G1 X137.409 Y23.674 E8.2271
G1 X138.238 Y24.188 E8.3218
G1 X139.012 Y24.635 E8.4085
G1 X139.832 Y25.072 E8.4986
G1 X140.662 Y25.480 E8.5882
G1 X141.500 Y25.857 E8.6774
G1 X142.344 Y26.205 E8.7659
G1 X143.193 Y26.522 E8.8539
G1 X144.049 Y26.810 E8.9414
G1 X144.946 Y27.080 E9.0323
G1 X145.769 Y27.299 E9.1149
G1 X146.630 Y27.499 E9.2006
G1 X147.490 Y27.671 E9.2856
G1 X148.346 Y27.814 E9.3698
G1 X149.196 Y27.929 E9.4531
G1 X150.041 Y28.017 E9.5354
G1 X150.841 Y28.076 E9.6132
G1 X151.635 Y28.112 E9.6903
G1 X152.499 Y28.126 E9.7741
G1 X153.317 Y28.114 E9.8535
G1 X154.111 Y28.079 E9.9305
G1 X154.950 Y28.018 E10.0121
G1 X155.833 Y27.926 E10.0982
G1 X156.645 Y27.815 E10.1777
G1 X157.500 Y27.673 E10.2618
G1 X158.359 Y27.502 E10.3467
G1 X159.220 Y27.302 E10.4324
G1 X160.081 Y27.072 E10.5189
G1 X160.942 Y26.813 E10.6061
G1 X161.801 Y26.524 E10.6940
G1 X162.657 Y26.204 E10.7826
G1 X163.505 Y25.855 E10.8715
G1 X164.344 Y25.477 E10.9608
G1 X165.174 Y25.069 E11.0505
G1 X165.994 Y24.631 E11.1407
G1 X166.769 Y24.184 E11.2274
G1 X167.598 Y23.669 E11.3221
G1 X168.380 Y23.145 E11.4134
G1 X169.144 Y22.593 E11.5048
G1 X169.861 Y22.038 E11.5927
G1 X170.651 Y21.382 E11.6923
G1 X171.332 Y20.776 E11.7807
G1 X172.046 Y20.095 E11.8765
G1 X172.710 Y19.416 E11.9686
G1 X173.349 Y18.715 E12.0605
G1 X173.963 Y17.994 E12.1524
G1 X174.552 Y17.254 E12.2441
G1 X175.114 Y16.496 E12.3356
G1 X175.649 Y15.720 E12.4271
G1 X176.089 Y15.034 E12.5061
G1 X248.700 Y15.034 E19.5484
G1 X248.700 Y164.884 E34.0819
G1 X196.370 Y164.884 E39.1572
G1 X196.277 Y164.347 E39.2101
G1 X196.907 Y164.122 E39.2750
G1 X197.372 Y163.902 E39.3249
G1 X197.811 Y163.638 E39.3746
G1 X198.224 Y163.332 E39.4244
G1 X198.605 Y162.987 E39.4743
G1 X198.950 Y162.606 E39.5242
G1 X199.256 Y162.193 E39.5740
G1 X199.520 Y161.754 E39.6237
G1 X199.740 Y161.289 E39.6736
G1 X199.913 Y160.804 E39.7235
G1 X200.037 Y160.307 E39.7732
G1 X200.113 Y159.799 E39.8231
G1 X200.138 Y159.285 E39.8729
G1 X200.113 Y158.772 E39.9227
G1 X200.037 Y158.264 E39.9725
G1 X199.913 Y157.766 E40.0223
G1 X199.740 Y157.282 E40.0722
G1 X199.520 Y156.817 E40.1221
G1 X199.256 Y156.377 E40.1718
G1 X198.950 Y155.965 E40.2216
G1 X198.605 Y155.584 E40.2715
G1 X198.224 Y155.238 E40.3214
G1 X197.811 Y154.933 E40.3712
G1 X197.371 Y154.669 E40.4209
G1 X196.907 Y154.449 E40.4708
G1 X196.422 Y154.276 E40.5207
G1 X195.924 Y154.151 E40.5704
G1 X195.417 Y154.076 E40.6202
G1 X194.903 Y154.050 E40.6701
G1 X194.390 Y154.076 E40.7200
G1 X193.882 Y154.151 E40.7697
G1 X193.384 Y154.276 E40.8195
G1 X192.900 Y154.449 E40.8694
G1 X192.435 Y154.669 E40.9193
G1 X191.995 Y154.933 E40.9690
G1 X191.583 Y155.238 E41.0188
G1 X191.202 Y155.584 E41.0687
G1 X190.856 Y155.965 E41.1186
G1 X190.551 Y156.377 E41.1683
G1 X190.287 Y156.817 E41.2181
G1 X190.067 Y157.282 E41.2680
G1 X189.894 Y157.766 E41.3179
G1 X189.772 Y158.253 E41.3665
G1 X189.203 Y158.183 E41.4221
G1 X189.203 Y147.309 E42.4767
G1 X115.797 Y147.309 E49.5962
G1 X115.797 Y158.182 E50.6507
G1 X115.228 Y158.252 E50.7063
G1 X115.106 Y157.766 E50.7549
G1 X114.933 Y157.282 E50.8048
G1 X114.713 Y156.817 E50.8547
G1 X114.449 Y156.377 E50.9044
G1 X114.144 Y155.965 E50.9542
G1 X113.798 Y155.584 E51.0041
G1 X113.417 Y155.238 E51.0540
G1 X113.005 Y154.933 E51.1038
G1 X112.565 Y154.669 E51.1535
G1 X112.100 Y154.449 E51.2034
G1 X111.616 Y154.276 E51.2533
G1 X111.118 Y154.151 E51.3031
G1 X110.610 Y154.076 E51.3528
G1 X110.097 Y154.050 E51.4027
G1 X109.583 Y154.076 E51.4526
G1 X109.076 Y154.151 E51.5023
G1 X108.578 Y154.276 E51.5521
G1 X108.093 Y154.449 E51.6020
G1 X107.628 Y154.669 E51.6519
G1 X107.189 Y154.933 E51.7016
G1 X106.776 Y155.238 E51.7514
G1 X106.395 Y155.584 E51.8013
G1 X106.050 Y155.965 E51.8512
G1 X105.744 Y156.377 E51.9010
G1 X105.480 Y156.817 E51.9507
G1 X105.260 Y157.282 E52.0006
G1 X105.087 Y157.766 E52.0505
G1 X104.962 Y158.264 E52.1002
G1 X104.887 Y158.772 E52.1500
G1 X104.862 Y159.285 E52.1999
G1 X104.887 Y159.798 E52.2497
G1 X104.962 Y160.307 E52.2995
G1 X105.087 Y160.804 E52.3493
G1 X105.260 Y161.289 E52.3992
G1 X105.480 Y161.753 E52.4490
G1 X105.744 Y162.193 E52.4988
G1 X106.050 Y162.606 E52.5486
G1 X106.395 Y162.987 E52.5985
G1 X106.776 Y163.332 E52.6484
G1 X107.189 Y163.638 E52.6981
G1 X107.628 Y163.902 E52.7479
G1 X108.093 Y164.122 E52.7977
G1 X108.723 Y164.347 E52.8627
G1 X108.630 Y164.884 E52.9156
G1 X56.300 Y164.884 E57.9909
G1 X56.300 Y15.034 E72.5244
G92 E0.0000
G1 E-5.0000 F2400
G1 X115.228 Y160.318 F4800
G1 E0.0000 F2400
G92 E0.0000
G1 X115.797 Y160.388 E0.0556 F1875
G1 X115.797 Y164.884 E0.4917
G1 X111.563 Y164.884 E0.9023
G1 X111.470 Y164.347 E0.9552
G1 X112.100 Y164.122 E1.0201
G1 X112.565 Y163.902 E1.0699
G1 X113.005 Y163.638 E1.1197
G1 X113.417 Y163.332 E1.1694
G1 X113.798 Y162.987 E1.2193
G1 X114.143 Y162.606 E1.2692
G1 X114.449 Y162.193 E1.3190
G1 X114.713 Y161.753 E1.3688
G1 X114.933 Y161.289 E1.4186
G1 X115.106 Y160.804 E1.4685
G1 X115.228 Y160.318 E1.5171
G92 E0.0000
G1 E-5.0000 F2400
G1 X189.203 Y160.388 F4800
G1 E0.0000 F2400
G92 E0.0000
G1 X189.772 Y160.318 E0.0556 F1875
G1 X189.894 Y160.804 E0.1042
G1 X190.067 Y161.289 E0.1541
G1 X190.287 Y161.753 E0.2039
G1 X190.551 Y162.193 E0.2537
G1 X190.856 Y162.606 E0.3035
G1 X191.202 Y162.987 E0.3534
G1 X191.583 Y163.332 E0.4032
G1 X191.995 Y163.638 E0.4530
G1 X192.435 Y163.902 E0.5028
G1 X192.900 Y164.122 E0.5526
G1 X193.530 Y164.347 E0.6175
G1 X193.437 Y164.884 E0.6704
