; G-Code generated by Simplify3D(R) Version 4.1.2
; Sep 3, 2021 at 1:14:18 PM
; Settings Summary
;   processName,Process1
;   applyToModels,0109_frontcover
;   profileName,Creality Ender 3 Pro (modified)
;   profileVersion,2019-04-06 08:00:00
;   baseProfile,
;   printMaterial,PLA
;   printQuality,Fast
;   printExtruders,
;   extruderName,Primary Extruder
;   extruderToolheadNumber,0
;   extruderDiameter,0.4
;   extruderAutoWidth,0
;   extruderWidth,0.4
;   extrusionMultiplier,0.9
;   extruderUseRetract,1
;   extruderRetractionDistance,4
;   extruderExtraRestartDistance,0
;   extruderRetractionZLift,0
;   extruderRetractionSpeed,2400
;   extruderUseCoasting,0
;   extruderCoastingDistance,0.2
;   extruderUseWipe,0
;   extruderWipeDistance,5
;   primaryExtruder,0
;   layerHeight,0.3
;   topSolidLayers,3
;   bottomSolidLayers,3
;   perimeterOutlines,2
;   printPerimetersInsideOut,1
;   startPointOption,2
;   startPointOriginX,0
;   startPointOriginY,0
;   sequentialIslands,0
;   spiralVaseMode,0
;   firstLayerHeightPercentage,120
;   firstLayerWidthPercentage,150
;   firstLayerUnderspeed,0.5
;   useRaft,0
;   raftExtruder,0
;   raftTopLayers,3
;   raftBaseLayers,2
;   raftOffset,3
;   raftSeparationDistance,0.14
;   raftTopInfill,100
;   aboveRaftSpeedMultiplier,0.3
;   useSkirt,1
;   skirtExtruder,0
;   skirtLayers,1
;   skirtOutlines,2
;   skirtOffset,4
;   usePrimePillar,0
;   primePillarExtruder,999
;   primePillarWidth,12
;   primePillarLocation,7
;   primePillarSpeedMultiplier,1
;   useOozeShield,0
;   oozeShieldExtruder,999
;   oozeShieldOffset,2
;   oozeShieldOutlines,1
;   oozeShieldSidewallShape,1
;   oozeShieldSidewallAngle,30
;   oozeShieldSpeedMultiplier,1
;   infillExtruder,0
;   internalInfillPattern,Rectilinear
;   externalInfillPattern,Rectilinear
;   infillPercentage,15
;   outlineOverlapPercentage,15
;   infillExtrusionWidthPercentage,100
;   minInfillLength,5
;   infillLayerInterval,1
;   internalInfillAngles,45,-45
;   overlapInternalInfillAngles,0
;   externalInfillAngles,45,-45
;   generateSupport,1
;   supportExtruder,0
;   supportInfillPercentage,25
;   supportExtraInflation,0
;   supportBaseLayers,0
;   denseSupportExtruder,0
;   denseSupportLayers,0
;   denseSupportInfillPercentage,70
;   supportLayerInterval,1
;   supportHorizontalPartOffset,0.3
;   supportUpperSeparationLayers,1
;   supportLowerSeparationLayers,1
;   supportType,0
;   supportGridSpacing,4
;   maxOverhangAngle,45
;   supportAngles,0
;   temperatureName,Primary Extruder,Heated Bed
;   temperatureNumber,0,0
;   temperatureSetpointCount,1,1
;   temperatureSetpointLayers,1,1
;   temperatureSetpointTemperatures,210,60
;   temperatureStabilizeAtStartup,1,1
;   temperatureHeatedBed,0,1
;   fanLayers,1,2
;   fanSpeeds,0,100
;   blipFanToFullPower,0
;   adjustSpeedForCooling,1
;   minSpeedLayerTime,15
;   minCoolingSpeedSlowdown,20
;   increaseFanForCooling,0
;   minFanLayerTime,45
;   maxCoolingFanSpeed,100
;   increaseFanForBridging,0
;   bridgingFanSpeed,100
;   use5D,1
;   relativeEdistances,0
;   allowEaxisZeroing,1
;   independentExtruderAxes,0
;   includeM10123,0
;   stickySupport,1
;   applyToolheadOffsets,0
;   gcodeXoffset,0
;   gcodeYoffset,0
;   gcodeZoffset,0
;   overrideMachineDefinition,1
;   machineTypeOverride,0
;   strokeXoverride,220
;   strokeYoverride,220
;   strokeZoverride,250
;   originOffsetXoverride,-5
;   originOffsetYoverride,-5
;   originOffsetZoverride,0
;   homeXdirOverride,-1
;   homeYdirOverride,-1
;   homeZdirOverride,-1
;   flipXoverride,1
;   flipYoverride,-1
;   flipZoverride,1
;   toolheadOffsets,0,0|0,0|0,0|0,0|0,0|0,0
;   overrideFirmwareConfiguration,1
;   firmwareTypeOverride,RepRap (Marlin/Repetier/Sprinter)
;   GPXconfigOverride,r2
;   baudRateOverride,115200
;   overridePrinterModels,1
;   printerModelsOverride
;   startingGcode,G28 ; home all axes,G1 X5 Y10 Z0.2 F3000 ; get ready to prime,G92 E0 ; reset extrusion distance,G1 X160 E15 F600 ; prime nozzle,G1 X180 F5000 ; quick wipe
;   layerChangeGcode,
;   retractionGcode,
;   toolChangeGcode,
;   endingGcode,G28 X0 ; home X axis,M106 S0 ; turn off cooling fan,M104 S0 ; turn off extruder,M140 S0 ; turn off bed,M84 ; disable motors
;   exportFileFormat,gcode
;   celebration,0
;   celebrationSong,Random Song
;   postProcessing,
;   defaultSpeed,2400
;   outlineUnderspeed,0.5
;   solidInfillUnderspeed,0.8
;   supportUnderspeed,0.8
;   rapidXYspeed,4800
;   rapidZspeed,1000
;   minBridgingArea,50
;   bridgingExtraInflation,0
;   bridgingExtrusionMultiplier,1
;   bridgingSpeedMultiplier,1
;   useFixedBridgingAngle,0
;   fixedBridgingAngle,0
;   applyBridgingToPerimeters,0
;   filamentDiameters,1.75|1.75|1.75|1.75|1.75|1.75
;   filamentPricesPerKg,46|46|46|46|46|46
;   filamentDensities,1.25|1.25|1.25|1.25|1.25|1.25
;   useMinPrintHeight,0
;   minPrintHeight,0
;   useMaxPrintHeight,0
;   maxPrintHeight,0
;   useDiaphragm,0
;   diaphragmLayerInterval,20
;   robustSlicing,1
;   mergeAllIntoSolid,0
;   onlyRetractWhenCrossingOutline,1
;   retractBetweenLayers,1
;   useRetractionMinTravel,0
;   retractionMinTravel,3
;   retractWhileWiping,0
;   onlyWipeOutlines,1
;   avoidCrossingOutline,0
;   maxMovementDetourFactor,3
;   toolChangeRetractionDistance,12
;   toolChangeExtraRestartDistance,-0.5
;   toolChangeRetractionSpeed,600
;   externalThinWallType,0
;   internalThinWallType,2
;   thinWallAllowedOverlapPercentage,10
;   singleExtrusionMinLength,1
;   singleExtrusionMinPrintingWidthPercentage,50
;   singleExtrusionMaxPrintingWidthPercentage,200
;   singleExtrusionEndpointExtension,0.2
;   horizontalSizeCompensation,0
G90
M82
M106 S0
M140 S60
M190 S60
M104 S210 T0
M109 S210 T0
G28 ; home all axes
G1 X5 Y10 Z0.2 F3000 ; get ready to prime
G92 E0 ; reset extrusion distance
G1 X160 E15 F600 ; prime nozzle
G1 X180 F5000 ; quick wipe
; process Process1
; layer 1, Z = 0.360
T0
G92 E0.0000
G1 E-4.0000 F2400
; feature skirt
; tool H0.360 W0.600
G1 Z0.360 F1000
G1 X14.970 Y33.375 F4800
G1 E0.0000 F2400
G92 E0.0000
G1 X93.727 Y33.375 E6.3652 F1200
G1 X95.980 Y34.657 E6.5748
G1 X97.026 Y36.416 E6.7402
G1 X97.839 Y37.638 E6.8588
G1 X98.713 Y38.777 E6.9749
G1 X99.664 Y39.855 E7.0911
G1 X100.745 Y40.922 E7.2138
G1 X101.220 Y41.344 E7.2651
G1 X102.374 Y42.268 E7.3846
G1 X103.548 Y43.085 E7.5002
G1 X104.765 Y43.815 E7.6149
G1 X106.017 Y44.456 E7.7286
G1 X107.294 Y45.006 E7.8410
G1 X108.586 Y45.466 E7.9519
G1 X109.893 Y45.837 E8.0617
G1 X111.199 Y46.119 E8.1697
G1 X112.496 Y46.316 E8.2757
G1 X113.740 Y46.427 E8.3766
G1 X115.002 Y46.465 E8.4786
G1 X116.256 Y46.428 E8.5800
G1 X116.821 Y46.387 E8.6259
G1 X118.144 Y46.229 E8.7335
G1 X119.445 Y45.991 E8.8404
G1 X120.752 Y45.665 E8.9493
G1 X122.057 Y45.249 E9.0600
G1 X123.351 Y44.741 E9.1723
G1 X124.619 Y44.144 E9.2856
G1 X125.824 Y43.476 E9.3970
G1 X127.053 Y42.682 E9.5152
G1 X128.202 Y41.824 E9.6312
G1 X128.749 Y41.370 E9.6886
G1 X129.834 Y40.368 E9.8079
G1 X130.822 Y39.322 E9.9242
G1 X131.735 Y38.213 E10.0403
G1 X132.568 Y37.048 E10.1561
G1 X134.070 Y34.616 E10.3871
G1 X136.295 Y33.375 E10.5931
G1 X215.030 Y33.375 E16.9565
G1 X217.900 Y36.245 E17.2846
G1 X217.900 Y193.755 E30.0149
G1 X215.030 Y196.625 E30.3430
G1 X147.874 Y196.625 E35.7707
G1 X145.003 Y193.755 E36.0988
G1 X145.003 Y179.050 E37.2873
G1 X84.997 Y179.050 E42.1371
G1 X84.997 Y193.755 E43.3257
G1 X82.126 Y196.625 E43.6537
G1 X14.970 Y196.625 E49.0814
G1 X12.100 Y193.755 E49.4095
G1 X12.100 Y36.245 E62.1398
G1 X14.970 Y33.375 E62.4679
G92 E0.0000
G1 E-4.0000 F2400
G1 X15.219 Y33.975 F4800
G1 E0.0000 F2400
G92 E0.0000
G1 X93.568 Y33.975 E6.3323 F1200
G1 X95.545 Y35.100 E6.5162
G1 X96.518 Y36.736 E6.6700
G1 X97.351 Y37.988 E6.7916
G1 X98.250 Y39.158 E6.9109
G1 X99.228 Y40.268 E7.0304
G1 X100.335 Y41.360 E7.1561
G1 X100.832 Y41.802 E7.2099
G1 X102.014 Y42.749 E7.3323
G1 X103.222 Y43.589 E7.4512
G1 X104.474 Y44.340 E7.5692
G1 X105.761 Y44.999 E7.6861
G1 X107.074 Y45.565 E7.8016
G1 X108.404 Y46.038 E7.9157
G1 X109.748 Y46.419 E8.0286
G1 X111.091 Y46.710 E8.1396
G1 X112.425 Y46.911 E8.2487
G1 X113.705 Y47.026 E8.3525
G1 X115.002 Y47.065 E8.4574
G1 X116.286 Y47.028 E8.5613
G1 X116.879 Y46.984 E8.6093
G1 X118.234 Y46.822 E8.7196
G1 X119.571 Y46.578 E8.8295
G1 X120.916 Y46.242 E8.9415
G1 X122.258 Y45.814 E9.0554
G1 X123.588 Y45.292 E9.1708
G1 X124.892 Y44.678 E9.2874
G1 X126.132 Y43.991 E9.4019
G1 X127.396 Y43.175 E9.5235
G1 X128.574 Y42.295 E9.6423
G1 X129.144 Y41.822 E9.7022
G1 X130.256 Y40.795 E9.8245
G1 X131.272 Y39.719 E9.9442
G1 X132.211 Y38.579 E10.0636
G1 X133.068 Y37.381 E10.1826
G1 X134.498 Y35.064 E10.4026
G1 X136.451 Y33.975 E10.5834
G1 X214.781 Y33.975 E16.9142
G1 X217.300 Y36.494 E17.2021
G1 X217.300 Y193.506 E29.8922
G1 X214.781 Y196.025 E30.1801
G1 X148.122 Y196.025 E35.5676
G1 X145.603 Y193.506 E35.8555
G1 X145.603 Y178.450 E37.0724
G1 X84.397 Y178.450 E42.0193
G1 X84.397 Y193.506 E43.2362
G1 X81.878 Y196.025 E43.5241
G1 X15.219 Y196.025 E48.9116
G1 X12.700 Y193.506 E49.1995
G1 X12.700 Y36.494 E61.8896
G1 X15.219 Y33.975 E62.1776
G92 E0.0000
G1 E-4.0000 F2400
; feature inner perimeter
G1 X17.900 Y39.175 F4800
G1 E0.0000 F2400
G92 E0.0000
G1 X91.918 Y39.175 E5.9823 F900
G1 X92.111 Y39.499 E6.0128
G1 X92.601 Y40.264 E6.0863
G1 X93.119 Y41.014 E6.1599
G1 X93.663 Y41.749 E6.2338
G1 X94.233 Y42.466 E6.3078
G1 X94.829 Y43.164 E6.3820
G1 X95.448 Y43.842 E6.4562
G1 X96.063 Y44.471 E6.5273
G1 X96.784 Y45.160 E6.6079
G1 X97.471 Y45.771 E6.6822
G1 X98.207 Y46.381 E6.7595
G1 X98.900 Y46.917 E6.8303
G1 X99.641 Y47.451 E6.9041
G1 X100.397 Y47.958 E6.9777
G1 X101.200 Y48.457 E7.0541
G1 X101.949 Y48.889 E7.1240
G1 X102.742 Y49.312 E7.1966
G1 X103.545 Y49.706 E7.2689
G1 X104.356 Y50.071 E7.3408
G1 X105.173 Y50.408 E7.4122
G1 X105.995 Y50.715 E7.4831
G1 X106.822 Y50.994 E7.5537
G1 X107.691 Y51.255 E7.6270
G1 X108.487 Y51.467 E7.6936
G1 X109.320 Y51.661 E7.7627
G1 X110.152 Y51.827 E7.8313
G1 X110.980 Y51.965 E7.8991
G1 X111.804 Y52.076 E7.9663
G1 X112.621 Y52.162 E8.0327
G1 X113.395 Y52.219 E8.0954
G1 X114.162 Y52.254 E8.1575
G1 X115.000 Y52.267 E8.2252
G1 X115.791 Y52.255 E8.2891
G1 X116.558 Y52.222 E8.3513
G1 X117.370 Y52.162 E8.4171
G1 X118.225 Y52.073 E8.4865
G1 X119.011 Y51.966 E8.5506
G1 X119.838 Y51.828 E8.6184
G1 X120.669 Y51.663 E8.6869
G1 X121.502 Y51.469 E8.7560
G1 X122.336 Y51.247 E8.8257
G1 X123.169 Y50.997 E8.8960
G1 X124.000 Y50.717 E8.9669
G1 X124.828 Y50.407 E9.0383
G1 X125.648 Y50.070 E9.1100
G1 X126.460 Y49.704 E9.1820
G1 X127.264 Y49.309 E9.2544
G1 X128.058 Y48.885 E9.3271
G1 X128.806 Y48.453 E9.3970
G1 X129.610 Y47.954 E9.4734
G1 X130.365 Y47.447 E9.5470
G1 X131.105 Y46.913 E9.6207
G1 X131.798 Y46.377 E9.6915
G1 X132.565 Y45.740 E9.7721
G1 X133.221 Y45.156 E9.8431
G1 X133.913 Y44.495 E9.9204
G1 X134.555 Y43.838 E9.9946
G1 X135.174 Y43.161 E10.0688
G1 X135.769 Y42.463 E10.1429
G1 X136.338 Y41.747 E10.2168
G1 X136.881 Y41.013 E10.2906
G1 X137.400 Y40.262 E10.3644
G1 X137.889 Y39.499 E10.4376
G1 X138.082 Y39.175 E10.4681
G1 X212.100 Y39.175 E16.4505
G1 X212.100 Y190.825 E28.7072
G1 X150.803 Y190.825 E33.6613
G1 X150.803 Y173.250 E35.0818
G1 X79.197 Y173.250 E40.8692
G1 X79.197 Y190.825 E42.2897
G1 X17.900 Y190.825 E47.2439
G1 X17.900 Y39.175 E59.5006
; feature outer perimeter
G1 X17.300 Y38.575 F4800
G92 E0.0000
G1 X92.260 Y38.575 E6.0584 F600
G1 X92.622 Y39.184 E6.1157
G1 X93.101 Y39.932 E6.1875
G1 X93.607 Y40.665 E6.2595
G1 X94.139 Y41.383 E6.3317
G1 X94.697 Y42.084 E6.4041
G1 X95.279 Y42.767 E6.4766
G1 X95.884 Y43.430 E6.5492
G1 X96.485 Y44.044 E6.6186
G1 X97.191 Y44.719 E6.6976
G1 X97.862 Y45.316 E6.7701
G1 X98.582 Y45.913 E6.8457
G1 X99.259 Y46.436 E6.9149
G1 X99.983 Y46.958 E6.9871
G1 X100.723 Y47.454 E7.0590
G1 X101.508 Y47.942 E7.1338
G1 X102.240 Y48.364 E7.2020
G1 X103.016 Y48.778 E7.2731
G1 X103.801 Y49.163 E7.3438
G1 X104.593 Y49.520 E7.4140
G1 X105.392 Y49.849 E7.4838
G1 X106.196 Y50.150 E7.5532
G1 X107.004 Y50.422 E7.6221
G1 X107.855 Y50.678 E7.6939
G1 X108.633 Y50.884 E7.7590
G1 X109.447 Y51.074 E7.8266
G1 X110.260 Y51.236 E7.8936
G1 X111.070 Y51.372 E7.9599
G1 X111.875 Y51.481 E8.0256
G1 X112.674 Y51.564 E8.0905
G1 X113.430 Y51.620 E8.1518
G1 X114.181 Y51.654 E8.2125
G1 X115.000 Y51.667 E8.2787
G1 X115.773 Y51.656 E8.3412
G1 X116.523 Y51.623 E8.4019
G1 X117.317 Y51.564 E8.4663
G1 X118.154 Y51.477 E8.5342
G1 X118.921 Y51.373 E8.5968
G1 X119.730 Y51.238 E8.6631
G1 X120.543 Y51.076 E8.7301
G1 X121.357 Y50.887 E8.7976
G1 X122.172 Y50.670 E8.8658
G1 X122.987 Y50.425 E8.9346
G1 X123.799 Y50.151 E9.0039
G1 X124.608 Y49.849 E9.0737
G1 X125.411 Y49.519 E9.1438
G1 X126.205 Y49.161 E9.2142
G1 X126.990 Y48.775 E9.2849
G1 X127.766 Y48.361 E9.3560
G1 X128.498 Y47.938 E9.4243
G1 X129.284 Y47.450 E9.4991
G1 X130.023 Y46.954 E9.5710
G1 X130.746 Y46.432 E9.6431
G1 X131.423 Y45.909 E9.7122
G1 X132.174 Y45.286 E9.7911
G1 X132.815 Y44.714 E9.8605
G1 X133.492 Y44.068 E9.9361
G1 X134.119 Y43.426 E10.0087
G1 X134.724 Y42.764 E10.0812
G1 X135.305 Y42.082 E10.1536
G1 X135.862 Y41.382 E10.2259
G1 X136.393 Y40.664 E10.2981
G1 X136.900 Y39.930 E10.3702
G1 X137.378 Y39.184 E10.4418
G1 X137.740 Y38.575 E10.4991
G1 X212.700 Y38.575 E16.5575
G1 X212.700 Y191.425 E28.9112
G1 X150.203 Y191.425 E33.9623
G1 X150.203 Y173.850 E35.3828
G1 X79.797 Y173.850 E41.0732
G1 X79.797 Y191.425 E42.4937
G1 X17.300 Y191.425 E47.5448
G1 X17.300 Y38.575 E59.8985
; feature inner perimeter
G1 X20.600 Y60.250 F4800
G92 E0.0000
G1 X20.600 Y167.050 E8.6318 F900
G1 X209.400 Y167.050 E23.8910
G1 X209.400 Y60.250 E32.5228
G1 X20.600 Y60.250 E47.7820
; feature outer perimeter
G1 X21.200 Y60.850 F4800
G92 E0.0000
G1 X21.200 Y166.450 E8.5348 F600
G1 X208.800 Y166.450 E23.6970
G1 X208.800 Y60.850 E32.2319
G1 X21.200 Y60.850 E47.3941
; feature inner perimeter
G1 X68.346 Y49.519 F4800
G92 E0.0000
G1 X68.449 Y49.931 E0.0344 F900
G1 X68.593 Y50.332 E0.0688
G1 X68.775 Y50.717 E0.1031
G1 X68.993 Y51.081 E0.1375
G1 X69.246 Y51.423 E0.1718
G1 X69.532 Y51.738 E0.2062
G1 X69.848 Y52.024 E0.2406
G1 X70.189 Y52.277 E0.2750
G1 X70.553 Y52.495 E0.3093
G1 X70.938 Y52.678 E0.3437
G1 X71.339 Y52.821 E0.3781
G1 X71.751 Y52.924 E0.4125
G1 X72.172 Y52.986 E0.4468
G1 X72.597 Y53.008 E0.4812
G1 X73.022 Y52.986 E0.5156
G1 X73.442 Y52.924 E0.5500
G1 X73.854 Y52.821 E0.5843
G1 X74.255 Y52.678 E0.6187
G1 X74.640 Y52.495 E0.6531
G1 X75.004 Y52.277 E0.6875
G1 X75.346 Y52.024 E0.7218
G1 X75.661 Y51.738 E0.7562
G1 X75.947 Y51.423 E0.7906
G1 X76.200 Y51.081 E0.8250
G1 X76.418 Y50.717 E0.8593
G1 X76.600 Y50.332 E0.8937
G1 X76.744 Y49.932 E0.9281
G1 X76.847 Y49.519 E0.9624
G1 X76.909 Y49.099 E0.9968
G1 X76.930 Y48.674 E1.0312
G1 X76.909 Y48.249 E1.0656
G1 X76.847 Y47.828 E1.0999
G1 X76.744 Y47.416 E1.1343
G1 X76.600 Y47.015 E1.1687
G1 X76.418 Y46.631 E1.2031
G1 X76.200 Y46.266 E1.2374
G1 X75.947 Y45.925 E1.2718
G1 X75.661 Y45.609 E1.3062
G1 X75.346 Y45.323 E1.3406
G1 X75.004 Y45.070 E1.3749
G1 X74.640 Y44.852 E1.4093
G1 X74.255 Y44.670 E1.4437
G1 X73.854 Y44.526 E1.4780
G1 X73.442 Y44.423 E1.5124
G1 X73.022 Y44.361 E1.5468
G1 X72.597 Y44.340 E1.5812
G1 X72.172 Y44.361 E1.6155
G1 X71.751 Y44.423 E1.6499
G1 X71.339 Y44.526 E1.6843
G1 X70.938 Y44.670 E1.7187
G1 X70.553 Y44.852 E1.7531
G1 X70.189 Y45.070 E1.7874
G1 X69.847 Y45.323 E1.8217
G1 X69.532 Y45.609 E1.8561
G1 X69.246 Y45.925 E1.8905
G1 X68.993 Y46.266 E1.9249
G1 X68.775 Y46.631 E1.9592
G1 X68.593 Y47.015 E1.9936
G1 X68.449 Y47.416 E2.0280
G1 X68.346 Y47.828 E2.0624
G1 X68.284 Y48.249 E2.0967
G1 X68.263 Y48.674 E2.1311
G1 X68.284 Y49.099 E2.1655
G1 X68.346 Y49.519 E2.1999
; feature outer perimeter
