; G-Code generated by Simplify3D(R) Version 4.1.2
; Sep 3, 2021 at 1:17:47 PM
; Settings Summary
;   processName,Process1
;   applyToModels,2508-v3-1-backplate
;   profileName,Creality Ender 3 Pro (modified)
;   profileVersion,2019-04-06 08:00:00
;   baseProfile,
;   printMaterial,PLA
;   printQuality,Fast
;   printExtruders,
;   extruderName,Primary Extruder
;   extruderToolheadNumber,0
;   extruderDiameter,0.4
;   extruderAutoWidth,0
;   extruderWidth,0.4
;   extrusionMultiplier,0.9
;   extruderUseRetract,1
;   extruderRetractionDistance,4
;   extruderExtraRestartDistance,0
;   extruderRetractionZLift,0
;   extruderRetractionSpeed,2400
;   extruderUseCoasting,0
;   extruderCoastingDistance,0.2
;   extruderUseWipe,0
;   extruderWipeDistance,5
;   primaryExtruder,0
;   layerHeight,0.3
;   topSolidLayers,3
;   bottomSolidLayers,3
;   perimeterOutlines,2
;   printPerimetersInsideOut,1
;   startPointOption,2
;   startPointOriginX,0
;   startPointOriginY,0
;   sequentialIslands,0
;   spiralVaseMode,0
;   firstLayerHeightPercentage,120
;   firstLayerWidthPercentage,150
;   firstLayerUnderspeed,0.5
;   useRaft,0
;   raftExtruder,0
;   raftTopLayers,3
;   raftBaseLayers,2
;   raftOffset,3
;   raftSeparationDistance,0.14
;   raftTopInfill,100
;   aboveRaftSpeedMultiplier,0.3
;   useSkirt,1
;   skirtExtruder,0
;   skirtLayers,1
;   skirtOutlines,2
;   skirtOffset,4
;   usePrimePillar,0
;   primePillarExtruder,999
;   primePillarWidth,12
;   primePillarLocation,7
;   primePillarSpeedMultiplier,1
;   useOozeShield,0
;   oozeShieldExtruder,999
;   oozeShieldOffset,2
;   oozeShieldOutlines,1
;   oozeShieldSidewallShape,1
;   oozeShieldSidewallAngle,30
;   oozeShieldSpeedMultiplier,1
;   infillExtruder,0
;   internalInfillPattern,Rectilinear
;   externalInfillPattern,Rectilinear
;   infillPercentage,15
;   outlineOverlapPercentage,15
;   infillExtrusionWidthPercentage,100
;   minInfillLength,5
;   infillLayerInterval,1
;   internalInfillAngles,45,-45
;   overlapInternalInfillAngles,0
;   externalInfillAngles,45,-45
;   generateSupport,1
;   supportExtruder,0
;   supportInfillPercentage,25
;   supportExtraInflation,0
;   supportBaseLayers,0
;   denseSupportExtruder,0
;   denseSupportLayers,0
;   denseSupportInfillPercentage,70
;   supportLayerInterval,1
;   supportHorizontalPartOffset,0.3
;   supportUpperSeparationLayers,1
;   supportLowerSeparationLayers,1
;   supportType,0
;   supportGridSpacing,4
;   maxOverhangAngle,45
;   supportAngles,0
;   temperatureName,Primary Extruder,Heated Bed
;   temperatureNumber,0,0
;   temperatureSetpointCount,1,1
;   temperatureSetpointLayers,1,1
;   temperatureSetpointTemperatures,210,60
;   temperatureStabilizeAtStartup,1,1
;   temperatureHeatedBed,0,1
;   fanLayers,1,2
;   fanSpeeds,0,100
;   blipFanToFullPower,0
;   adjustSpeedForCooling,1
;   minSpeedLayerTime,15
;   minCoolingSpeedSlowdown,20
;   increaseFanForCooling,0
;   minFanLayerTime,45
;   maxCoolingFanSpeed,100
;   increaseFanForBridging,0
;   bridgingFanSpeed,100
;   use5D,1
;   relativeEdistances,0
;   allowEaxisZeroing,1
;   independentExtruderAxes,0
;   includeM10123,0
;   stickySupport,1
;   applyToolheadOffsets,0
;   gcodeXoffset,0
;   gcodeYoffset,0
;   gcodeZoffset,0
;   overrideMachineDefinition,1
;   machineTypeOverride,0
;   strokeXoverride,220
;   strokeYoverride,220
;   strokeZoverride,250
;   originOffsetXoverride,-5
;   originOffsetYoverride,-5
;   originOffsetZoverride,0
;   homeXdirOverride,-1
;   homeYdirOverride,-1
;   homeZdirOverride,-1
;   flipXoverride,1
;   flipYoverride,-1
;   flipZoverride,1
;   toolheadOffsets,0,0|0,0|0,0|0,0|0,0|0,0
;   overrideFirmwareConfiguration,1
;   firmwareTypeOverride,RepRap (Marlin/Repetier/Sprinter)
;   GPXconfigOverride,r2
;   baudRateOverride,115200
;   overridePrinterModels,1
;   printerModelsOverride
;   startingGcode,G28 ; home all axes,G1 X5 Y10 Z0.2 F3000 ; get ready to prime,G92 E0 ; reset extrusion distance,G1 X160 E15 F600 ; prime nozzle,G1 X180 F5000 ; quick wipe
;   layerChangeGcode,
;   retractionGcode,
;   toolChangeGcode,
;   endingGcode,G28 X0 ; home X axis,M106 S0 ; turn off cooling fan,M104 S0 ; turn off extruder,M140 S0 ; turn off bed,M84 ; disable motors
;   exportFileFormat,gcode
;   celebration,0
;   celebrationSong,Random Song
;   postProcessing,
;   defaultSpeed,2400
;   outlineUnderspeed,0.5
;   solidInfillUnderspeed,0.8
;   supportUnderspeed,0.8
;   rapidXYspeed,4800
;   rapidZspeed,1000
;   minBridgingArea,50
;   bridgingExtraInflation,0
;   bridgingExtrusionMultiplier,1
;   bridgingSpeedMultiplier,1
;   useFixedBridgingAngle,0
;   fixedBridgingAngle,0
;   applyBridgingToPerimeters,0
;   filamentDiameters,1.75|1.75|1.75|1.75|1.75|1.75
;   filamentPricesPerKg,46|46|46|46|46|46
;   filamentDensities,1.25|1.25|1.25|1.25|1.25|1.25
;   useMinPrintHeight,0
;   minPrintHeight,0
;   useMaxPrintHeight,0
;   maxPrintHeight,0
;   useDiaphragm,0
;   diaphragmLayerInterval,20
;   robustSlicing,1
;   mergeAllIntoSolid,0
;   onlyRetractWhenCrossingOutline,1
;   retractBetweenLayers,1
;   useRetractionMinTravel,0
;   retractionMinTravel,3
;   retractWhileWiping,0
;   onlyWipeOutlines,1
;   avoidCrossingOutline,0
;   maxMovementDetourFactor,3
;   toolChangeRetractionDistance,12
;   toolChangeExtraRestartDistance,-0.5
;   toolChangeRetractionSpeed,600
;   externalThinWallType,0
;   internalThinWallType,2
;   thinWallAllowedOverlapPercentage,10
;   singleExtrusionMinLength,1
;   singleExtrusionMinPrintingWidthPercentage,50
;   singleExtrusionMaxPrintingWidthPercentage,200
;   singleExtrusionEndpointExtension,0.2
;   horizontalSizeCompensation,0
G90
M82
M106 S0
M140 S60
M190 S60
M104 S210 T0
M109 S210 T0
G28 ; home all axes
G1 X5 Y10 Z0.2 F3000 ; get ready to prime
G92 E0 ; reset extrusion distance
G1 X160 E15 F600 ; prime nozzle
G1 X180 F5000 ; quick wipe
; process Process1
; layer 1, Z = 0.360
T0
G92 E0.0000
G1 E-4.0000 F2400
; feature skirt
; tool H0.360 W0.600
G1 Z0.360 F1000
G1 X36.473 Y50.340 F4800
G1 E0.0000 F2400
G92 E0.0000
G1 X145.983 Y50.057 E8.8509 F1200
G1 X147.664 Y50.689 E8.9960
G1 X195.415 Y92.762 E14.1397
G1 X196.284 Y94.678 E14.3098
G1 X196.388 Y134.782 E17.5511
G1 X195.529 Y136.703 E17.7211
G1 X147.996 Y179.022 E22.8648
G1 X146.319 Y179.663 E23.0099
G1 X36.808 Y179.946 E31.8608
G1 X33.930 Y177.083 E32.1889
G1 X33.610 Y53.218 E42.2000
G1 X36.473 Y50.340 E42.5281
G92 E0.0000
G1 E-4.0000 F2400
G1 X36.723 Y50.939 F4800
G1 E0.0000 F2400
G92 E0.0000
G1 X145.875 Y50.657 E8.8219 F1200
G1 X147.350 Y51.212 E8.9493
G1 X194.922 Y93.127 E14.0737
G1 X195.684 Y94.808 E14.2229
G1 X195.787 Y134.655 E17.4434
G1 X195.034 Y136.340 E17.5926
G1 X147.679 Y178.501 E22.7170
G1 X146.207 Y179.063 E22.8443
G1 X37.055 Y179.346 E31.6663
G1 X34.530 Y176.833 E31.9542
G1 X34.211 Y53.465 E41.9251
G1 X36.723 Y50.939 E42.2130
G92 E0.0000
G1 E-4.0000 F2400
; feature inner perimeter
G1 X39.417 Y56.132 F4800
G1 E0.0000 F2400
G92 E0.0000
G1 X144.759 Y55.860 E8.5140 F900
G1 X190.488 Y96.150 E13.4398
G1 X190.584 Y133.340 E16.4455
G1 X145.065 Y173.866 E21.3713
G1 X39.723 Y174.139 E29.8853
G1 X39.417 Y56.132 E39.4228
; feature outer perimeter
G1 X38.816 Y55.534 F4800
G92 E0.0000
G1 X144.985 Y55.259 E8.5809 F600
G1 X191.087 Y95.879 E13.5468
G1 X191.184 Y133.608 E16.5963
G1 X145.294 Y174.466 E21.5622
G1 X39.124 Y174.740 E30.1431
G1 X38.816 Y55.534 E39.7777
G1 X44.577 Y59.261 F4800
G92 E0.0000
G1 X44.418 Y60.112 E0.0699 F600
G1 X44.583 Y60.965 E0.1402
G1 X45.098 Y61.743 E0.2156
G1 X45.879 Y62.251 E0.2909
G1 X46.729 Y62.411 E0.3608
G1 X47.583 Y62.245 E0.4311
G1 X48.360 Y61.730 E0.5064
G1 X48.869 Y60.950 E0.5817
G1 X49.028 Y60.099 E0.6516
G1 X48.863 Y59.246 E0.7219
G1 X48.348 Y58.469 E0.7973
G1 X47.567 Y57.960 E0.8726
G1 X46.717 Y57.800 E0.9425
G1 X45.863 Y57.966 E1.0128
G1 X45.086 Y58.481 E1.0881
G1 X44.577 Y59.261 E1.1634
; feature inner perimeter
G1 X44.010 Y59.034 F4800
G92 E0.0000
G1 X43.807 Y60.114 E0.0888 F900
G1 X44.017 Y61.197 E0.1780
G1 X44.667 Y62.178 E0.2731
G1 X45.651 Y62.819 E0.3680
G1 X46.731 Y63.022 E0.4568
G1 X47.815 Y62.811 E0.5460
G1 X48.795 Y62.162 E0.6411
G1 X49.437 Y61.178 E0.7360
G1 X49.490 Y60.894 E0.7594
G1 X49.979 Y60.939 E0.7991
G1 X50.070 Y95.903 E3.6250
G1 X125.771 Y171.214 E12.2553
G1 X125.677 Y134.758 E15.2018
G1 X49.804 Y59.277 E23.8517
G1 X49.486 Y59.308 E23.8775
G1 X49.429 Y59.014 E23.9017
G1 X48.779 Y58.034 E23.9968
G1 X47.795 Y57.392 E24.0917
G1 X46.715 Y57.189 E24.1805
G1 X45.632 Y57.400 E24.2697
G1 X44.651 Y58.049 E24.3648
G1 X44.010 Y59.034 E24.4598
G92 E0.0000
G1 E-4.0000 F2400
; feature outer perimeter
G1 X50.579 Y60.894 F4800
G1 E0.0000 F2400
G92 E0.0000
G1 X50.669 Y95.653 E2.8093 F600
G1 X125.167 Y169.767 E11.3025
G1 X125.077 Y135.008 E14.1119
G1 X50.579 Y60.894 E22.6051
; feature inner perimeter
G1 X80.734 Y57.635 F4800
G92 E0.0000
G1 X80.792 Y79.938 E1.8026 F900
G1 X125.650 Y124.565 E6.9167
G1 X125.593 Y102.262 E8.7192
G1 X80.734 Y57.635 E13.8333
; feature outer perimeter
G1 X81.338 Y59.082 F4800
G92 E0.0000
G1 X81.391 Y79.688 E1.6654 F600
G1 X125.046 Y123.118 E6.6423
G1 X124.993 Y102.512 E8.3077
G1 X81.338 Y59.082 E13.2847
; feature inner perimeter
G1 X114.295 Y59.931 F4800
G92 E0.0000
G1 X114.505 Y61.015 E0.0892 F900
G1 X115.155 Y61.995 E0.1843
G1 X116.139 Y62.637 E0.2792
G1 X117.219 Y62.840 E0.3680
G1 X118.303 Y62.629 E0.4572
G1 X119.283 Y61.980 E0.5523
G1 X119.925 Y60.995 E0.6472
G1 X120.128 Y59.915 E0.7360
G1 X119.917 Y58.832 E0.8253
G1 X119.267 Y57.852 E0.9203
G1 X118.283 Y57.210 E1.0153
G1 X117.203 Y57.007 E1.1041
G1 X116.120 Y57.218 E1.1933
G1 X115.139 Y57.867 E1.2883
G1 X114.498 Y58.851 E1.3833
G1 X114.295 Y59.931 E1.4721
; feature outer perimeter
G1 X114.906 Y59.929 F4800
G92 E0.0000
G1 X115.072 Y60.783 E0.0703 F600
G1 X115.587 Y61.560 E0.1456
G1 X116.367 Y62.069 E0.2209
G1 X117.217 Y62.229 E0.2909
G1 X118.071 Y62.063 E0.3611
G1 X118.848 Y61.548 E0.4365
G1 X119.357 Y60.768 E0.5118
G1 X119.517 Y59.917 E0.5817
G1 X119.351 Y59.064 E0.6520
G1 X118.836 Y58.286 E0.7274
G1 X118.055 Y57.778 E0.8026
G1 X117.205 Y57.618 E0.8726
G1 X116.352 Y57.784 E0.9428
G1 X115.574 Y58.299 E1.0182
G1 X115.066 Y59.079 E1.0935
G1 X114.906 Y59.929 E1.1634
G92 E0.0000
G1 E-4.0000 F2400
; feature inner perimeter
G1 X147.210 Y59.619 F4800
G1 E0.0000 F2400
G92 E0.0000
G1 X147.288 Y89.421 E2.4087 F900
G1 X180.937 Y89.334 E5.1283
G1 X147.210 Y59.619 E8.7613
; feature outer perimeter
G1 X147.814 Y60.950 F4800
G92 E0.0000
G1 X147.886 Y88.820 E2.2525 F600
G1 X179.353 Y88.739 E4.7957
G1 X147.814 Y60.950 E8.1931
; feature inner perimeter
G1 X147.419 Y140.292 F4800
G92 E0.0000
G1 X147.496 Y170.095 E2.4087 F900
G1 X181.068 Y140.205 E6.0417
G1 X147.419 Y140.292 E8.7613
; feature outer perimeter
G1 X148.021 Y140.891 F4800
G92 E0.0000
G1 X148.093 Y168.760 E2.2525 F600
G1 X179.487 Y140.809 E5.6498
G1 X148.021 Y140.891 E8.1931
G92 E0.0000
G1 E-4.0000 F2400
; feature inner perimeter
G1 X119.552 Y167.873 F4800
G1 E0.0000 F2400
G92 E0.0000
G1 X118.568 Y167.232 E0.0950 F900
G1 X117.488 Y167.029 E0.1838
G1 X116.404 Y167.239 E0.2730
G1 X115.424 Y167.889 E0.3680
G1 X114.782 Y168.873 E0.4630
G1 X114.579 Y169.953 E0.5518
G1 X114.790 Y171.037 E0.6410
G1 X115.440 Y172.017 E0.7361
G1 X116.424 Y172.659 E0.8310
G1 X117.504 Y172.862 E0.9198
G1 X118.587 Y172.651 E1.0090
G1 X119.568 Y172.001 E1.1041
G1 X120.209 Y171.017 E1.1990
G1 X120.412 Y169.937 E1.2879
G1 X120.202 Y168.854 E1.3771
G1 X119.552 Y167.873 E1.4721
; feature outer perimeter
G1 X119.120 Y168.308 F4800
G92 E0.0000
G1 X118.340 Y167.800 E0.0753 F600
G1 X117.490 Y167.640 E0.1452
G1 X116.636 Y167.806 E0.2155
G1 X115.859 Y168.321 E0.2909
G1 X115.350 Y169.101 E0.3662
G1 X115.190 Y169.951 E0.4361
G1 X115.356 Y170.805 E0.5064
G1 X115.871 Y171.582 E0.5817
G1 X116.652 Y172.091 E0.6570
G1 X117.502 Y172.251 E0.7269
G1 X118.355 Y172.085 E0.7972
G1 X119.133 Y171.570 E0.8726
G1 X119.641 Y170.789 E0.9479
G1 X119.801 Y169.939 E1.0178
G1 X119.635 Y169.086 E1.0881
G1 X119.120 Y168.308 E1.1634
G92 E0.0000
G1 E-4.0000 F2400
; feature inner perimeter
G1 X93.076 Y171.955 F4800
G1 E0.0000 F2400
G92 E0.0000
G1 X93.019 Y149.652 E1.8026 F900
G1 X48.160 Y105.025 E6.9167
G1 X48.218 Y127.328 E8.7192
G1 X93.076 Y171.955 E13.8333
; feature outer perimeter
G1 X92.473 Y170.508 F4800
G92 E0.0000
G1 X92.419 Y149.902 E1.6654 F600
G1 X48.764 Y106.472 E6.6423
G1 X48.817 Y127.078 E8.3077
G1 X92.473 Y170.508 E13.2847
; feature inner perimeter
G1 X49.924 Y170.120 F4800
G92 E0.0000
G1 X49.713 Y169.036 E0.0892 F900
G1 X49.064 Y168.056 E0.1843
G1 X48.080 Y167.414 E0.2792
G1 X46.999 Y167.211 E0.3680
G1 X45.916 Y167.422 E0.4572
G1 X44.936 Y168.071 E0.5523
G1 X44.294 Y169.056 E0.6472
G1 X44.091 Y170.136 E0.7361
G1 X44.302 Y171.219 E0.8253
G1 X44.951 Y172.199 E0.9203
G1 X45.935 Y172.841 E1.0153
G1 X47.016 Y173.044 E1.1041
G1 X48.099 Y172.833 E1.1933
G1 X49.079 Y172.184 E1.2883
G1 X49.721 Y171.200 E1.3833
G1 X49.924 Y170.120 E1.4721
; feature outer perimeter
G1 X49.313 Y170.121 F4800
G92 E0.0000
G1 X49.147 Y169.268 E0.0703 F600
G1 X48.632 Y168.491 E0.1456
G1 X47.852 Y167.982 E0.2209
G1 X47.001 Y167.822 E0.2909
G1 X46.148 Y167.988 E0.3611
G1 X45.370 Y168.503 E0.4365
G1 X44.862 Y169.283 E0.5118
G1 X44.702 Y170.134 E0.5817
G1 X44.868 Y170.987 E0.6520
G1 X45.383 Y171.765 E0.7274
G1 X46.163 Y172.273 E0.8027
G1 X47.014 Y172.433 E0.8726
G1 X47.867 Y172.267 E0.9429
G1 X48.645 Y171.752 E1.0182
G1 X49.153 Y170.972 E1.0935
G1 X49.313 Y170.121 E1.1634
G92 E0.0000
G1 E-4.0000 F2400
; feature gap fill
; tool H0.360 W0.400
G1 X49.431 Y60.179 F4800
G1 E0.0000 F2400
G92 E0.0000
G1 X49.753 Y60.501 E0.0245 F1200
G1 X50.168 Y60.539 E0.0470
G1 X50.168 Y60.350 E0.0572
G1 X49.538 Y59.721 E0.1051
; feature solid layer
; tool H0.360 W0.600
G1 X49.416 Y62.144 F4800
G92 E0.0000
G1 X49.472 Y62.200 E0.0065 F960
G1 X49.475 Y63.051 E0.0752
G1 X49.037 Y62.613 E0.1253
G1 X48.526 Y62.951 E0.1748
G1 X49.477 Y63.902 E0.2834
G1 X49.479 Y64.752 E0.3521
G1 X48.016 Y63.290 E0.5193
G1 X48.012 Y63.293 E0.5198
G1 X47.307 Y63.429 E0.5778
G1 X49.481 Y65.603 E0.8262
G1 X49.483 Y66.454 E0.8950
G1 X46.533 Y63.504 E1.2322
G1 X45.488 Y63.307 E1.3181
G1 X49.486 Y67.305 E1.7750
G92 E0.0000
G1 E-4.0000 F2400
G1 X48.134 Y56.620 F4800
G1 E0.0000 F2400
G92 E0.0000
G1 X101.760 Y110.246 E6.1294 F960
G1 X49.610 Y58.364 E12.0748
G1 X49.146 Y57.664 E12.1427
G1 X47.989 Y56.910 E12.2544
G1 X47.480 Y56.814 E12.2962
G1 X47.288 Y56.622 E12.3181
G1 X46.442 Y56.624 E12.3865
G1 X46.525 Y56.707 E12.3960
G1 X45.814 Y56.845 E12.4545
G1 X45.595 Y56.626 E12.4795
G1 X44.749 Y56.629 E12.5479
G1 X45.197 Y57.076 E12.5990
G1 X44.686 Y57.414 E12.6485
G1 X43.903 Y56.631 E12.7381
G1 X43.056 Y56.633 E12.8065
G1 X44.212 Y57.789 E12.9386
G1 X43.877 Y58.302 E12.9882
G1 X42.210 Y56.635 E13.1787
G1 X41.364 Y56.637 E13.2471
G1 X43.543 Y58.816 E13.4962
G1 X43.527 Y58.840 E13.4985
G1 X43.399 Y59.521 E13.5545
G1 X40.517 Y56.639 E13.8839
G1 X39.929 Y56.641 E13.9314
G1 X39.929 Y56.900 E13.9524
G1 X43.322 Y60.293 E14.3401
G1 X43.527 Y61.346 E14.4268
G1 X39.932 Y57.751 E14.8377
G1 X39.934 Y58.602 E14.9065
G1 X49.488 Y68.155 E15.9985
G1 X49.490 Y69.006 E16.0673
G1 X39.936 Y59.452 E17.1593
G1 X39.938 Y60.303 E17.2280
G1 X49.492 Y69.857 E18.3200
G1 X49.494 Y70.708 E18.3888
G1 X39.940 Y61.154 E19.4808
G1 X39.943 Y62.004 E19.5495
G1 X49.497 Y71.558 E20.6415
G1 X49.499 Y72.409 E20.7103
G1 X39.945 Y62.855 E21.8023
G1 X39.947 Y63.706 E21.8711
G1 X49.501 Y73.260 E22.9631
G1 X49.503 Y74.110 E23.0318
G1 X39.949 Y64.557 E24.1238
G1 X39.951 Y65.407 E24.1926
G1 X49.505 Y74.961 E25.2846
G1 X49.508 Y75.812 E25.3533
