; G-Code generated by Simplify3D(R) Version 4.1.2
; Sep 3, 2021 at 1:13:44 PM
; Settings Summary
;   processName,Process1
;   applyToModels,0109_frontcover
;   profileName,Creality Ender 3 Pro (modified)
;   profileVersion,2019-04-06 08:00:00
;   baseProfile,
;   printMaterial,PLA
;   printQuality,Medium
;   printExtruders,
;   extruderName,Primary Extruder
;   extruderToolheadNumber,0
;   extruderDiameter,0.4
;   extruderAutoWidth,0
;   extruderWidth,0.4
;   extrusionMultiplier,0.9
;   extruderUseRetract,1
;   extruderRetractionDistance,4
;   extruderExtraRestartDistance,0
;   extruderRetractionZLift,0
;   extruderRetractionSpeed,2400
;   extruderUseCoasting,0
;   extruderCoastingDistance,0.2
;   extruderUseWipe,0
;   extruderWipeDistance,5
;   primaryExtruder,0
;   layerHeight,0.2
;   topSolidLayers,3
;   bottomSolidLayers,3
;   perimeterOutlines,2
;   printPerimetersInsideOut,1
;   startPointOption,2
;   startPointOriginX,0
;   startPointOriginY,0
;   sequentialIslands,0
;   spiralVaseMode,0
;   firstLayerHeightPercentage,120
;   firstLayerWidthPercentage,150
;   firstLayerUnderspeed,0.5
;   useRaft,0
;   raftExtruder,0
;   raftTopLayers,3
;   raftBaseLayers,2
;   raftOffset,3
;   raftSeparationDistance,0.14
;   raftTopInfill,100
;   aboveRaftSpeedMultiplier,0.3
;   useSkirt,1
;   skirtExtruder,0
;   skirtLayers,1
;   skirtOutlines,2
;   skirtOffset,4
;   usePrimePillar,0
;   primePillarExtruder,999
;   primePillarWidth,12
;   primePillarLocation,7
;   primePillarSpeedMultiplier,1
;   useOozeShield,0
;   oozeShieldExtruder,999
;   oozeShieldOffset,2
;   oozeShieldOutlines,1
;   oozeShieldSidewallShape,1
;   oozeShieldSidewallAngle,30
;   oozeShieldSpeedMultiplier,1
;   infillExtruder,0
;   internalInfillPattern,Rectilinear
;   externalInfillPattern,Rectilinear
;   infillPercentage,15
;   outlineOverlapPercentage,15
;   infillExtrusionWidthPercentage,100
;   minInfillLength,5
;   infillLayerInterval,1
;   internalInfillAngles,45,-45
;   overlapInternalInfillAngles,0
;   externalInfillAngles,45,-45
;   generateSupport,1
;   supportExtruder,0
;   supportInfillPercentage,30
;   supportExtraInflation,0
;   supportBaseLayers,0
;   denseSupportExtruder,0
;   denseSupportLayers,0
;   denseSupportInfillPercentage,70
;   supportLayerInterval,1
;   supportHorizontalPartOffset,0.3
;   supportUpperSeparationLayers,1
;   supportLowerSeparationLayers,1
;   supportType,0
;   supportGridSpacing,4
;   maxOverhangAngle,45
;   supportAngles,0
;   temperatureName,Primary Extruder,Heated Bed
;   temperatureNumber,0,0
;   temperatureSetpointCount,1,1
;   temperatureSetpointLayers,1,1
;   temperatureSetpointTemperatures,210,60
;   temperatureStabilizeAtStartup,1,1
;   temperatureHeatedBed,0,1
;   fanLayers,1,2
;   fanSpeeds,0,100
;   blipFanToFullPower,0
;   adjustSpeedForCooling,1
;   minSpeedLayerTime,15
;   minCoolingSpeedSlowdown,20
;   increaseFanForCooling,0
;   minFanLayerTime,45
;   maxCoolingFanSpeed,100
;   increaseFanForBridging,0
;   bridgingFanSpeed,100
;   use5D,1
;   relativeEdistances,0
;   allowEaxisZeroing,1
;   independentExtruderAxes,0
;   includeM10123,0
;   stickySupport,1
;   applyToolheadOffsets,0
;   gcodeXoffset,0
;   gcodeYoffset,0
;   gcodeZoffset,0
;   overrideMachineDefinition,1
;   machineTypeOverride,0
;   strokeXoverride,220
;   strokeYoverride,220
;   strokeZoverride,250
;   originOffsetXoverride,-5
;   originOffsetYoverride,-5
;   originOffsetZoverride,0
;   homeXdirOverride,-1
;   homeYdirOverride,-1
;   homeZdirOverride,-1
;   flipXoverride,1
;   flipYoverride,-1
;   flipZoverride,1
;   toolheadOffsets,0,0|0,0|0,0|0,0|0,0|0,0
;   overrideFirmwareConfiguration,1
;   firmwareTypeOverride,RepRap (Marlin/Repetier/Sprinter)
;   GPXconfigOverride,r2
;   baudRateOverride,115200
;   overridePrinterModels,1
;   printerModelsOverride
;   startingGcode,G28 ; home all axes,G1 X5 Y10 Z0.2 F3000 ; get ready to prime,G92 E0 ; reset extrusion distance,G1 X160 E15 F600 ; prime nozzle,G1 X180 F5000 ; quick wipe
;   layerChangeGcode,
;   retractionGcode,
;   toolChangeGcode,
;   endingGcode,G28 X0 ; home X axis,M106 S0 ; turn off cooling fan,M104 S0 ; turn off extruder,M140 S0 ; turn off bed,M84 ; disable motors
;   exportFileFormat,gcode
;   celebration,0
;   celebrationSong,Random Song
;   postProcessing,
;   defaultSpeed,2400
;   outlineUnderspeed,0.5
;   solidInfillUnderspeed,0.8
;   supportUnderspeed,0.8
;   rapidXYspeed,4800
;   rapidZspeed,1000
;   minBridgingArea,50
;   bridgingExtraInflation,0
;   bridgingExtrusionMultiplier,1
;   bridgingSpeedMultiplier,1
;   useFixedBridgingAngle,0
;   fixedBridgingAngle,0
;   applyBridgingToPerimeters,0
;   filamentDiameters,1.75|1.75|1.75|1.75|1.75|1.75
;   filamentPricesPerKg,46|46|46|46|46|46
;   filamentDensities,1.25|1.25|1.25|1.25|1.25|1.25
;   useMinPrintHeight,0
;   minPrintHeight,0
;   useMaxPrintHeight,0
;   maxPrintHeight,0
;   useDiaphragm,0
;   diaphragmLayerInterval,20
;   robustSlicing,1
;   mergeAllIntoSolid,0
;   onlyRetractWhenCrossingOutline,1
;   retractBetweenLayers,1
;   useRetractionMinTravel,0
;   retractionMinTravel,3
;   retractWhileWiping,0
;   onlyWipeOutlines,1
;   avoidCrossingOutline,0
;   maxMovementDetourFactor,3
;   toolChangeRetractionDistance,12
;   toolChangeExtraRestartDistance,-0.5
;   toolChangeRetractionSpeed,600
;   externalThinWallType,0
;   internalThinWallType,2
;   thinWallAllowedOverlapPercentage,10
;   singleExtrusionMinLength,1
;   singleExtrusionMinPrintingWidthPercentage,50
;   singleExtrusionMaxPrintingWidthPercentage,200
;   singleExtrusionEndpointExtension,0.2
;   horizontalSizeCompensation,0
G90
M82
M106 S0
M140 S60
M190 S60
M104 S210 T0
M109 S210 T0
G28 ; home all axes
G1 X5 Y10 Z0.2 F3000 ; get ready to prime
G92 E0 ; reset extrusion distance
G1 X160 E15 F600 ; prime nozzle
G1 X180 F5000 ; quick wipe
; process Process1
; layer 1, Z = 0.240
T0
G92 E0.0000
G1 E-4.0000 F2400
; feature skirt
; tool H0.240 W0.600
G1 Z0.240 F1000
G1 X14.970 Y33.375 F4800
G1 E0.0000 F2400
G92 E0.0000
G1 X93.727 Y33.375 E4.2435 F1200
G1 X95.980 Y34.657 E4.3832
G1 X97.026 Y36.416 E4.4935
G1 X97.840 Y37.640 E4.5727
G1 X98.715 Y38.779 E4.6501
G1 X99.668 Y39.858 E4.7276
G1 X100.741 Y40.917 E4.8089
G1 X101.216 Y41.340 E4.8432
G1 X102.371 Y42.266 E4.9229
G1 X103.545 Y43.084 E5.0000
G1 X104.764 Y43.814 E5.0766
G1 X106.017 Y44.456 E5.1524
G1 X107.295 Y45.007 E5.2274
G1 X108.588 Y45.466 E5.3014
G1 X109.893 Y45.837 E5.3745
G1 X111.197 Y46.119 E5.4463
G1 X112.490 Y46.315 E5.5168
G1 X113.768 Y46.429 E5.5859
G1 X115.000 Y46.465 E5.6523
G1 X116.265 Y46.428 E5.7205
G1 X116.828 Y46.386 E5.7510
G1 X118.149 Y46.228 E5.8226
G1 X119.449 Y45.990 E5.8938
G1 X120.754 Y45.665 E5.9663
G1 X122.057 Y45.249 E6.0400
G1 X123.349 Y44.742 E6.1148
G1 X124.617 Y44.145 E6.1903
G1 X125.834 Y43.470 E6.2653
G1 X127.053 Y42.682 E6.3435
G1 X128.214 Y41.814 E6.4216
G1 X128.742 Y41.376 E6.4585
G1 X129.829 Y40.373 E6.5383
G1 X130.819 Y39.326 E6.6159
G1 X131.733 Y38.215 E6.6934
G1 X132.567 Y37.050 E6.7706
G1 X134.070 Y34.616 E6.9247
G1 X136.295 Y33.375 E7.0620
G1 X215.030 Y33.375 E11.3044
G1 X217.900 Y36.245 E11.5231
G1 X217.900 Y193.755 E20.0099
G1 X215.030 Y196.625 E20.2287
G1 X147.874 Y196.625 E23.8471
G1 X145.003 Y193.755 E24.0658
G1 X145.003 Y179.050 E24.8582
G1 X84.997 Y179.050 E28.0914
G1 X84.997 Y193.755 E28.8838
G1 X82.126 Y196.625 E29.1025
G1 X14.970 Y196.625 E32.7209
G1 X12.100 Y193.755 E32.9397
G1 X12.100 Y36.245 E41.4265
G1 X14.970 Y33.375 E41.6452
G92 E0.0000
G1 E-4.0000 F2400
G1 X15.219 Y33.975 F4800
G1 E0.0000 F2400
G92 E0.0000
G1 X93.568 Y33.975 E4.2216 F1200
G1 X95.545 Y35.100 E4.3441
G1 X96.518 Y36.736 E4.4467
G1 X97.352 Y37.989 E4.5278
G1 X98.251 Y39.161 E4.6074
G1 X99.231 Y40.271 E4.6872
G1 X100.330 Y41.355 E4.7704
G1 X100.829 Y41.799 E4.8063
G1 X102.011 Y42.747 E4.8880
G1 X103.219 Y43.588 E4.9673
G1 X104.472 Y44.339 E5.0460
G1 X105.761 Y44.999 E5.1240
G1 X107.075 Y45.566 E5.2011
G1 X108.406 Y46.038 E5.2772
G1 X109.748 Y46.419 E5.3524
G1 X111.089 Y46.709 E5.4263
G1 X112.419 Y46.911 E5.4988
G1 X113.733 Y47.028 E5.5699
G1 X115.000 Y47.065 E5.6382
G1 X116.296 Y47.027 E5.7080
G1 X116.886 Y46.984 E5.7399
G1 X118.239 Y46.822 E5.8134
G1 X119.575 Y46.577 E5.8865
G1 X120.918 Y46.242 E5.9611
G1 X122.258 Y45.814 E6.0369
G1 X123.587 Y45.293 E6.1138
G1 X124.891 Y44.679 E6.1915
G1 X126.142 Y43.985 E6.2686
G1 X127.396 Y43.175 E6.3490
G1 X128.586 Y42.286 E6.4290
G1 X129.137 Y41.828 E6.4677
G1 X130.251 Y40.800 E6.5493
G1 X131.269 Y39.723 E6.6292
G1 X132.210 Y38.581 E6.7089
G1 X133.067 Y37.382 E6.7883
G1 X134.498 Y35.064 E6.9351
G1 X136.451 Y33.975 E7.0556
G1 X214.781 Y33.975 E11.2761
G1 X217.300 Y36.494 E11.4680
G1 X217.300 Y193.506 E19.9281
G1 X214.781 Y196.025 E20.1201
G1 X148.122 Y196.025 E23.7117
G1 X145.603 Y193.506 E23.9037
G1 X145.603 Y178.450 E24.7150
G1 X84.397 Y178.450 E28.0129
G1 X84.397 Y193.506 E28.8241
G1 X81.878 Y196.025 E29.0161
G1 X15.219 Y196.025 E32.6077
G1 X12.700 Y193.506 E32.7997
G1 X12.700 Y36.494 E41.2598
G1 X15.219 Y33.975 E41.4517
G92 E0.0000
G1 E-4.0000 F2400
; feature inner perimeter
G1 X17.900 Y39.175 F4800
G1 E0.0000 F2400
G92 E0.0000
G1 X91.918 Y39.175 E3.9882 F900
G1 X92.112 Y39.500 E4.0086
G1 X92.602 Y40.265 E4.0576
G1 X93.120 Y41.016 E4.1067
G1 X93.665 Y41.751 E4.1560
G1 X94.236 Y42.468 E4.2054
G1 X94.831 Y43.167 E4.2549
G1 X95.451 Y43.846 E4.3044
G1 X96.076 Y44.485 E4.3526
G1 X96.779 Y45.156 E4.4049
G1 X97.466 Y45.767 E4.4545
G1 X98.193 Y46.370 E4.5053
G1 X98.896 Y46.914 E4.5533
G1 X99.637 Y47.449 E4.6025
G1 X100.394 Y47.956 E4.6516
G1 X101.187 Y48.449 E4.7019
G1 X101.948 Y48.888 E4.7492
G1 X102.741 Y49.311 E4.7977
G1 X103.545 Y49.706 E4.8459
G1 X104.356 Y50.072 E4.8939
G1 X105.174 Y50.408 E4.9415
G1 X105.997 Y50.716 E4.9889
G1 X106.824 Y50.994 E5.0359
G1 X107.680 Y51.252 E5.0841
G1 X108.487 Y51.467 E5.1291
G1 X109.319 Y51.660 E5.1751
G1 X110.150 Y51.826 E5.2207
G1 X110.976 Y51.964 E5.2659
G1 X111.798 Y52.076 E5.3106
G1 X112.615 Y52.161 E5.3548
G1 X113.425 Y52.221 E5.3986
G1 X114.204 Y52.255 E5.4406
G1 X115.000 Y52.267 E5.4835
G1 X115.791 Y52.255 E5.5261
G1 X116.569 Y52.221 E5.5681
G1 X117.380 Y52.161 E5.6119
G1 X118.221 Y52.073 E5.6574
G1 X119.018 Y51.965 E5.7008
G1 X119.844 Y51.827 E5.7459
G1 X120.674 Y51.662 E5.7915
G1 X121.506 Y51.468 E5.8375
G1 X122.338 Y51.247 E5.8839
G1 X123.170 Y50.996 E5.9308
G1 X124.000 Y50.717 E5.9780
G1 X124.826 Y50.408 E6.0255
G1 X125.646 Y50.070 E6.0733
G1 X126.459 Y49.704 E6.1213
G1 X127.263 Y49.309 E6.1695
G1 X128.057 Y48.886 E6.2180
G1 X128.817 Y48.447 E6.2653
G1 X129.610 Y47.954 E6.3156
G1 X130.367 Y47.446 E6.3647
G1 X131.107 Y46.912 E6.4139
G1 X131.811 Y46.367 E6.4619
G1 X132.558 Y45.747 E6.5142
G1 X133.224 Y45.153 E6.5623
G1 X133.908 Y44.501 E6.6132
G1 X134.551 Y43.843 E6.6627
G1 X135.170 Y43.165 E6.7122
G1 X135.766 Y42.467 E6.7617
G1 X136.336 Y41.750 E6.8110
G1 X136.880 Y41.015 E6.8603
G1 X137.398 Y40.264 E6.9095
G1 X137.888 Y39.500 E6.9584
G1 X138.082 Y39.175 E6.9788
G1 X212.100 Y39.175 E10.9670
G1 X212.100 Y190.825 E19.1381
G1 X150.803 Y190.825 E22.4409
G1 X150.803 Y173.250 E23.3879
G1 X79.197 Y173.250 E27.2462
G1 X79.197 Y190.825 E28.1932
G1 X17.900 Y190.825 E31.4959
G1 X17.900 Y39.175 E39.6671
; feature outer perimeter
G1 X17.300 Y38.575 F4800
G92 E0.0000
G1 X92.260 Y38.575 E4.0389 F600
G1 X92.622 Y39.185 E4.0772
G1 X93.102 Y39.933 E4.1251
G1 X93.608 Y40.667 E4.1731
G1 X94.141 Y41.385 E4.2213
G1 X94.699 Y42.087 E4.2696
G1 X95.281 Y42.770 E4.3180
G1 X95.887 Y43.434 E4.3664
G1 X96.498 Y44.058 E4.4134
G1 X97.186 Y44.715 E4.4647
G1 X97.857 Y45.312 E4.5131
G1 X98.568 Y45.901 E4.5628
G1 X99.256 Y46.434 E4.6097
G1 X99.980 Y46.956 E4.6578
G1 X100.720 Y47.452 E4.7058
G1 X101.495 Y47.935 E4.7550
G1 X102.239 Y48.363 E4.8013
G1 X103.015 Y48.777 E4.8487
G1 X103.800 Y49.163 E4.8958
G1 X104.594 Y49.521 E4.9427
G1 X105.393 Y49.850 E4.9893
G1 X106.198 Y50.150 E5.0356
G1 X107.006 Y50.423 E5.0815
G1 X107.844 Y50.674 E5.1287
G1 X108.633 Y50.884 E5.1726
G1 X109.446 Y51.074 E5.2176
G1 X110.258 Y51.236 E5.2622
G1 X111.066 Y51.371 E5.3064
G1 X111.870 Y51.480 E5.3501
G1 X112.668 Y51.563 E5.3934
G1 X113.461 Y51.622 E5.4362
G1 X114.222 Y51.655 E5.4772
G1 X115.000 Y51.667 E5.5192
G1 X115.773 Y51.656 E5.5608
G1 X116.534 Y51.622 E5.6018
G1 X117.326 Y51.564 E5.6447
G1 X118.149 Y51.478 E5.6892
G1 X118.928 Y51.372 E5.7316
G1 X119.736 Y51.237 E5.7757
G1 X120.547 Y51.075 E5.8203
G1 X121.360 Y50.886 E5.8653
G1 X122.174 Y50.669 E5.9107
G1 X122.988 Y50.425 E5.9564
G1 X123.799 Y50.151 E6.0026
G1 X124.607 Y49.849 E6.0490
G1 X125.409 Y49.519 E6.0958
G1 X126.203 Y49.161 E6.1427
G1 X126.989 Y48.775 E6.1899
G1 X127.766 Y48.361 E6.2373
G1 X128.509 Y47.932 E6.2836
G1 X129.284 Y47.450 E6.3327
G1 X130.024 Y46.953 E6.3807
G1 X130.748 Y46.431 E6.4288
G1 X131.435 Y45.899 E6.4757
G1 X132.166 Y45.292 E6.5269
G1 X132.818 Y44.712 E6.5739
G1 X133.486 Y44.074 E6.6237
G1 X134.115 Y43.431 E6.6721
G1 X134.720 Y42.768 E6.7205
G1 X135.302 Y42.085 E6.7688
G1 X135.860 Y41.384 E6.8171
G1 X136.392 Y40.666 E6.8652
G1 X136.899 Y39.932 E6.9133
G1 X137.378 Y39.185 E6.9611
G1 X137.740 Y38.575 E6.9994
G1 X212.700 Y38.575 E11.0383
G1 X212.700 Y191.425 E19.2741
G1 X150.203 Y191.425 E22.6415
G1 X150.203 Y173.850 E23.5885
G1 X79.797 Y173.850 E27.3822
G1 X79.797 Y191.425 E28.3292
G1 X17.300 Y191.425 E31.6966
G1 X17.300 Y38.575 E39.9324
; feature inner perimeter
G1 X20.600 Y60.250 F4800
G92 E0.0000
G1 X20.600 Y167.050 E5.7545 F900
G1 X209.400 Y167.050 E15.9273
G1 X209.400 Y60.250 E21.6819
G1 X20.600 Y60.250 E31.8547
; feature outer perimeter
G1 X21.200 Y60.850 F4800
G92 E0.0000
G1 X21.200 Y166.450 E5.6899 F600
G1 X208.800 Y166.450 E15.7980
G1 X208.800 Y60.850 E21.4879
G1 X21.200 Y60.850 E31.5961
; feature inner perimeter
G1 X68.246 Y49.539 F4800
G92 E0.0000
G1 X68.351 Y49.961 E0.0234 F900
G1 X68.498 Y50.371 E0.0469
G1 X68.684 Y50.765 E0.0704
G1 X68.908 Y51.138 E0.0938
G1 X69.167 Y51.488 E0.1173
G1 X69.459 Y51.811 E0.1407
G1 X69.782 Y52.103 E0.1642
G1 X70.132 Y52.362 E0.1877
G1 X70.505 Y52.586 E0.2111
G1 X70.899 Y52.772 E0.2346
G1 X71.309 Y52.919 E0.2581
G1 X71.731 Y53.025 E0.2815
G1 X72.161 Y53.089 E0.3049
G1 X72.597 Y53.110 E0.3284
G1 X73.032 Y53.089 E0.3519
G1 X73.462 Y53.025 E0.3753
G1 X73.884 Y52.919 E0.3988
G1 X74.294 Y52.772 E0.4223
G1 X74.688 Y52.586 E0.4457
G1 X75.061 Y52.362 E0.4692
G1 X75.411 Y52.103 E0.4926
G1 X75.734 Y51.811 E0.5161
G1 X76.026 Y51.488 E0.5395
G1 X76.285 Y51.138 E0.5630
G1 X76.509 Y50.765 E0.5864
G1 X76.695 Y50.371 E0.6099
G1 X76.842 Y49.961 E0.6334
G1 X76.948 Y49.539 E0.6568
G1 X77.012 Y49.109 E0.6803
G1 X77.033 Y48.674 E0.7037
G1 X77.012 Y48.239 E0.7272
G1 X76.948 Y47.808 E0.7506
G1 X76.842 Y47.386 E0.7741
G1 X76.695 Y46.976 E0.7976
G1 X76.509 Y46.582 E0.8210
G1 X76.285 Y46.209 E0.8445
G1 X76.026 Y45.860 E0.8679
G1 X75.734 Y45.537 E0.8914
G1 X75.411 Y45.244 E0.9149
G1 X75.061 Y44.985 E0.9383
G1 X74.688 Y44.761 E0.9618
G1 X74.294 Y44.575 E0.9852
G1 X73.884 Y44.428 E1.0087
G1 X73.462 Y44.323 E1.0322
G1 X73.032 Y44.259 E1.0556
G1 X72.597 Y44.237 E1.0791
G1 X72.162 Y44.259 E1.1025
G1 X71.731 Y44.323 E1.1260
G1 X71.309 Y44.428 E1.1494
G1 X70.899 Y44.575 E1.1729
G1 X70.505 Y44.761 E1.1964
G1 X70.132 Y44.985 E1.2198
G1 X69.782 Y45.244 E1.2433
G1 X69.459 Y45.537 E1.2667
G1 X69.167 Y45.860 E1.2902
G1 X68.908 Y46.209 E1.3137
G1 X68.684 Y46.582 E1.3371
G1 X68.498 Y46.976 E1.3606
G1 X68.351 Y47.386 E1.3840
G1 X68.246 Y47.808 E1.4075
G1 X68.182 Y48.239 E1.4309
G1 X68.160 Y48.674 E1.4544
G1 X68.182 Y49.109 E1.4779
G1 X68.246 Y49.539 E1.5013
; feature outer perimeter
G1 X68.835 Y49.422 F4800
