; G-Code generated by Simplify3D(R) Version 4.1.2
; Sep 3, 2021 at 1:17:17 PM
; Settings Summary
;   processName,Process1
;   applyToModels,2508-v3-1-backplate
;   profileName,Creality Ender 3 Pro (modified)
;   profileVersion,2019-04-06 08:00:00
;   baseProfile,
;   printMaterial,PLA
;   printQuality,Medium
;   printExtruders,
;   extruderName,Primary Extruder
;   extruderToolheadNumber,0
;   extruderDiameter,0.4
;   extruderAutoWidth,0
;   extruderWidth,0.4
;   extrusionMultiplier,0.9
;   extruderUseRetract,1
;   extruderRetractionDistance,4
;   extruderExtraRestartDistance,0
;   extruderRetractionZLift,0
;   extruderRetractionSpeed,2400
;   extruderUseCoasting,0
;   extruderCoastingDistance,0.2
;   extruderUseWipe,0
;   extruderWipeDistance,5
;   primaryExtruder,0
;   layerHeight,0.2
;   topSolidLayers,3
;   bottomSolidLayers,3
;   perimeterOutlines,2
;   printPerimetersInsideOut,1
;   startPointOption,2
;   startPointOriginX,0
;   startPointOriginY,0
;   sequentialIslands,0
;   spiralVaseMode,0
;   firstLayerHeightPercentage,120
;   firstLayerWidthPercentage,150
;   firstLayerUnderspeed,0.5
;   useRaft,0
;   raftExtruder,0
;   raftTopLayers,3
;   raftBaseLayers,2
;   raftOffset,3
;   raftSeparationDistance,0.14
;   raftTopInfill,100
;   aboveRaftSpeedMultiplier,0.3
;   useSkirt,1
;   skirtExtruder,0
;   skirtLayers,1
;   skirtOutlines,2
;   skirtOffset,4
;   usePrimePillar,0
;   primePillarExtruder,999
;   primePillarWidth,12
;   primePillarLocation,7
;   primePillarSpeedMultiplier,1
;   useOozeShield,0
;   oozeShieldExtruder,999
;   oozeShieldOffset,2
;   oozeShieldOutlines,1
;   oozeShieldSidewallShape,1
;   oozeShieldSidewallAngle,30
;   oozeShieldSpeedMultiplier,1
;   infillExtruder,0
;   internalInfillPattern,Rectilinear
;   externalInfillPattern,Rectilinear
;   infillPercentage,15
;   outlineOverlapPercentage,15
;   infillExtrusionWidthPercentage,100
;   minInfillLength,5
;   infillLayerInterval,1
;   internalInfillAngles,45,-45
;   overlapInternalInfillAngles,0
;   externalInfillAngles,45,-45
;   generateSupport,1
;   supportExtruder,0
;   supportInfillPercentage,30
;   supportExtraInflation,0
;   supportBaseLayers,0
;   denseSupportExtruder,0
;   denseSupportLayers,0
;   denseSupportInfillPercentage,70
;   supportLayerInterval,1
;   supportHorizontalPartOffset,0.3
;   supportUpperSeparationLayers,1
;   supportLowerSeparationLayers,1
;   supportType,0
;   supportGridSpacing,4
;   maxOverhangAngle,45
;   supportAngles,0
;   temperatureName,Primary Extruder,Heated Bed
;   temperatureNumber,0,0
;   temperatureSetpointCount,1,1
;   temperatureSetpointLayers,1,1
;   temperatureSetpointTemperatures,210,60
;   temperatureStabilizeAtStartup,1,1
;   temperatureHeatedBed,0,1
;   fanLayers,1,2
;   fanSpeeds,0,100
;   blipFanToFullPower,0
;   adjustSpeedForCooling,1
;   minSpeedLayerTime,15
;   minCoolingSpeedSlowdown,20
;   increaseFanForCooling,0
;   minFanLayerTime,45
;   maxCoolingFanSpeed,100
;   increaseFanForBridging,0
;   bridgingFanSpeed,100
;   use5D,1
;   relativeEdistances,0
;   allowEaxisZeroing,1
;   independentExtruderAxes,0
;   includeM10123,0
;   stickySupport,1
;   applyToolheadOffsets,0
;   gcodeXoffset,0
;   gcodeYoffset,0
;   gcodeZoffset,0
;   overrideMachineDefinition,1
;   machineTypeOverride,0
;   strokeXoverride,220
;   strokeYoverride,220
;   strokeZoverride,250
;   originOffsetXoverride,-5
;   originOffsetYoverride,-5
;   originOffsetZoverride,0
;   homeXdirOverride,-1
;   homeYdirOverride,-1
;   homeZdirOverride,-1
;   flipXoverride,1
;   flipYoverride,-1
;   flipZoverride,1
;   toolheadOffsets,0,0|0,0|0,0|0,0|0,0|0,0
;   overrideFirmwareConfiguration,1
;   firmwareTypeOverride,RepRap (Marlin/Repetier/Sprinter)
;   GPXconfigOverride,r2
;   baudRateOverride,115200
;   overridePrinterModels,1
;   printerModelsOverride
;   startingGcode,G28 ; home all axes,G1 X5 Y10 Z0.2 F3000 ; get ready to prime,G92 E0 ; reset extrusion distance,G1 X160 E15 F600 ; prime nozzle,G1 X180 F5000 ; quick wipe
;   layerChangeGcode,
;   retractionGcode,
;   toolChangeGcode,
;   endingGcode,G28 X0 ; home X axis,M106 S0 ; turn off cooling fan,M104 S0 ; turn off extruder,M140 S0 ; turn off bed,M84 ; disable motors
;   exportFileFormat,gcode
;   celebration,0
;   celebrationSong,Random Song
;   postProcessing,
;   defaultSpeed,2400
;   outlineUnderspeed,0.5
;   solidInfillUnderspeed,0.8
;   supportUnderspeed,0.8
;   rapidXYspeed,4800
;   rapidZspeed,1000
;   minBridgingArea,50
;   bridgingExtraInflation,0
;   bridgingExtrusionMultiplier,1
;   bridgingSpeedMultiplier,1
;   useFixedBridgingAngle,0
;   fixedBridgingAngle,0
;   applyBridgingToPerimeters,0
;   filamentDiameters,1.75|1.75|1.75|1.75|1.75|1.75
;   filamentPricesPerKg,46|46|46|46|46|46
;   filamentDensities,1.25|1.25|1.25|1.25|1.25|1.25
;   useMinPrintHeight,0
;   minPrintHeight,0
;   useMaxPrintHeight,0
;   maxPrintHeight,0
;   useDiaphragm,0
;   diaphragmLayerInterval,20
;   robustSlicing,1
;   mergeAllIntoSolid,0
;   onlyRetractWhenCrossingOutline,1
;   retractBetweenLayers,1
;   useRetractionMinTravel,0
;   retractionMinTravel,3
;   retractWhileWiping,0
;   onlyWipeOutlines,1
;   avoidCrossingOutline,0
;   maxMovementDetourFactor,3
;   toolChangeRetractionDistance,12
;   toolChangeExtraRestartDistance,-0.5
;   toolChangeRetractionSpeed,600
;   externalThinWallType,0
;   internalThinWallType,2
;   thinWallAllowedOverlapPercentage,10
;   singleExtrusionMinLength,1
;   singleExtrusionMinPrintingWidthPercentage,50
;   singleExtrusionMaxPrintingWidthPercentage,200
;   singleExtrusionEndpointExtension,0.2
;   horizontalSizeCompensation,0
G90
M82
M106 S0
M140 S60
M190 S60
M104 S210 T0
M109 S210 T0
G28 ; home all axes
G1 X5 Y10 Z0.2 F3000 ; get ready to prime
G92 E0 ; reset extrusion distance
G1 X160 E15 F600 ; prime nozzle
G1 X180 F5000 ; quick wipe
; process Process1
; layer 1, Z = 0.240
T0
G92 E0.0000
G1 E-4.0000 F2400
; feature skirt
; tool H0.240 W0.600
G1 Z0.240 F1000
G1 X36.473 Y50.340 F4800
G1 E0.0000 F2400
G92 E0.0000
G1 X145.983 Y50.057 E5.9006 F1200
G1 X147.664 Y50.689 E5.9974
G1 X195.415 Y92.762 E9.4265
G1 X196.284 Y94.678 E9.5398
G1 X196.388 Y134.782 E11.7007
G1 X195.529 Y136.703 E11.8141
G1 X147.996 Y179.022 E15.2432
G1 X146.319 Y179.663 E15.3399
G1 X36.808 Y179.946 E21.2405
G1 X33.930 Y177.083 E21.4593
G1 X33.610 Y53.218 E28.1333
G1 X36.473 Y50.340 E28.3521
G92 E0.0000
G1 E-4.0000 F2400
G1 X36.723 Y50.939 F4800
G1 E0.0000 F2400
G92 E0.0000
G1 X145.875 Y50.657 E5.8813 F1200
G1 X147.350 Y51.212 E5.9662
G1 X194.922 Y93.127 E9.3824
G1 X195.684 Y94.808 E9.4819
G1 X195.787 Y134.655 E11.6289
G1 X195.034 Y136.340 E11.7284
G1 X147.679 Y178.501 E15.1447
G1 X146.207 Y179.063 E15.2296
G1 X37.055 Y179.346 E21.1108
G1 X34.530 Y176.833 E21.3028
G1 X34.211 Y53.465 E27.9501
G1 X36.723 Y50.939 E28.1420
G92 E0.0000
G1 E-4.0000 F2400
; feature inner perimeter
G1 X39.417 Y56.132 F4800
G1 E0.0000 F2400
G92 E0.0000
G1 X144.759 Y55.860 E5.6760 F900
G1 X190.488 Y96.150 E8.9598
G1 X190.584 Y133.340 E10.9637
G1 X145.065 Y173.866 E14.2475
G1 X39.723 Y174.139 E19.9235
G1 X39.417 Y56.132 E26.2819
; feature outer perimeter
G1 X38.816 Y55.534 F4800
G92 E0.0000
G1 X144.985 Y55.259 E5.7206 F600
G1 X191.087 Y95.879 E9.0312
G1 X191.184 Y133.608 E11.0642
G1 X145.294 Y174.466 E14.3748
G1 X39.124 Y174.740 E20.0954
G1 X38.816 Y55.534 E26.5184
G1 X44.577 Y59.261 F4800
G92 E0.0000
G1 X44.418 Y60.112 E0.0466 F600
G1 X44.583 Y60.964 E0.0934
G1 X45.098 Y61.742 E0.1437
G1 X45.878 Y62.251 E0.1939
G1 X46.729 Y62.411 E0.2405
G1 X47.582 Y62.246 E0.2873
G1 X48.359 Y61.731 E0.3376
G1 X48.869 Y60.950 E0.3878
G1 X49.028 Y60.100 E0.4344
G1 X48.863 Y59.247 E0.4812
G1 X48.348 Y58.469 E0.5315
G1 X47.568 Y57.960 E0.5817
G1 X46.717 Y57.800 E0.6284
G1 X45.864 Y57.966 E0.6751
G1 X45.087 Y58.480 E0.7254
G1 X44.577 Y59.261 E0.7756
; feature inner perimeter
G1 X44.010 Y59.033 F4800
G92 E0.0000
G1 X43.807 Y60.114 E0.0592 F900
G1 X44.017 Y61.196 E0.1186
G1 X44.666 Y62.177 E0.1820
G1 X45.650 Y62.819 E0.2453
G1 X46.731 Y63.022 E0.3046
G1 X47.813 Y62.812 E0.3640
G1 X48.794 Y62.163 E0.4274
G1 X49.436 Y61.178 E0.4907
G1 X49.490 Y60.894 E0.5063
G1 X49.979 Y60.939 E0.5328
G1 X50.070 Y95.903 E2.4167
G1 X125.771 Y171.214 E8.1703
G1 X125.677 Y134.758 E10.1346
G1 X49.803 Y59.276 E15.9013
G1 X49.486 Y59.307 E15.9185
G1 X49.429 Y59.015 E15.9345
G1 X48.780 Y58.035 E15.9978
G1 X47.796 Y57.392 E16.0612
G1 X46.715 Y57.189 E16.1204
G1 X45.633 Y57.399 E16.1798
G1 X44.652 Y58.049 E16.2432
G1 X44.010 Y59.033 E16.3065
G92 E0.0000
G1 E-4.0000 F2400
; feature outer perimeter
G1 X50.579 Y60.894 F4800
G1 E0.0000 F2400
G92 E0.0000
G1 X50.669 Y95.653 E1.8729 F600
G1 X125.167 Y169.767 E7.5350
G1 X125.077 Y135.008 E9.4079
G1 X50.579 Y60.894 E15.0701
; feature inner perimeter
G1 X80.734 Y57.635 F4800
G92 E0.0000
G1 X80.792 Y79.938 E1.2017 F900
G1 X125.650 Y124.565 E4.6111
G1 X125.593 Y102.262 E5.8128
G1 X80.734 Y57.635 E9.2222
; feature outer perimeter
G1 X81.338 Y59.082 F4800
G92 E0.0000
G1 X81.391 Y79.688 E1.1103 F600
G1 X125.046 Y123.118 E4.4282
G1 X124.993 Y102.512 E5.5385
G1 X81.338 Y59.082 E8.8564
; feature inner perimeter
G1 X114.295 Y59.931 F4800
G92 E0.0000
G1 X114.505 Y61.014 E0.0594 F900
G1 X115.154 Y61.994 E0.1228
G1 X116.139 Y62.637 E0.1861
G1 X117.219 Y62.840 E0.2453
G1 X118.301 Y62.630 E0.3048
G1 X119.282 Y61.980 E0.3681
G1 X119.925 Y60.996 E0.4315
G1 X120.127 Y59.915 E0.4907
G1 X119.918 Y58.833 E0.5501
G1 X119.268 Y57.852 E0.6135
G1 X118.284 Y57.210 E0.6768
G1 X117.203 Y57.007 E0.7361
G1 X116.121 Y57.217 E0.7955
G1 X115.140 Y57.866 E0.8588
G1 X114.498 Y58.851 E0.9222
G1 X114.295 Y59.931 E0.9814
; feature outer perimeter
G1 X114.906 Y59.929 F4800
G92 E0.0000
G1 X115.071 Y60.782 E0.0468 F600
G1 X115.586 Y61.560 E0.0970
G1 X116.367 Y62.069 E0.1473
G1 X117.217 Y62.229 E0.1939
G1 X118.070 Y62.063 E0.2407
G1 X118.848 Y61.549 E0.2910
G1 X119.357 Y60.768 E0.3412
G1 X119.517 Y59.917 E0.3878
G1 X119.351 Y59.065 E0.4346
G1 X118.837 Y58.287 E0.4849
G1 X118.056 Y57.778 E0.5351
G1 X117.205 Y57.618 E0.5817
G1 X116.353 Y57.783 E0.6285
G1 X115.575 Y58.298 E0.6788
G1 X115.066 Y59.079 E0.7290
G1 X114.906 Y59.929 E0.7756
G92 E0.0000
G1 E-4.0000 F2400
; feature inner perimeter
G1 X147.210 Y59.619 F4800
G1 E0.0000 F2400
G92 E0.0000
G1 X147.288 Y89.421 E1.6058 F900
G1 X180.937 Y89.334 E3.4189
G1 X147.210 Y59.619 E5.8409
; feature outer perimeter
G1 X147.814 Y60.950 F4800
G92 E0.0000
G1 X147.886 Y88.820 E1.5017 F600
G1 X179.353 Y88.739 E3.1972
G1 X147.814 Y60.950 E5.4620
; feature inner perimeter
G1 X147.419 Y140.292 F4800
G92 E0.0000
G1 X147.496 Y170.095 E1.6058 F900
G1 X181.068 Y140.205 E4.0278
G1 X147.419 Y140.292 E5.8409
; feature outer perimeter
G1 X148.021 Y140.891 F4800
G92 E0.0000
G1 X148.093 Y168.760 E1.5017 F600
G1 X179.487 Y140.809 E3.7666
G1 X148.021 Y140.891 E5.4620
G92 E0.0000
G1 E-4.0000 F2400
; feature inner perimeter
G1 X119.553 Y167.874 F4800
G1 E0.0000 F2400
G92 E0.0000
G1 X118.568 Y167.232 E0.0633 F900
G1 X117.488 Y167.029 E0.1226
G1 X116.406 Y167.239 E0.1820
G1 X115.425 Y167.888 E0.2454
G1 X114.782 Y168.873 E0.3087
G1 X114.579 Y169.953 E0.3679
G1 X114.789 Y171.036 E0.4273
G1 X115.439 Y172.016 E0.4907
G1 X116.423 Y172.659 E0.5540
G1 X117.504 Y172.862 E0.6133
G1 X118.586 Y172.652 E0.6727
G1 X119.567 Y172.002 E0.7361
G1 X120.209 Y171.018 E0.7994
G1 X120.412 Y169.937 E0.8586
G1 X120.202 Y168.855 E0.9180
G1 X119.553 Y167.874 E0.9814
; feature outer perimeter
G1 X119.121 Y168.309 F4800
G92 E0.0000
G1 X118.340 Y167.800 E0.0502 F600
G1 X117.490 Y167.640 E0.0969
G1 X116.637 Y167.805 E0.1437
G1 X115.859 Y168.320 E0.1939
G1 X115.350 Y169.101 E0.2441
G1 X115.190 Y169.951 E0.2908
G1 X115.356 Y170.804 E0.3376
G1 X115.870 Y171.582 E0.3878
G1 X116.651 Y172.091 E0.4380
G1 X117.502 Y172.251 E0.4847
G1 X118.354 Y172.085 E0.5315
G1 X119.132 Y171.571 E0.5817
G1 X119.641 Y170.790 E0.6319
G1 X119.801 Y169.939 E0.6786
G1 X119.636 Y169.087 E0.7254
G1 X119.121 Y168.309 E0.7756
G92 E0.0000
G1 E-4.0000 F2400
; feature inner perimeter
G1 X93.076 Y171.955 F4800
G1 E0.0000 F2400
G92 E0.0000
G1 X93.019 Y149.652 E1.2017 F900
G1 X48.160 Y105.025 E4.6111
G1 X48.218 Y127.328 E5.8128
G1 X93.076 Y171.955 E9.2222
; feature outer perimeter
G1 X92.473 Y170.508 F4800
G92 E0.0000
G1 X92.419 Y149.902 E1.1103 F600
G1 X48.764 Y106.472 E4.4282
G1 X48.817 Y127.078 E5.5385
G1 X92.473 Y170.508 E8.8565
; feature inner perimeter
G1 X49.924 Y170.120 F4800
G92 E0.0000
G1 X49.714 Y169.037 E0.0594 F900
G1 X49.065 Y168.057 E0.1228
G1 X48.080 Y167.414 E0.1861
G1 X47.000 Y167.211 E0.2454
G1 X45.917 Y167.421 E0.3048
G1 X44.936 Y168.071 E0.3681
G1 X44.294 Y169.055 E0.4315
G1 X44.091 Y170.135 E0.4907
G1 X44.301 Y171.218 E0.5501
G1 X44.950 Y172.199 E0.6135
G1 X45.935 Y172.841 E0.6768
G1 X47.015 Y173.044 E0.7361
G1 X48.098 Y172.834 E0.7955
G1 X49.079 Y172.185 E0.8588
G1 X49.721 Y171.200 E0.9222
G1 X49.924 Y170.120 E0.9814
; feature outer perimeter
G1 X49.313 Y170.121 F4800
G92 E0.0000
G1 X49.148 Y169.269 E0.0468 F600
G1 X48.633 Y168.491 E0.0970
G1 X47.852 Y167.982 E0.1473
G1 X47.001 Y167.822 E0.1939
G1 X46.149 Y167.988 E0.2407
G1 X45.371 Y168.502 E0.2910
G1 X44.862 Y169.283 E0.3412
G1 X44.702 Y170.134 E0.3878
G1 X44.867 Y170.986 E0.4346
G1 X45.382 Y171.764 E0.4849
G1 X46.163 Y172.273 E0.5351
G1 X47.014 Y172.433 E0.5817
G1 X47.866 Y172.268 E0.6285
G1 X48.644 Y171.753 E0.6788
G1 X49.153 Y170.972 E0.7290
G1 X49.313 Y170.121 E0.7756
G92 E0.0000
G1 E-4.0000 F2400
; feature gap fill
; tool H0.240 W0.400
G1 X49.431 Y60.179 F4800
G1 E0.0000 F2400
G92 E0.0000
G1 X49.752 Y60.500 E0.0163 F1200
G1 X50.168 Y60.538 E0.0313
G1 X50.168 Y60.350 E0.0381
G1 X49.537 Y59.720 E0.0701
; feature solid layer
; tool H0.240 W0.600
G1 X49.416 Y62.143 F4800
G92 E0.0000
G1 X49.472 Y62.200 E0.0043 F960
G1 X49.475 Y63.051 E0.0502
G1 X49.037 Y62.613 E0.0835
G1 X48.526 Y62.951 E0.1165
G1 X49.477 Y63.902 E0.1889
G1 X49.479 Y64.752 E0.2348
G1 X48.016 Y63.289 E0.3462
G1 X48.010 Y63.293 E0.3466
G1 X47.307 Y63.430 E0.3852
G1 X49.481 Y65.603 E0.5508
G1 X49.483 Y66.454 E0.5966
G1 X46.533 Y63.504 E0.8215
G1 X45.488 Y63.307 E0.8787
G1 X49.486 Y67.305 E1.1833
G92 E0.0000
G1 E-4.0000 F2400
G1 X48.134 Y56.620 F4800
G1 E0.0000 F2400
G92 E0.0000
G1 X101.761 Y110.247 E4.0864 F960
G1 X49.610 Y58.364 E8.0501
G1 X49.147 Y57.665 E8.0952
G1 X47.989 Y56.910 E8.1697
G1 X47.480 Y56.814 E8.1976
G1 X47.288 Y56.622 E8.2123
G1 X46.442 Y56.624 E8.2579
G1 X46.525 Y56.707 E8.2642
G1 X45.814 Y56.845 E8.3032
G1 X45.595 Y56.626 E8.3198
G1 X44.749 Y56.629 E8.3654
G1 X45.197 Y57.076 E8.3995
G1 X44.686 Y57.414 E8.4325
G1 X43.903 Y56.631 E8.4922
G1 X43.056 Y56.633 E8.5378
G1 X44.212 Y57.789 E8.6259
G1 X43.877 Y58.302 E8.6590
G1 X42.210 Y56.635 E8.7860
G1 X41.364 Y56.637 E8.8316
G1 X43.542 Y58.816 E8.9976
G1 X43.527 Y58.839 E8.9991
G1 X43.399 Y59.521 E9.0365
G1 X40.517 Y56.639 E9.2561
G1 X39.929 Y56.641 E9.2878
G1 X39.929 Y56.900 E9.3018
G1 X43.322 Y60.293 E9.5603
G1 X43.526 Y61.345 E9.6181
G1 X39.932 Y57.751 E9.8920
G1 X39.934 Y58.602 E9.9378
G1 X49.488 Y68.155 E10.6658
G1 X49.490 Y69.006 E10.7116
G1 X39.936 Y59.452 E11.4396
G1 X39.938 Y60.303 E11.4855
G1 X49.492 Y69.857 E12.2135
G1 X49.494 Y70.708 E12.2593
G1 X39.940 Y61.154 E12.9873
G1 X39.943 Y62.004 E13.0332
G1 X49.497 Y71.558 E13.7612
G1 X49.499 Y72.409 E13.8070
G1 X39.945 Y62.855 E14.5350
G1 X39.947 Y63.706 E14.5808
G1 X49.501 Y73.260 E15.3089
G1 X49.503 Y74.110 E15.3547
G1 X39.949 Y64.557 E16.0827
G1 X39.951 Y65.407 E16.1285
G1 X49.505 Y74.961 E16.8565
G1 X49.508 Y75.812 E16.9024
G1 X39.954 Y66.258 E17.6304
